resources/LogC3_Rec709.cube
TITLE "Generated by Resolve"
LUT_3D_SIZE 33
0 0 0
0 0 0
0 0 0
0.000854505 0 0
0.0294041 0 0
0.0577859 0 0
0.0919814 0 0
0.129503 0 0
0.169375 0 0
0.212222 0 0
0.258427 0 0
0.308202 0 0
0.36144 0 0
0.417823 0 0
0.476631 0 0
0.536828 0 0
0.59707 0 0
0.655818 0 0
0.711482 0 0
0.762676 0 0
0.808392 0 0
0.848051 0 0
0.881544 0 0
0.909194 0 0
0.931563 0 0
0.94934 0 0
0.963287 0 0
0.974105 0 0
0.982422 0 0
0.988769 0 0
0.993591 0 0
0.997238 0 0
1 0 0
0 0 0
0 0 0
0 0 0
0.000854505 0 0
0.0294041 0 0
0.0577859 0 0
0.0919814 0 0
0.129503 0 0
0.169375 0 0
0.212222 0 0
0.258427 0 0
0.308202 0 0
0.36144 0 0
0.417823 0 0
0.476631 0 0
0.536828 0 0
0.59707 0 0
0.655818 0 0
0.711482 0 0
0.762676 0 0
0.808392 0 0
0.848051 0 0
0.881544 0 0
0.909194 0 0
0.931563 0 0
0.94934 0 0
0.963287 0 0
0.974105 0 0
0.982422 0 0
0.988769 0 0
0.993591 0 0
0.997238 0 0
1 0 0
0 0 0
0 0 0
0 0 0
0.000854505 0 0
0.0294041 0 0
0.0577859 0 0
0.0919814 0 0
0.129503 0 0
0.169375 0 0
0.212222 0 0
0.258427 0 0
0.308202 0 0
0.36144 0 0
0.417823 0 0
0.476631 0 0
0.536828 0 0
0.59707 0 0
0.655818 0 0
0.711482 0 0
0.762676 0 0
0.808392 0 0
0.848051 0 0
0.881544 0 0
0.909194 0 0
0.931563 0 0
0.94934 0 0
0.963287 0 0
0.974105 0 0
0.982422 0 0
0.988769 0 0
0.993591 0 0
0.997238 0 0
1 0 0
0 0.000854505 0
0 0.000854505 0
0 0.000854505 0
0.000854505 0.000854505 0
0.0294041 0.000854505 0
0.0577859 0.000854505 0
0.0919814 0.000854505 0
0.129503 0.000854505 0
0.169375 0.000854505 0
0.212222 0.000854505 0
0.258427 0.000854505 0
0.308202 0.000854505 0
0.36144 0.000854505 0
0.417823 0.000854505 0
0.476631 0.000854505 0
0.536828 0.000854505 0
0.59707 0.000854505 0
0.655818 0.000854505 0
0.711482 0.000854505 0
0.762676 0.000854505 0
0.808392 0.000854505 0
0.848051 0.000854505 0
0.881544 0.000854505 0
0.909194 0.000854505 0
0.931563 0.000854505 0
0.94934 0.000854505 0
0.963287 0.000854505 0
0.974105 0.000854505 0
0.982422 0.000854505 0
0.988769 0.000854505 0
0.993591 0.000854505 0
0.997238 0.000854505 0
1 0.000854505 0
0 0.0294041 0
0 0.0294041 0
0 0.0294041 0
0.000854505 0.0294041 0
0.0294041 0.0294041 0
0.0577859 0.0294041 0
0.0919814 0.0294041 0
0.129503 0.0294041 0
0.169375 0.0294041 0
0.212222 0.0294041 0
0.258427 0.0294041 0
0.308202 0.0294041 0
0.36144 0.0294041 0
0.417823 0.0294041 0
0.476631 0.0294041 0
0.536828 0.0294041 0
0.59707 0.0294041 0
0.655818 0.0294041 0
0.711482 0.0294041 0
0.762676 0.0294041 0
0.808392 0.0294041 0
0.848051 0.0294041 0
0.881544 0.0294041 0
0.909194 0.0294041 0
0.931563 0.0294041 0
0.94934 0.0294041 0
0.963287 0.0294041 0
0.974105 0.0294041 0
0.982422 0.0294041 0
0.988769 0.0294041 0
0.993591 0.0294041 0
0.997238 0.0294041 0
1 0.0294041 0
0 0.0577859 0
0 0.0577859 0
0 0.0577859 0
0.000854505 0.0577859 0
0.0294041 0.0577859 0
0.0577859 0.0577859 0
0.0919814 0.0577859 0
0.129503 0.0577859 0
0.169375 0.0577859 0
0.212222 0.0577859 0
0.258427 0.0577859 0
0.308202 0.0577859 0
0.36144 0.0577859 0
0.417823 0.0577859 0
0.476631 0.0577859 0
0.536828 0.0577859 0
0.59707 0.0577859 0
0.655818 0.0577859 0
0.711482 0.0577859 0
0.762676 0.0577859 0
0.808392 0.0577859 0
0.848051 0.0577859 0
0.881544 0.0577859 0
0.909194 0.0577859 0
0.931563 0.0577859 0
0.94934 0.0577859 0
0.963287 0.0577859 0
0.974105 0.0577859 0
0.982422 0.0577859 0
0.988769 0.0577859 0
0.993591 0.0577859 0
0.997238 0.0577859 0
1 0.0577859 0
0 0.0919814 0
0 0.0919814 0
0 0.0919814 0
0.000854505 0.0919814 0
0.0294041 0.0919814 0
0.0577859 0.0919814 0
0.0919814 0.0919814 0
0.129503 0.0919814 0
0.169375 0.0919814 0
0.212222 0.0919814 0
0.258427 0.0919814 0
0.308202 0.0919814 0
0.36144 0.0919814 0
0.417823 0.0919814 0
0.476631 0.0919814 0
0.536828 0.0919814 0
0.59707 0.0919814 0
0.655818 0.0919814 0
0.711482 0.0919814 0
0.762676 0.0919814 0
0.808392 0.0919814 0
0.848051 0.0919814 0
0.881544 0.0919814 0
0.909194 0.0919814 0
0.931563 0.0919814 0
0.94934 0.0919814 0
0.963287 0.0919814 0
0.974105 0.0919814 0
0.982422 0.0919814 0
0.988769 0.0919814 0
0.993591 0.0919814 0
0.997238 0.0919814 0
1 0.0919814 0
0 0.129503 0
0 0.129503 0
0 0.129503 0
0.000854505 0.129503 0
0.0294041 0.129503 0
0.0577859 0.129503 0
0.0919814 0.129503 0
0.129503 0.129503 0
0.169375 0.129503 0
0.212222 0.129503 0
0.258427 0.129503 0
0.308202 0.129503 0
0.36144 0.129503 0
0.417823 0.129503 0
0.476631 0.129503 0
0.536828 0.129503 0
0.59707 0.129503 0
0.655818 0.129503 0
0.711482 0.129503 0
0.762676 0.129503 0
0.808392 0.129503 0
0.848051 0.129503 0
0.881544 0.129503 0
0.909194 0.129503 0
0.931563 0.129503 0
0.94934 0.129503 0
0.963287 0.129503 0
0.974105 0.129503 0
0.982422 0.129503 0
0.988769 0.129503 0
0.993591 0.129503 0
0.997238 0.129503 0
1 0.129503 0
0 0.169375 0
0 0.169375 0
0 0.169375 0
0.000854505 0.169375 0
0.0294041 0.169375 0
0.0577859 0.169375 0
0.0919814 0.169375 0
0.129503 0.169375 0
0.169375 0.169375 0
0.212222 0.169375 0
0.258427 0.169375 0
0.308202 0.169375 0
0.36144 0.169375 0
0.417823 0.169375 0
0.476631 0.169375 0
0.536828 0.169375 0
0.59707 0.169375 0
0.655818 0.169375 0
0.711482 0.169375 0
0.762676 0.169375 0
0.808392 0.169375 0
0.848051 0.169375 0
0.881544 0.169375 0
0.909194 0.169375 0
0.931563 0.169375 0
0.94934 0.169375 0
0.963287 0.169375 0
0.974105 0.169375 0
0.982422 0.169375 0
0.988769 0.169375 0
0.993591 0.169375 0
0.997238 0.169375 0
1 0.169375 0
0 0.212222 0
0 0.212222 0
0 0.212222 0
0.000854505 0.212222 0
0.0294041 0.212222 0
0.0577859 0.212222 0
0.0919814 0.212222 0
0.129503 0.212222 0
0.169375 0.212222 0
0.212222 0.212222 0
0.258427 0.212222 0
0.308202 0.212222 0
0.36144 0.212222 0
0.417823 0.212222 0
0.476631 0.212222 0
0.536828 0.212222 0
0.59707 0.212222 0
0.655818 0.212222 0
0.711482 0.212222 0
0.762676 0.212222 0
0.808392 0.212222 0
0.848051 0.212222 0
0.881544 0.212222 0
0.909194 0.212222 0
0.931563 0.212222 0
0.94934 0.212222 0
0.963287 0.212222 0
0.974105 0.212222 0
0.982422 0.212222 0
0.988769 0.212222 0
0.993591 0.212222 0
0.997238 0.212222 0
1 0.212222 0
0 0.258427 0
0 0.258427 0
0 0.258427 0
0.000854505 0.258427 0
0.0294041 0.258427 0
0.0577859 0.258427 0
0.0919814 0.258427 0
0.129503 0.258427 0
0.169375 0.258427 0
0.212222 0.258427 0
0.258427 0.258427 0
0.308202 0.258427 0
0.36144 0.258427 0
0.417823 0.258427 0
0.476631 0.258427 0
0.536828 0.258427 0
0.59707 0.258427 0
0.655818 0.258427 0
0.711482 0.258427 0
0.762676 0.258427 0
0.808392 0.258427 0
0.848051 0.258427 0
0.881544 0.258427 0
0.909194 0.258427 0
0.931563 0.258427 0
0.94934 0.258427 0
0.963287 0.258427 0
0.974105 0.258427 0
0.982422 0.258427 0
0.988769 0.258427 0
0.993591 0.258427 0
0.997238 0.258427 0
1 0.258427 0
0 0.308202 0
0 0.308202 0
0 0.308202 0
0.000854505 0.308202 0
0.0294041 0.308202 0
0.0577859 0.308202 0
0.0919814 0.308202 0
0.129503 0.308202 0
0.169375 0.308202 0
0.212222 0.308202 0
0.258427 0.308202 0
0.308202 0.308202 0
0.36144 0.308202 0
0.417823 0.308202 0
0.476631 0.308202 0
0.536828 0.308202 0
0.59707 0.308202 0
0.655818 0.308202 0
0.711482 0.308202 0
0.762676 0.308202 0
0.808392 0.308202 0
0.848051 0.308202 0
0.881544 0.308202 0
0.909194 0.308202 0
0.931563 0.308202 0
0.94934 0.308202 0
0.963287 0.308202 0
0.974105 0.308202 0
0.982422 0.308202 0
0.988769 0.308202 0
0.993591 0.308202 0
0.997238 0.308202 0
1 0.308202 0
0 0.36144 0
0 0.36144 0
0 0.36144 0
0.000854505 0.36144 0
0.0294041 0.36144 0
0.0577859 0.36144 0
0.0919814 0.36144 0
0.129503 0.36144 0
0.169375 0.36144 0
0.212222 0.36144 0
0.258427 0.36144 0
0.308202 0.36144 0
0.36144 0.36144 0
0.417823 0.36144 0
0.476631 0.36144 0
0.536828 0.36144 0
0.59707 0.36144 0
0.655818 0.36144 0
0.711482 0.36144 0
0.762676 0.36144 0
0.808392 0.36144 0
0.848051 0.36144 0
0.881544 0.36144 0
0.909194 0.36144 0
0.931563 0.36144 0
0.94934 0.36144 0
0.963287 0.36144 0
0.974105 0.36144 0
0.982422 0.36144 0
0.988769 0.36144 0
0.993591 0.36144 0
0.997238 0.36144 0
1 0.36144 0
0 0.417823 0
0 0.417823 0
0 0.417823 0
0.000854505 0.417823 0
0.0294041 0.417823 0
0.0577859 0.417823 0
0.0919814 0.417823 0
0.129503 0.417823 0
0.169375 0.417823 0
0.212222 0.417823 0
0.258427 0.417823 0
0.308202 0.417823 0
0.36144 0.417823 0
0.417823 0.417823 0
0.476631 0.417823 0
0.536828 0.417823 0
0.59707 0.417823 0
0.655818 0.417823 0
0.711482 0.417823 0
0.762676 0.417823 0
0.808392 0.417823 0
0.848051 0.417823 0
0.881544 0.417823 0
0.909194 0.417823 0
0.931563 0.417823 0
0.94934 0.417823 0
0.963287 0.417823 0
0.974105 0.417823 0
0.982422 0.417823 0
0.988769 0.417823 0
0.993591 0.417823 0
0.997238 0.417823 0
1 0.417823 0
0 0.476631 0
0 0.476631 0
0 0.476631 0
0.000854505 0.476631 0
0.0294041 0.476631 0
0.0577859 0.476631 0
0.0919814 0.476631 0
0.129503 0.476631 0
0.169375 0.476631 0
0.212222 0.476631 0
0.258427 0.476631 0
0.308202 0.476631 0
0.36144 0.476631 0
0.417823 0.476631 0
0.476631 0.476631 0
0.536828 0.476631 0
0.59707 0.476631 0
0.655818 0.476631 0
0.711482 0.476631 0
0.762676 0.476631 0
0.808392 0.476631 0
0.848051 0.476631 0
0.881544 0.476631 0
0.909194 0.476631 0
0.931563 0.476631 0
0.94934 0.476631 0
0.963287 0.476631 0
0.974105 0.476631 0
0.982422 0.476631 0
0.988769 0.476631 0
0.993591 0.476631 0
0.997238 0.476631 0
1 0.476631 0
0 0.536828 0
0 0.536828 0
0 0.536828 0
0.000854505 0.536828 0
0.0294041 0.536828 0
0.0577859 0.536828 0
0.0919814 0.536828 0
0.129503 0.536828 0
0.169375 0.536828 0
0.212222 0.536828 0
0.258427 0.536828 0
0.308202 0.536828 0
0.36144 0.536828 0
0.417823 0.536828 0
0.476631 0.536828 0
0.536828 0.536828 0
0.59707 0.536828 0
0.655818 0.536828 0
0.711482 0.536828 0
0.762676 0.536828 0
0.808392 0.536828 0
0.848051 0.536828 0
0.881544 0.536828 0
0.909194 0.536828 0
0.931563 0.536828 0
0.94934 0.536828 0
0.963287 0.536828 0
0.974105 0.536828 0
0.982422 0.536828 0
0.988769 0.536828 0
0.993591 0.536828 0
0.997238 0.536828 0
1 0.536828 0
0 0.59707 0
0 0.59707 0
0 0.59707 0
0.000854505 0.59707 0
0.0294041 0.59707 0
0.0577859 0.59707 0
0.0919814 0.59707 0
0.129503 0.59707 0
0.169375 0.59707 0
0.212222 0.59707 0
0.258427 0.59707 0
0.308202 0.59707 0
0.36144 0.59707 0
0.417823 0.59707 0
0.476631 0.59707 0
0.536828 0.59707 0
0.59707 0.59707 0
0.655818 0.59707 0
0.711482 0.59707 0
0.762676 0.59707 0
0.808392 0.59707 0
0.848051 0.59707 0
0.881544 0.59707 0
0.909194 0.59707 0
0.931563 0.59707 0
0.94934 0.59707 0
0.963287 0.59707 0
0.974105 0.59707 0
0.982422 0.59707 0
0.988769 0.59707 0
0.993591 0.59707 0
0.997238 0.59707 0
1 0.59707 0
0 0.655818 0
0 0.655818 0
0 0.655818 0
0.000854505 0.655818 0
0.0294041 0.655818 0
0.0577859 0.655818 0
0.0919814 0.655818 0
0.129503 0.655818 0
0.169375 0.655818 0
0.212222 0.655818 0
0.258427 0.655818 0
0.308202 0.655818 0
0.36144 0.655818 0
0.417823 0.655818 0
0.476631 0.655818 0
0.536828 0.655818 0
0.59707 0.655818 0
0.655818 0.655818 0
0.711482 0.655818 0
0.762676 0.655818 0
0.808392 0.655818 0
0.848051 0.655818 0
0.881544 0.655818 0
0.909194 0.655818 0
0.931563 0.655818 0
0.94934 0.655818 0
0.963287 0.655818 0
0.974105 0.655818 0
0.982422 0.655818 0
0.988769 0.655818 0
0.993591 0.655818 0
0.997238 0.655818 0
1 0.655818 0
0 0.711482 0
0 0.711482 0
0 0.711482 0
0.000854505 0.711482 0
0.0294041 0.711482 0
0.0577859 0.711482 0
0.0919814 0.711482 0
0.129503 0.711482 0
0.169375 0.711482 0
0.212222 0.711482 0
0.258427 0.711482 0
0.308202 0.711482 0
0.36144 0.711482 0
0.417823 0.711482 0
0.476631 0.711482 0
0.536828 0.711482 0
0.59707 0.711482 0
0.655818 0.711482 0
0.711482 0.711482 0
0.762676 0.711482 0
0.808392 0.711482 0
0.848051 0.711482 0
0.881544 0.711482 0
0.909194 0.711482 0
0.931563 0.711482 0
0.94934 0.711482 0
0.963287 0.711482 0
0.974105 0.711482 0
0.982422 0.711482 0
0.988769 0.711482 0
0.993591 0.711482 0
0.997238 0.711482 0
1 0.711482 0
0 0.762676 0
0 0.762676 0
0 0.762676 0
0.000854505 0.762676 0
0.0294041 0.762676 0
0.0577859 0.762676 0
0.0919814 0.762676 0
0.129503 0.762676 0
0.169375 0.762676 0
0.212222 0.762676 0
0.258427 0.762676 0
0.308202 0.762676 0
0.36144 0.762676 0
0.417823 0.762676 0
0.476631 0.762676 0
0.536828 0.762676 0
0.59707 0.762676 0
0.655818 0.762676 0
0.711482 0.762676 0
0.762676 0.762676 0
0.808392 0.762676 0
0.848051 0.762676 0
0.881544 0.762676 0
0.909194 0.762676 0
0.931563 0.762676 0
0.94934 0.762676 0
0.963287 0.762676 0
0.974105 0.762676 0
0.982422 0.762676 0
0.988769 0.762676 0
0.993591 0.762676 0
0.997238 0.762676 0
1 0.762676 0
0 0.808392 0
0 0.808392 0
0 0.808392 0
0.000854505 0.808392 0
0.0294041 0.808392 0
0.0577859 0.808392 0
0.0919814 0.808392 0
0.129503 0.808392 0
0.169375 0.808392 0
0.212222 0.808392 0
0.258427 0.808392 0
0.308202 0.808392 0
0.36144 0.808392 0
0.417823 0.808392 0
0.476631 0.808392 0
0.536828 0.808392 0
0.59707 0.808392 0
0.655818 0.808392 0
0.711482 0.808392 0
0.762676 0.808392 0
0.808392 0.808392 0
0.848051 0.808392 0
0.881544 0.808392 0
0.909194 0.808392 0
0.931563 0.808392 0
0.94934 0.808392 0
0.963287 0.808392 0
0.974105 0.808392 0
0.982422 0.808392 0
0.988769 0.808392 0
0.993591 0.808392 0
0.997238 0.808392 0
1 0.808392 0
0 0.848051 0
0 0.848051 0
0 0.848051 0
0.000854505 0.848051 0
0.0294041 0.848051 0
0.0577859 0.848051 0
0.0919814 0.848051 0
0.129503 0.848051 0
0.169375 0.848051 0
0.212222 0.848051 0
0.258427 0.848051 0
0.308202 0.848051 0
0.36144 0.848051 0
0.417823 0.848051 0
0.476631 0.848051 0
0.536828 0.848051 0
0.59707 0.848051 0
0.655818 0.848051 0
0.711482 0.848051 0
0.762676 0.848051 0
0.808392 0.848051 0
0.848051 0.848051 0
0.881544 0.848051 0
0.909194 0.848051 0
0.931563 0.848051 0
0.94934 0.848051 0
0.963287 0.848051 0
0.974105 0.848051 0
0.982422 0.848051 0
0.988769 0.848051 0
0.993591 0.848051 0
0.997238 0.848051 0
1 0.848051 0
0 0.881544 0
0 0.881544 0
0 0.881544 0
0.000854505 0.881544 0
0.0294041 0.881544 0
0.0577859 0.881544 0
0.0919814 0.881544 0
0.129503 0.881544 0
0.169375 0.881544 0
0.212222 0.881544 0
0.258427 0.881544 0
0.308202 0.881544 0
0.36144 0.881544 0
0.417823 0.881544 0
0.476631 0.881544 0
0.536828 0.881544 0
0.59707 0.881544 0
0.655818 0.881544 0
0.711482 0.881544 0
0.762676 0.881544 0
0.808392 0.881544 0
0.848051 0.881544 0
0.881544 0.881544 0
0.909194 0.881544 0
0.931563 0.881544 0
0.94934 0.881544 0
0.963287 0.881544 0
0.974105 0.881544 0
0.982422 0.881544 0
0.988769 0.881544 0
0.993591 0.881544 0
0.997238 0.881544 0
1 0.881544 0
0 0.909194 0
0 0.909194 0
0 0.909194 0
0.000854505 0.909194 0
0.0294041 0.909194 0
0.0577859 0.909194 0
0.0919814 0.909194 0
0.129503 0.909194 0
0.169375 0.909194 0
0.212222 0.909194 0
0.258427 0.909194 0
0.308202 0.909194 0
0.36144 0.909194 0
0.417823 0.909194 0
0.476631 0.909194 0
0.536828 0.909194 0
0.59707 0.909194 0
0.655818 0.909194 0
0.711482 0.909194 0
0.762676 0.909194 0
0.808392 0.909194 0
0.848051 0.909194 0
0.881544 0.909194 0
0.909194 0.909194 0
0.931563 0.909194 0
0.94934 0.909194 0
0.963287 0.909194 0
0.974105 0.909194 0
0.982422 0.909194 0
0.988769 0.909194 0
0.993591 0.909194 0
0.997238 0.909194 0
1 0.909194 0
0 0.931563 0
0 0.931563 0
0 0.931563 0
0.000854505 0.931563 0
0.0294041 0.931563 0
0.0577859 0.931563 0
0.0919814 0.931563 0
0.129503 0.931563 0
0.169375 0.931563 0
0.212222 0.931563 0
0.258427 0.931563 0
0.308202 0.931563 0
0.36144 0.931563 0
0.417823 0.931563 0
0.476631 0.931563 0
0.536828 0.931563 0
0.59707 0.931563 0
0.655818 0.931563 0
0.711482 0.931563 0
0.762676 0.931563 0
0.808392 0.931563 0
0.848051 0.931563 0
0.881544 0.931563 0
0.909194 0.931563 0
0.931563 0.931563 0
0.94934 0.931563 0
0.963287 0.931563 0
0.974105 0.931563 0
0.982422 0.931563 0
0.988769 0.931563 0
0.993591 0.931563 0
0.997238 0.931563 0
1 0.931563 0
0 0.94934 0
0 0.94934 0
0 0.94934 0
0.000854505 0.94934 0
0.0294041 0.94934 0
0.0577859 0.94934 0
0.0919814 0.94934 0
0.129503 0.94934 0
0.169375 0.94934 0
0.212222 0.94934 0
0.258427 0.94934 0
0.308202 0.94934 0
0.36144 0.94934 0
0.417823 0.94934 0
0.476631 0.94934 0
0.536828 0.94934 0
0.59707 0.94934 0
0.655818 0.94934 0
0.711482 0.94934 0
0.762676 0.94934 0
0.808392 0.94934 0
0.848051 0.94934 0
0.881544 0.94934 0
0.909194 0.94934 0
0.931563 0.94934 0
0.94934 0.94934 0
0.963287 0.94934 0
0.974105 0.94934 0
0.982422 0.94934 0
0.988769 0.94934 0
0.993591 0.94934 0
0.997238 0.94934 0
1 0.94934 0
0 0.963287 0
0 0.963287 0
0 0.963287 0
0.000854505 0.963287 0
0.0294041 0.963287 0
0.0577859 0.963287 0
0.0919814 0.963287 0
0.129503 0.963287 0
0.169375 0.963287 0
0.212222 0.963287 0
0.258427 0.963287 0
0.308202 0.963287 0
0.36144 0.963287 0
0.417823 0.963287 0
0.476631 0.963287 0
0.536828 0.963287 0
0.59707 0.963287 0
0.655818 0.963287 0
0.711482 0.963287 0
0.762676 0.963287 0
0.808392 0.963287 0
0.848051 0.963287 0
0.881544 0.963287 0
0.909194 0.963287 0
0.931563 0.963287 0
0.94934 0.963287 0
0.963287 0.963287 0
0.974105 0.963287 0
0.982422 0.963287 0
0.988769 0.963287 0
0.993591 0.963287 0
0.997238 0.963287 0
1 0.963287 0
0 0.974105 0
0 0.974105 0
0 0.974105 0
0.000854505 0.974105 0
0.0294041 0.974105 0
0.0577859 0.974105 0
0.0919814 0.974105 0
0.129503 0.974105 0
0.169375 0.974105 0
