resources/LogC3_LogC4.cube
TITLE "Generated by Resolve"
LUT_3D_SIZE 33
0.00668345 0.00668345 0.00668345
0.045182 0.00668345 0.00668345
0.0723888 0.00668345 0.00668345
0.093431 0.00668345 0.00668345
0.110582 0.00668345 0.00668345
0.12517 0.00668345 0.00668345
0.140429 0.00668345 0.00668345
0.15758 0.00668345 0.00668345
0.176501 0.00668345 0.00668345
0.197009 0.00668345 0.00668345
0.218891 0.00668345 0.00668345
0.241917 0.00668345 0.00668345
0.265904 0.00668345 0.00668345
0.290669 0.00668345 0.00668345
0.316045 0.00668345 0.00668345
0.341939 0.00668345 0.00668345
0.368231 0.00668345 0.00668345
0.394858 0.00668345 0.00668345
0.42179 0.00668345 0.00668345
0.449012 0.00668345 0.00668345
0.476509 0.00668345 0.00668345
0.504326 0.00668345 0.00668345
0.532525 0.00668345 0.00668345
0.561196 0.00668345 0.00668345
0.590494 0.00668345 0.00668345
0.62063 0.00668345 0.00668345
0.651987 0.00668345 0.00668345
0.685084 0.00668345 0.00668345
0.720836 0.00668345 0.00668345
0.760876 0.00668345 0.00668345
0.808621 0.00668345 0.00668345
0.873106 0.00668345 0.00668345
1 0.00668345 0.00668345
0.00668345 0.045182 0.00668345
0.045182 0.045182 0.00668345
0.0723888 0.045182 0.00668345
0.093431 0.045182 0.00668345
0.110582 0.045182 0.00668345
0.12517 0.045182 0.00668345
0.140429 0.045182 0.00668345
0.15758 0.045182 0.00668345
0.176501 0.045182 0.00668345
0.197009 0.045182 0.00668345
0.218891 0.045182 0.00668345
0.241917 0.045182 0.00668345
0.265904 0.045182 0.00668345
0.290669 0.045182 0.00668345
0.316045 0.045182 0.00668345
0.341939 0.045182 0.00668345
0.368231 0.045182 0.00668345
0.394858 0.045182 0.00668345
0.42179 0.045182 0.00668345
0.449012 0.045182 0.00668345
0.476509 0.045182 0.00668345
0.504326 0.045182 0.00668345
0.532525 0.045182 0.00668345
0.561196 0.045182 0.00668345
0.590494 0.045182 0.00668345
0.62063 0.045182 0.00668345
0.651987 0.045182 0.00668345
0.685084 0.045182 0.00668345
0.720836 0.045182 0.00668345
0.760876 0.045182 0.00668345
0.808621 0.045182 0.00668345
0.873106 0.045182 0.00668345
1 0.045182 0.00668345
0.00668345 0.0723888 0.00668345
0.045182 0.0723888 0.00668345
0.0723888 0.0723888 0.00668345
0.093431 0.0723888 0.00668345
0.110582 0.0723888 0.00668345
0.12517 0.0723888 0.00668345
0.140429 0.0723888 0.00668345
0.15758 0.0723888 0.00668345
0.176501 0.0723888 0.00668345
0.197009 0.0723888 0.00668345
0.218891 0.0723888 0.00668345
0.241917 0.0723888 0.00668345
0.265904 0.0723888 0.00668345
0.290669 0.0723888 0.00668345
0.316045 0.0723888 0.00668345
0.341939 0.0723888 0.00668345
0.368231 0.0723888 0.00668345
0.394858 0.0723888 0.00668345
0.42179 0.0723888 0.00668345
0.449012 0.0723888 0.00668345
0.476509 0.0723888 0.00668345
0.504326 0.0723888 0.00668345
0.532525 0.0723888 0.00668345
0.561196 0.0723888 0.00668345
0.590494 0.0723888 0.00668345
0.62063 0.0723888 0.00668345
0.651987 0.0723888 0.00668345
0.685084 0.0723888 0.00668345
0.720836 0.0723888 0.00668345
0.760876 0.0723888 0.00668345
0.808621 0.0723888 0.00668345
0.873106 0.0723888 0.00668345
1 0.0723888 0.00668345
0.00668345 0.093431 0.00668345
0.045182 0.093431 0.00668345
0.0723888 0.093431 0.00668345
0.093431 0.093431 0.00668345
0.110582 0.093431 0.00668345
0.12517 0.093431 0.00668345
0.140429 0.093431 0.00668345
0.15758 0.093431 0.00668345
0.176501 0.093431 0.00668345
0.197009 0.093431 0.00668345
0.218891 0.093431 0.00668345
0.241917 0.093431 0.00668345
0.265904 0.093431 0.00668345
0.290669 0.093431 0.00668345
0.316045 0.093431 0.00668345
0.341939 0.093431 0.00668345
0.368231 0.093431 0.00668345
0.394858 0.093431 0.00668345
0.42179 0.093431 0.00668345
0.449012 0.093431 0.00668345
0.476509 0.093431 0.00668345
0.504326 0.093431 0.00668345
0.532525 0.093431 0.00668345
0.561196 0.093431 0.00668345
0.590494 0.093431 0.00668345
0.62063 0.093431 0.00668345
0.651987 0.093431 0.00668345
0.685084 0.093431 0.00668345
0.720836 0.093431 0.00668345
0.760876 0.093431 0.00668345
0.808621 0.093431 0.00668345
0.873106 0.093431 0.00668345
1 0.093431 0.00668345
0.00668345 0.110582 0.00668345
0.045182 0.110582 0.00668345
0.0723888 0.110582 0.00668345
0.093431 0.110582 0.00668345
0.110582 0.110582 0.00668345
0.12517 0.110582 0.00668345
0.140429 0.110582 0.00668345
0.15758 0.110582 0.00668345
0.176501 0.110582 0.00668345
0.197009 0.110582 0.00668345
0.218891 0.110582 0.00668345
0.241917 0.110582 0.00668345
0.265904 0.110582 0.00668345
0.290669 0.110582 0.00668345
0.316045 0.110582 0.00668345
0.341939 0.110582 0.00668345
0.368231 0.110582 0.00668345
0.394858 0.110582 0.00668345
0.42179 0.110582 0.00668345
0.449012 0.110582 0.00668345
0.476509 0.110582 0.00668345
0.504326 0.110582 0.00668345
0.532525 0.110582 0.00668345
0.561196 0.110582 0.00668345
0.590494 0.110582 0.00668345
0.62063 0.110582 0.00668345
0.651987 0.110582 0.00668345
0.685084 0.110582 0.00668345
0.720836 0.110582 0.00668345
0.760876 0.110582 0.00668345
0.808621 0.110582 0.00668345
0.873106 0.110582 0.00668345
1 0.110582 0.00668345
0.00668345 0.12517 0.00668345
0.045182 0.12517 0.00668345
0.0723888 0.12517 0.00668345
0.093431 0.12517 0.00668345
0.110582 0.12517 0.00668345
0.12517 0.12517 0.00668345
0.140429 0.12517 0.00668345
0.15758 0.12517 0.00668345
0.176501 0.12517 0.00668345
0.197009 0.12517 0.00668345
0.218891 0.12517 0.00668345
0.241917 0.12517 0.00668345
0.265904 0.12517 0.00668345
0.290669 0.12517 0.00668345
0.316045 0.12517 0.00668345
0.341939 0.12517 0.00668345
0.368231 0.12517 0.00668345
0.394858 0.12517 0.00668345
0.42179 0.12517 0.00668345
0.449012 0.12517 0.00668345
0.476509 0.12517 0.00668345
0.504326 0.12517 0.00668345
0.532525 0.12517 0.00668345
0.561196 0.12517 0.00668345
0.590494 0.12517 0.00668345
0.62063 0.12517 0.00668345
0.651987 0.12517 0.00668345
0.685084 0.12517 0.00668345
0.720836 0.12517 0.00668345
0.760876 0.12517 0.00668345
0.808621 0.12517 0.00668345
0.873106 0.12517 0.00668345
1 0.12517 0.00668345
0.00668345 0.140429 0.00668345
0.045182 0.140429 0.00668345
0.0723888 0.140429 0.00668345
0.093431 0.140429 0.00668345
0.110582 0.140429 0.00668345
0.12517 0.140429 0.00668345
0.140429 0.140429 0.00668345
0.15758 0.140429 0.00668345
0.176501 0.140429 0.00668345
0.197009 0.140429 0.00668345
0.218891 0.140429 0.00668345
0.241917 0.140429 0.00668345
0.265904 0.140429 0.00668345
0.290669 0.140429 0.00668345
0.316045 0.140429 0.00668345
0.341939 0.140429 0.00668345
0.368231 0.140429 0.00668345
0.394858 0.140429 0.00668345
0.42179 0.140429 0.00668345
0.449012 0.140429 0.00668345
0.476509 0.140429 0.00668345
0.504326 0.140429 0.00668345
0.532525 0.140429 0.00668345
0.561196 0.140429 0.00668345
0.590494 0.140429 0.00668345
0.62063 0.140429 0.00668345
0.651987 0.140429 0.00668345
0.685084 0.140429 0.00668345
0.720836 0.140429 0.00668345
0.760876 0.140429 0.00668345
0.808621 0.140429 0.00668345
0.873106 0.140429 0.00668345
1 0.140429 0.00668345
0.00668345 0.15758 0.00668345
0.045182 0.15758 0.00668345
0.0723888 0.15758 0.00668345
0.093431 0.15758 0.00668345
0.110582 0.15758 0.00668345
0.12517 0.15758 0.00668345
0.140429 0.15758 0.00668345
0.15758 0.15758 0.00668345
0.176501 0.15758 0.00668345
0.197009 0.15758 0.00668345
0.218891 0.15758 0.00668345
0.241917 0.15758 0.00668345
0.265904 0.15758 0.00668345
0.290669 0.15758 0.00668345
0.316045 0.15758 0.00668345
0.341939 0.15758 0.00668345
0.368231 0.15758 0.00668345
0.394858 0.15758 0.00668345
0.42179 0.15758 0.00668345
0.449012 0.15758 0.00668345
0.476509 0.15758 0.00668345
0.504326 0.15758 0.00668345
0.532525 0.15758 0.00668345
0.561196 0.15758 0.00668345
0.590494 0.15758 0.00668345
0.62063 0.15758 0.00668345
0.651987 0.15758 0.00668345
0.685084 0.15758 0.00668345
0.720836 0.15758 0.00668345
0.760876 0.15758 0.00668345
0.808621 0.15758 0.00668345
0.873106 0.15758 0.00668345
1 0.15758 0.00668345
0.00668345 0.176501 0.00668345
0.045182 0.176501 0.00668345
0.0723888 0.176501 0.00668345
0.093431 0.176501 0.00668345
0.110582 0.176501 0.00668345
0.12517 0.176501 0.00668345
0.140429 0.176501 0.00668345
0.15758 0.176501 0.00668345
0.176501 0.176501 0.00668345
0.197009 0.176501 0.00668345
0.218891 0.176501 0.00668345
0.241917 0.176501 0.00668345
0.265904 0.176501 0.00668345
0.290669 0.176501 0.00668345
0.316045 0.176501 0.00668345
0.341939 0.176501 0.00668345
0.368231 0.176501 0.00668345
0.394858 0.176501 0.00668345
0.42179 0.176501 0.00668345
0.449012 0.176501 0.00668345
0.476509 0.176501 0.00668345
0.504326 0.176501 0.00668345
0.532525 0.176501 0.00668345
0.561196 0.176501 0.00668345
0.590494 0.176501 0.00668345
0.62063 0.176501 0.00668345
0.651987 0.176501 0.00668345
0.685084 0.176501 0.00668345
0.720836 0.176501 0.00668345
0.760876 0.176501 0.00668345
0.808621 0.176501 0.00668345
0.873106 0.176501 0.00668345
1 0.176501 0.00668345
0.00668345 0.197009 0.00668345
0.045182 0.197009 0.00668345
0.0723888 0.197009 0.00668345
0.093431 0.197009 0.00668345
0.110582 0.197009 0.00668345
0.12517 0.197009 0.00668345
0.140429 0.197009 0.00668345
0.15758 0.197009 0.00668345
0.176501 0.197009 0.00668345
0.197009 0.197009 0.00668345
0.218891 0.197009 0.00668345
0.241917 0.197009 0.00668345
0.265904 0.197009 0.00668345
0.290669 0.197009 0.00668345
0.316045 0.197009 0.00668345
0.341939 0.197009 0.00668345
0.368231 0.197009 0.00668345
0.394858 0.197009 0.00668345
0.42179 0.197009 0.00668345
0.449012 0.197009 0.00668345
0.476509 0.197009 0.00668345
0.504326 0.197009 0.00668345
0.532525 0.197009 0.00668345
0.561196 0.197009 0.00668345
0.590494 0.197009 0.00668345
0.62063 0.197009 0.00668345
0.651987 0.197009 0.00668345
0.685084 0.197009 0.00668345
0.720836 0.197009 0.00668345
0.760876 0.197009 0.00668345
0.808621 0.197009 0.00668345
0.873106 0.197009 0.00668345
1 0.197009 0.00668345
0.00668345 0.218891 0.00668345
0.045182 0.218891 0.00668345
0.0723888 0.218891 0.00668345
0.093431 0.218891 0.00668345
0.110582 0.218891 0.00668345
0.12517 0.218891 0.00668345
0.140429 0.218891 0.00668345
0.15758 0.218891 0.00668345
0.176501 0.218891 0.00668345
0.197009 0.218891 0.00668345
0.218891 0.218891 0.00668345
0.241917 0.218891 0.00668345
0.265904 0.218891 0.00668345
0.290669 0.218891 0.00668345
0.316045 0.218891 0.00668345
0.341939 0.218891 0.00668345
0.368231 0.218891 0.00668345
0.394858 0.218891 0.00668345
0.42179 0.218891 0.00668345
0.449012 0.218891 0.00668345
0.476509 0.218891 0.00668345
0.504326 0.218891 0.00668345
0.532525 0.218891 0.00668345
0.561196 0.218891 0.00668345
0.590494 0.218891 0.00668345
0.62063 0.218891 0.00668345
0.651987 0.218891 0.00668345
0.685084 0.218891 0.00668345
0.720836 0.218891 0.00668345
0.760876 0.218891 0.00668345
0.808621 0.218891 0.00668345
0.873106 0.218891 0.00668345
1 0.218891 0.00668345
0.00668345 0.241917 0.00668345
0.045182 0.241917 0.00668345
0.0723888 0.241917 0.00668345
0.093431 0.241917 0.00668345
0.110582 0.241917 0.00668345
0.12517 0.241917 0.00668345
0.140429 0.241917 0.00668345
0.15758 0.241917 0.00668345
0.176501 0.241917 0.00668345
0.197009 0.241917 0.00668345
0.218891 0.241917 0.00668345
0.241917 0.241917 0.00668345
0.265904 0.241917 0.00668345
0.290669 0.241917 0.00668345
0.316045 0.241917 0.00668345
0.341939 0.241917 0.00668345
0.368231 0.241917 0.00668345
0.394858 0.241917 0.00668345
0.42179 0.241917 0.00668345
0.449012 0.241917 0.00668345
0.476509 0.241917 0.00668345
0.504326 0.241917 0.00668345
0.532525 0.241917 0.00668345
0.561196 0.241917 0.00668345
0.590494 0.241917 0.00668345
0.62063 0.241917 0.00668345
0.651987 0.241917 0.00668345
0.685084 0.241917 0.00668345
0.720836 0.241917 0.00668345
0.760876 0.241917 0.00668345
0.808621 0.241917 0.00668345
0.873106 0.241917 0.00668345
1 0.241917 0.00668345
0.00668345 0.265904 0.00668345
0.045182 0.265904 0.00668345
0.0723888 0.265904 0.00668345
0.093431 0.265904 0.00668345
0.110582 0.265904 0.00668345
0.12517 0.265904 0.00668345
0.140429 0.265904 0.00668345
0.15758 0.265904 0.00668345
0.176501 0.265904 0.00668345
0.197009 0.265904 0.00668345
0.218891 0.265904 0.00668345
0.241917 0.265904 0.00668345
0.265904 0.265904 0.00668345
0.290669 0.265904 0.00668345
0.316045 0.265904 0.00668345
0.341939 0.265904 0.00668345
0.368231 0.265904 0.00668345
0.394858 0.265904 0.00668345
0.42179 0.265904 0.00668345
0.449012 0.265904 0.00668345
0.476509 0.265904 0.00668345
0.504326 0.265904 0.00668345
0.532525 0.265904 0.00668345
0.561196 0.265904 0.00668345
0.590494 0.265904 0.00668345
0.62063 0.265904 0.00668345
0.651987 0.265904 0.00668345
0.685084 0.265904 0.00668345
0.720836 0.265904 0.00668345
0.760876 0.265904 0.00668345
0.808621 0.265904 0.00668345
0.873106 0.265904 0.00668345
1 0.265904 0.00668345
0.00668345 0.290669 0.00668345
0.045182 0.290669 0.00668345
0.0723888 0.290669 0.00668345
0.093431 0.290669 0.00668345
0.110582 0.290669 0.00668345
0.12517 0.290669 0.00668345
0.140429 0.290669 0.00668345
0.15758 0.290669 0.00668345
0.176501 0.290669 0.00668345
0.197009 0.290669 0.00668345
0.218891 0.290669 0.00668345
0.241917 0.290669 0.00668345
0.265904 0.290669 0.00668345
0.290669 0.290669 0.00668345
0.316045 0.290669 0.00668345
0.341939 0.290669 0.00668345
0.368231 0.290669 0.00668345
0.394858 0.290669 0.00668345
0.42179 0.290669 0.00668345
0.449012 0.290669 0.00668345
0.476509 0.290669 0.00668345
0.504326 0.290669 0.00668345
0.532525 0.290669 0.00668345
0.561196 0.290669 0.00668345
0.590494 0.290669 0.00668345
0.62063 0.290669 0.00668345
0.651987 0.290669 0.00668345
0.685084 0.290669 0.00668345
0.720836 0.290669 0.00668345
0.760876 0.290669 0.00668345
0.808621 0.290669 0.00668345
0.873106 0.290669 0.00668345
1 0.290669 0.00668345
0.00668345 0.316045 0.00668345
0.045182 0.316045 0.00668345
0.0723888 0.316045 0.00668345
0.093431 0.316045 0.00668345
0.110582 0.316045 0.00668345
0.12517 0.316045 0.00668345
0.140429 0.316045 0.00668345
0.15758 0.316045 0.00668345
0.176501 0.316045 0.00668345
0.197009 0.316045 0.00668345
0.218891 0.316045 0.00668345
0.241917 0.316045 0.00668345
0.265904 0.316045 0.00668345
0.290669 0.316045 0.00668345
0.316045 0.316045 0.00668345
0.341939 0.316045 0.00668345
0.368231 0.316045 0.00668345
0.394858 0.316045 0.00668345
0.42179 0.316045 0.00668345
0.449012 0.316045 0.00668345
0.476509 0.316045 0.00668345
0.504326 0.316045 0.00668345
0.532525 0.316045 0.00668345
0.561196 0.316045 0.00668345
0.590494 0.316045 0.00668345
0.62063 0.316045 0.00668345
0.651987 0.316045 0.00668345
0.685084 0.316045 0.00668345
0.720836 0.316045 0.00668345
0.760876 0.316045 0.00668345
0.808621 0.316045 0.00668345
0.873106 0.316045 0.00668345
1 0.316045 0.00668345
0.00668345 0.341939 0.00668345
0.045182 0.341939 0.00668345
0.0723888 0.341939 0.00668345
0.093431 0.341939 0.00668345
0.110582 0.341939 0.00668345
0.12517 0.341939 0.00668345
0.140429 0.341939 0.00668345
0.15758 0.341939 0.00668345
0.176501 0.341939 0.00668345
0.197009 0.341939 0.00668345
0.218891 0.341939 0.00668345
0.241917 0.341939 0.00668345
0.265904 0.341939 0.00668345
0.290669 0.341939 0.00668345
0.316045 0.341939 0.00668345
0.341939 0.341939 0.00668345
0.368231 0.341939 0.00668345
0.394858 0.341939 0.00668345
0.42179 0.341939 0.00668345
0.449012 0.341939 0.00668345
0.476509 0.341939 0.00668345
0.504326 0.341939 0.00668345
0.532525 0.341939 0.00668345
0.561196 0.341939 0.00668345
0.590494 0.341939 0.00668345
0.62063 0.341939 0.00668345
0.651987 0.341939 0.00668345
0.685084 0.341939 0.00668345
0.720836 0.341939 0.00668345
0.760876 0.341939 0.00668345
0.808621 0.341939 0.00668345
0.873106 0.341939 0.00668345
1 0.341939 0.00668345
0.00668345 0.368231 0.00668345
0.045182 0.368231 0.00668345
0.0723888 0.368231 0.00668345
0.093431 0.368231 0.00668345
0.110582 0.368231 0.00668345
0.12517 0.368231 0.00668345
0.140429 0.368231 0.00668345
0.15758 0.368231 0.00668345
0.176501 0.368231 0.00668345
0.197009 0.368231 0.00668345
0.218891 0.368231 0.00668345
0.241917 0.368231 0.00668345
0.265904 0.368231 0.00668345
0.290669 0.368231 0.00668345
0.316045 0.368231 0.00668345
0.341939 0.368231 0.00668345
0.368231 0.368231 0.00668345
0.394858 0.368231 0.00668345
0.42179 0.368231 0.00668345
0.449012 0.368231 0.00668345
0.476509 0.368231 0.00668345
0.504326 0.368231 0.00668345
0.532525 0.368231 0.00668345
0.561196 0.368231 0.00668345
0.590494 0.368231 0.00668345
0.62063 0.368231 0.00668345
0.651987 0.368231 0.00668345
0.685084 0.368231 0.00668345
0.720836 0.368231 0.00668345
0.760876 0.368231 0.00668345
0.808621 0.368231 0.00668345
0.873106 0.368231 0.00668345
1 0.368231 0.00668345
0.00668345 0.394858 0.00668345
0.045182 0.394858 0.00668345
0.0723888 0.394858 0.00668345
0.093431 0.394858 0.00668345
0.110582 0.394858 0.00668345
0.12517 0.394858 0.00668345
0.140429 0.394858 0.00668345
0.15758 0.394858 0.00668345
0.176501 0.394858 0.00668345
0.197009 0.394858 0.00668345
0.218891 0.394858 0.00668345
0.241917 0.394858 0.00668345
0.265904 0.394858 0.00668345
0.290669 0.394858 0.00668345
0.316045 0.394858 0.00668345
0.341939 0.394858 0.00668345
0.368231 0.394858 0.00668345
0.394858 0.394858 0.00668345
0.42179 0.394858 0.00668345
0.449012 0.394858 0.00668345
0.476509 0.394858 0.00668345
0.504326 0.394858 0.00668345
0.532525 0.394858 0.00668345
0.561196 0.394858 0.00668345
0.590494 0.394858 0.00668345
0.62063 0.394858 0.00668345
0.651987 0.394858 0.00668345
0.685084 0.394858 0.00668345
0.720836 0.394858 0.00668345
0.760876 0.394858 0.00668345
0.808621 0.394858 0.00668345
0.873106 0.394858 0.00668345
1 0.394858 0.00668345
0.00668345 0.42179 0.00668345
0.045182 0.42179 0.00668345
0.0723888 0.42179 0.00668345
0.093431 0.42179 0.00668345
0.110582 0.42179 0.00668345
0.12517 0.42179 0.00668345
0.140429 0.42179 0.00668345
0.15758 0.42179 0.00668345
0.176501 0.42179 0.00668345
0.197009 0.42179 0.00668345
0.218891 0.42179 0.00668345
0.241917 0.42179 0.00668345
0.265904 0.42179 0.00668345
0.290669 0.42179 0.00668345
0.316045 0.42179 0.00668345
0.341939 0.42179 0.00668345
0.368231 0.42179 0.00668345
0.394858 0.42179 0.00668345
0.42179 0.42179 0.00668345
0.449012 0.42179 0.00668345
0.476509 0.42179 0.00668345
0.504326 0.42179 0.00668345
0.532525 0.42179 0.00668345
0.561196 0.42179 0.00668345
0.590494 0.42179 0.00668345
0.62063 0.42179 0.00668345
0.651987 0.42179 0.00668345
0.685084 0.42179 0.00668345
0.720836 0.42179 0.00668345
0.760876 0.42179 0.00668345
0.808621 0.42179 0.00668345
0.873106 0.42179 0.00668345
1 0.42179 0.00668345
0.00668345 0.449012 0.00668345
0.045182 0.449012 0.00668345
0.0723888 0.449012 0.00668345
0.093431 0.449012 0.00668345
0.110582 0.449012 0.00668345
0.12517 0.449012 0.00668345
0.140429 0.449012 0.00668345
0.15758 0.449012 0.00668345
0.176501 0.449012 0.00668345
0.197009 0.449012 0.00668345
0.218891 0.449012 0.00668345
0.241917 0.449012 0.00668345
0.265904 0.449012 0.00668345
0.290669 0.449012 0.00668345
0.316045 0.449012 0.00668345
0.341939 0.449012 0.00668345
0.368231 0.449012 0.00668345
0.394858 0.449012 0.00668345
0.42179 0.449012 0.00668345
0.449012 0.449012 0.00668345
0.476509 0.449012 0.00668345
0.504326 0.449012 0.00668345
0.532525 0.449012 0.00668345
0.561196 0.449012 0.00668345
0.590494 0.449012 0.00668345
0.62063 0.449012 0.00668345
0.651987 0.449012 0.00668345
0.685084 0.449012 0.00668345
0.720836 0.449012 0.00668345
0.760876 0.449012 0.00668345
0.808621 0.449012 0.00668345
0.873106 0.449012 0.00668345
1 0.449012 0.00668345
0.00668345 0.476509 0.00668345
0.045182 0.476509 0.00668345
0.0723888 0.476509 0.00668345
0.093431 0.476509 0.00668345
0.110582 0.476509 0.00668345
0.12517 0.476509 0.00668345
0.140429 0.476509 0.00668345
0.15758 0.476509 0.00668345
0.176501 0.476509 0.00668345
0.197009 0.476509 0.00668345
0.218891 0.476509 0.00668345
0.241917 0.476509 0.00668345
0.265904 0.476509 0.00668345
0.290669 0.476509 0.00668345
0.316045 0.476509 0.00668345
0.341939 0.476509 0.00668345
0.368231 0.476509 0.00668345
0.394858 0.476509 0.00668345
0.42179 0.476509 0.00668345
0.449012 0.476509 0.00668345
0.476509 0.476509 0.00668345
0.504326 0.476509 0.00668345
0.532525 0.476509 0.00668345
0.561196 0.476509 0.00668345
0.590494 0.476509 0.00668345
0.62063 0.476509 0.00668345
0.651987 0.476509 0.00668345
0.685084 0.476509 0.00668345
0.720836 0.476509 0.00668345
0.760876 0.476509 0.00668345
0.808621 0.476509 0.00668345
0.873106 0.476509 0.00668345
1 0.476509 0.00668345
0.00668345 0.504326 0.00668345
0.045182 0.504326 0.00668345
0.0723888 0.504326 0.00668345
0.093431 0.504326 0.00668345
0.110582 0.504326 0.00668345
0.12517 0.504326 0.00668345
0.140429 0.504326 0.00668345
0.15758 0.504326 0.00668345
0.176501 0.504326 0.00668345
0.197009 0.504326 0.00668345
0.218891 0.504326 0.00668345
0.241917 0.504326 0.00668345
0.265904 0.504326 0.00668345
0.290669 0.504326 0.00668345
0.316045 0.504326 0.00668345
0.341939 0.504326 0.00668345
0.368231 0.504326 0.00668345
0.394858 0.504326 0.00668345
0.42179 0.504326 0.00668345
0.449012 0.504326 0.00668345
0.476509 0.504326 0.00668345
0.504326 0.504326 0.00668345
0.532525 0.504326 0.00668345
0.561196 0.504326 0.00668345
0.590494 0.504326 0.00668345
0.62063 0.504326 0.00668345
0.651987 0.504326 0.00668345
0.685084 0.504326 0.00668345
0.720836 0.504326 0.00668345
0.760876 0.504326 0.00668345
0.808621 0.504326 0.00668345
0.873106 0.504326 0.00668345
1 0.504326 0.00668345
0.00668345 0.532525 0.00668345
0.045182 0.532525 0.00668345
0.0723888 0.532525 0.00668345
0.093431 0.532525 0.00668345
0.110582 0.532525 0.00668345
0.12517 0.532525 0.00668345
0.140429 0.532525 0.00668345
0.15758 0.532525 0.00668345
0.176501 0.532525 0.00668345
0.197009 0.532525 0.00668345
0.218891 0.532525 0.00668345
0.241917 0.532525 0.00668345
0.265904 0.532525 0.00668345
0.290669 0.532525 0.00668345
0.316045 0.532525 0.00668345
0.341939 0.532525 0.00668345
0.368231 0.532525 0.00668345
0.394858 0.532525 0.00668345
0.42179 0.532525 0.00668345
0.449012 0.532525 0.00668345
0.476509 0.532525 0.00668345
0.504326 0.532525 0.00668345
0.532525 0.532525 0.00668345
0.561196 0.532525 0.00668345
0.590494 0.532525 0.00668345
0.62063 0.532525 0.00668345
0.651987 0.532525 0.00668345
0.685084 0.532525 0.00668345
0.720836 0.532525 0.00668345
0.760876 0.532525 0.00668345
0.808621 0.532525 0.00668345
0.873106 0.532525 0.00668345
1 0.532525 0.00668345
0.00668345 0.561196 0.00668345
0.045182 0.561196 0.00668345
0.0723888 0.561196 0.00668345
0.093431 0.561196 0.00668345
0.110582 0.561196 0.00668345
0.12517 0.561196 0.00668345
0.140429 0.561196 0.00668345
0.15758 0.561196 0.00668345
0.176501 0.561196 0.00668345
0.197009 0.561196 0.00668345
0.218891 0.561196 0.00668345
0.241917 0.561196 0.00668345
0.265904 0.561196 0.00668345
0.290669 0.561196 0.00668345
0.316045 0.561196 0.00668345
0.341939 0.561196 0.00668345
0.368231 0.561196 0.00668345
0.394858 0.561196 0.00668345
0.42179 0.561196 0.00668345
0.449012 0.561196 0.00668345
0.476509 0.561196 0.00668345
0.504326 0.561196 0.00668345
0.532525 0.561196 0.00668345
0.561196 0.561196 0.00668345
0.590494 0.561196 0.00668345
0.62063 0.561196 0.00668345
0.651987 0.561196 0.00668345
0.685084 0.561196 0.00668345
0.720836 0.561196 0.00668345
0.760876 0.561196 0.00668345
0.808621 0.561196 0.00668345
0.873106 0.561196 0.00668345
1 0.561196 0.00668345
0.00668345 0.590494 0.00668345
0.045182 0.590494 0.00668345
0.0723888 0.590494 0.00668345
0.093431 0.590494 0.00668345
0.110582 0.590494 0.00668345
0.12517 0.590494 0.00668345
0.140429 0.590494 0.00668345
0.15758 0.590494 0.00668345
0.176501 0.590494 0.00668345
0.197009 0.590494 0.00668345
0.218891 0.590494 0.00668345
0.241917 0.590494 0.00668345
0.265904 0.590494 0.00668345
0.290669 0.590494 0.00668345
0.316045 0.590494 0.00668345
0.341939 0.590494 0.00668345
0.368231 0.590494 0.00668345
0.394858 0.590494 0.00668345
0.42179 0.590494 0.00668345
0.449012 0.590494 0.00668345
0.476509 0.590494 0.00668345
0.504326 0.590494 0.00668345
0.532525 0.590494 0.00668345
0.561196 0.590494 0.00668345
0.590494 0.590494 0.00668345
0.62063 0.590494 0.00668345
0.651987 0.590494 0.00668345
0.685084 0.590494 0.00668345
0.720836 0.590494 0.00668345
0.760876 0.590494 0.00668345
0.808621 0.590494 0.00668345
0.873106 0.590494 0.00668345
1 0.590494 0.00668345
0.00668345 0.62063 0.00668345
0.045182 0.62063 0.00668345
0.0723888 0.62063 0.00668345
0.093431 0.62063 0.00668345
0.110582 0.62063 0.00668345
0.12517 0.62063 0.00668345
0.140429 0.62063 0.00668345
0.15758 0.62063 0.00668345
