resources/LogC3_Blackmagic Design Pocket 6K Film Gen4.cube
TITLE "Generated by Resolve"
LUT_3D_SIZE 5
0 0 0
0.212924 0 0
0.527367 0 0
0.838666 0 0
1 0 0
0 0.212924 0
0.212924 0.212924 0
0.527367 0.212924 0
0.838666 0.212924 0
1 0.212924 0
0 0.527367 0
0.212924 0.527367 0
0.527367 0.527367 0
0.838666 0.527367 0
1 0.527367 0
0 0.838666 0
0.212924 0.838666 0
0.527367 0.838666 0
0.838666 0.838666 0
1 0.838666 0
0 1 0
0.212924 1 0
0.527367 1 0
0.838666 1 0
1 1 0
0 0 0.212924
0.212924 0 0.212924
0.527367 0 0.212924
0.838666 0 0.212924
1 0 0.212924
0 0.212924 0.212924
0.212924 0.212924 0.212924
0.527367 0.212924 0.212924
0.838666 0.212924 0.212924
1 0.212924 0.212924
0 0.527367 0.212924
0.212924 0.527367 0.212924
0.527367 0.527367 0.212924
0.838666 0.527367 0.212924
1 0.527367 0.212924
0 0.838666 0.212924
0.212924 0.838666 0.212924
0.527367 0.838666 0.212924
0.838666 0.838666 0.212924
1 0.838666 0.212924
0 1 0.212924
0.212924 1 0.212924
0.527367 1 0.212924
0.838666 1 0.212924
1 1 0.212924
0 0 0.527367
0.212924 0 0.527367
0.527367 0 0.527367
0.838666 0 0.527367
1 0 0.527367
0 0.212924 0.527367
0.212924 0.212924 0.527367
0.527367 0.212924 0.527367
0.838666 0.212924 0.527367
1 0.212924 0.527367
0 0.527367 0.527367
0.212924 0.527367 0.527367
0.527367 0.527367 0.527367
0.838666 0.527367 0.527367
1 0.527367 0.527367
0 0.838666 0.527367
0.212924 0.838666 0.527367
0.527367 0.838666 0.527367
0.838666 0.838666 0.527367
1 0.838666 0.527367
0 1 0.527367
0.212924 1 0.527367
0.527367 1 0.527367
0.838666 1 0.527367
1 1 0.527367
0 0 0.838666
0.212924 0 0.838666
0.527367 0 0.838666
0.838666 0 0.838666
1 0 0.838666
0 0.212924 0.838666
0.212924 0.212924 0.838666
0.527367 0.212924 0.838666
0.838666 0.212924 0.838666
1 0.212924 0.838666
0 0.527367 0.838666
0.212924 0.527367 0.838666
0.527367 0.527367 0.838666
0.838666 0.527367 0.838666
1 0.527367 0.838666
0 0.838666 0.838666
0.212924 0.838666 0.838666
0.527367 0.838666 0.838666
0.838666 0.838666 0.838666
1 0.838666 0.838666
0 1 0.838666
0.212924 1 0.838666
0.527367 1 0.838666
0.838666 1 0.838666
1 1 0.838666
0 0 1
0.212924 0 1
0.527367 0 1
0.838666 0 1
1 0 1
0 0.212924 1
0.212924 0.212924 1
0.527367 0.212924 1
0.838666 0.212924 1
1 0.212924 1
0 0.527367 1
0.212924 0.527367 1
0.527367 0.527367 1
0.838666 0.527367 1
1 0.527367 1
0 0.838666 1
0.212924 0.838666 1
0.527367 0.838666 1
0.838666 0.838666 1
1 0.838666 1
0 1 1
0.212924 1 1
0.527367 1 1
0.838666 1 1
1 1 1
