resources/LogC3_sRGB.cube
TITLE "Generated by Resolve"
LUT_3D_SIZE 9
0 0 0
0.00273136 0 0
0.12369 0 0
0.326329 0 0
0.574914 0 0
0.797848 0 0
0.927794 0 0
0.981445 0 0
1 0 0
0 0.00273136 0
0.00273136 0.00273136 0
0.12369 0.00273136 0
0.326329 0.00273136 0
0.574914 0.00273136 0
0.797848 0.00273136 0
0.927794 0.00273136 0
0.981445 0.00273136 0
1 0.00273136 0
0 0.12369 0
0.00273136 0.12369 0
0.12369 0.12369 0
0.326329 0.12369 0
0.574914 0.12369 0
0.797848 0.12369 0
0.927794 0.12369 0
0.981445 0.12369 0
1 0.12369 0
0 0.326329 0
0.00273136 0.326329 0
0.12369 0.326329 0
0.326329 0.326329 0
0.574914 0.326329 0
0.797848 0.326329 0
0.927794 0.326329 0
0.981445 0.326329 0
1 0.326329 0
0 0.574914 0
0.00273136 0.574914 0
0.12369 0.574914 0
0.326329 0.574914 0
0.574914 0.574914 0
0.797848 0.574914 0
0.927794 0.574914 0
0.981445 0.574914 0
1 0.574914 0
0 0.797848 0
0.00273136 0.797848 0
0.12369 0.797848 0
0.326329 0.797848 0
0.574914 0.797848 0
0.797848 0.797848 0
0.927794 0.797848 0
0.981445 0.797848 0
1 0.797848 0
0 0.927794 0
0.00273136 0.927794 0
0.12369 0.927794 0
0.326329 0.927794 0
0.574914 0.927794 0
0.797848 0.927794 0
0.927794 0.927794 0
0.981445 0.927794 0
1 0.927794 0
0 0.981445 0
0.00273136 0.981445 0
0.12369 0.981445 0
0.326329 0.981445 0
0.574914 0.981445 0
0.797848 0.981445 0
0.927794 0.981445 0
0.981445 0.981445 0
1 0.981445 0
0 1 0
0.00273136 1 0
0.12369 1 0
0.326329 1 0
0.574914 1 0
0.797848 1 0
0.927794 1 0
0.981445 1 0
1 1 0
0 0 0.00273136
0.00273136 0 0.00273136
0.12369 0 0.00273136
0.326329 0 0.00273136
0.574914 0 0.00273136
0.797848 0 0.00273136
0.927794 0 0.00273136
0.981445 0 0.00273136
1 0 0.00273136
0 0.00273136 0.00273136
0.00273136 0.00273136 0.00273136
0.12369 0.00273136 0.00273136
0.326329 0.00273136 0.00273136
0.574914 0.00273136 0.00273136
0.797848 0.00273136 0.00273136
0.927794 0.00273136 0.00273136
0.981445 0.00273136 0.00273136
1 0.00273136 0.00273136
0 0.12369 0.00273136
0.00273136 0.12369 0.00273136
0.12369 0.12369 0.00273136
0.326329 0.12369 0.00273136
0.574914 0.12369 0.00273136
0.797848 0.12369 0.00273136
0.927794 0.12369 0.00273136
0.981445 0.12369 0.00273136
1 0.12369 0.00273136
0 0.326329 0.00273136
0.00273136 0.326329 0.00273136
0.12369 0.326329 0.00273136
0.326329 0.326329 0.00273136
0.574914 0.326329 0.00273136
0.797848 0.326329 0.00273136
0.927794 0.326329 0.00273136
0.981445 0.326329 0.00273136
1 0.326329 0.00273136
0 0.574914 0.00273136
0.00273136 0.574914 0.00273136
0.12369 0.574914 0.00273136
0.326329 0.574914 0.00273136
0.574914 0.574914 0.00273136
0.797848 0.574914 0.00273136
0.927794 0.574914 0.00273136
0.981445 0.574914 0.00273136
1 0.574914 0.00273136
0 0.797848 0.00273136
0.00273136 0.797848 0.00273136
0.12369 0.797848 0.00273136
0.326329 0.797848 0.00273136
0.574914 0.797848 0.00273136
0.797848 0.797848 0.00273136
0.927794 0.797848 0.00273136
0.981445 0.797848 0.00273136
1 0.797848 0.00273136
0 0.927794 0.00273136
0.00273136 0.927794 0.00273136
0.12369 0.927794 0.00273136
0.326329 0.927794 0.00273136
0.574914 0.927794 0.00273136
0.797848 0.927794 0.00273136
0.927794 0.927794 0.00273136
0.981445 0.927794 0.00273136
1 0.927794 0.00273136
0 0.981445 0.00273136
0.00273136 0.981445 0.00273136
0.12369 0.981445 0.00273136
0.326329 0.981445 0.00273136
0.574914 0.981445 0.00273136
0.797848 0.981445 0.00273136
0.927794 0.981445 0.00273136
0.981445 0.981445 0.00273136
1 0.981445 0.00273136
0 1 0.00273136
0.00273136 1 0.00273136
0.12369 1 0.00273136
0.326329 1 0.00273136
0.574914 1 0.00273136
0.797848 1 0.00273136
0.927794 1 0.00273136
0.981445 1 0.00273136
1 1 0.00273136
0 0 0.12369
0.00273136 0 0.12369
0.12369 0 0.12369
0.326329 0 0.12369
0.574914 0 0.12369
0.797848 0 0.12369
0.927794 0 0.12369
0.981445 0 0.12369
1 0 0.12369
0 0.00273136 0.12369
0.00273136 0.00273136 0.12369
0.12369 0.00273136 0.12369
0.326329 0.00273136 0.12369
0.574914 0.00273136 0.12369
0.797848 0.00273136 0.12369
0.927794 0.00273136 0.12369
0.981445 0.00273136 0.12369
1 0.00273136 0.12369
0 0.12369 0.12369
0.00273136 0.12369 0.12369
0.12369 0.12369 0.12369
0.326329 0.12369 0.12369
0.574914 0.12369 0.12369
0.797848 0.12369 0.12369
0.927794 0.12369 0.12369
0.981445 0.12369 0.12369
1 0.12369 0.12369
0 0.326329 0.12369
0.00273136 0.326329 0.12369
0.12369 0.326329 0.12369
0.326329 0.326329 0.12369
0.574914 0.326329 0.12369
0.797848 0.326329 0.12369
0.927794 0.326329 0.12369
0.981445 0.326329 0.12369
1 0.326329 0.12369
0 0.574914 0.12369
0.00273136 0.574914 0.12369
0.12369 0.574914 0.12369
0.326329 0.574914 0.12369
0.574914 0.574914 0.12369
0.797848 0.574914 0.12369
0.927794 0.574914 0.12369
0.981445 0.574914 0.12369
1 0.574914 0.12369
0 0.797848 0.12369
0.00273136 0.797848 0.12369
0.12369 0.797848 0.12369
0.326329 0.797848 0.12369
0.574914 0.797848 0.12369
0.797848 0.797848 0.12369
0.927794 0.797848 0.12369
0.981445 0.797848 0.12369
1 0.797848 0.12369
0 0.927794 0.12369
0.00273136 0.927794 0.12369
0.12369 0.927794 0.12369
0.326329 0.927794 0.12369
0.574914 0.927794 0.12369
0.797848 0.927794 0.12369
0.927794 0.927794 0.12369
0.981445 0.927794 0.12369
1 0.927794 0.12369
0 0.981445 0.12369
0.00273136 0.981445 0.12369
0.12369 0.981445 0.12369
0.326329 0.981445 0.12369
0.574914 0.981445 0.12369
0.797848 0.981445 0.12369
0.927794 0.981445 0.12369
0.981445 0.981445 0.12369
1 0.981445 0.12369
0 1 0.12369
0.00273136 1 0.12369
0.12369 1 0.12369
0.326329 1 0.12369
0.574914 1 0.12369
0.797848 1 0.12369
0.927794 1 0.12369
0.981445 1 0.12369
1 1 0.12369
0 0 0.326329
0.00273136 0 0.326329
0.12369 0 0.326329
0.326329 0 0.326329
0.574914 0 0.326329
0.797848 0 0.326329
0.927794 0 0.326329
0.981445 0 0.326329
1 0 0.326329
0 0.00273136 0.326329
0.00273136 0.00273136 0.326329
0.12369 0.00273136 0.326329
0.326329 0.00273136 0.326329
0.574914 0.00273136 0.326329
0.797848 0.00273136 0.326329
0.927794 0.00273136 0.326329
0.981445 0.00273136 0.326329
1 0.00273136 0.326329
0 0.12369 0.326329
0.00273136 0.12369 0.326329
0.12369 0.12369 0.326329
0.326329 0.12369 0.326329
0.574914 0.12369 0.326329
0.797848 0.12369 0.326329
0.927794 0.12369 0.326329
0.981445 0.12369 0.326329
1 0.12369 0.326329
0 0.326329 0.326329
0.00273136 0.326329 0.326329
0.12369 0.326329 0.326329
0.326329 0.326329 0.326329
0.574914 0.326329 0.326329
0.797848 0.326329 0.326329
0.927794 0.326329 0.326329
0.981445 0.326329 0.326329
1 0.326329 0.326329
0 0.574914 0.326329
0.00273136 0.574914 0.326329
0.12369 0.574914 0.326329
0.326329 0.574914 0.326329
0.574914 0.574914 0.326329
0.797848 0.574914 0.326329
0.927794 0.574914 0.326329
0.981445 0.574914 0.326329
1 0.574914 0.326329
0 0.797848 0.326329
0.00273136 0.797848 0.326329
0.12369 0.797848 0.326329
0.326329 0.797848 0.326329
0.574914 0.797848 0.326329
0.797848 0.797848 0.326329
0.927794 0.797848 0.326329
0.981445 0.797848 0.326329
1 0.797848 0.326329
0 0.927794 0.326329
0.00273136 0.927794 0.326329
0.12369 0.927794 0.326329
0.326329 0.927794 0.326329
0.574914 0.927794 0.326329
0.797848 0.927794 0.326329
0.927794 0.927794 0.326329
0.981445 0.927794 0.326329
1 0.927794 0.326329
0 0.981445 0.326329
0.00273136 0.981445 0.326329
0.12369 0.981445 0.326329
0.326329 0.981445 0.326329
0.574914 0.981445 0.326329
0.797848 0.981445 0.326329
0.927794 0.981445 0.326329
0.981445 0.981445 0.326329
1 0.981445 0.326329
0 1 0.326329
0.00273136 1 0.326329
0.12369 1 0.326329
0.326329 1 0.326329
0.574914 1 0.326329
0.797848 1 0.326329
0.927794 1 0.326329
0.981445 1 0.326329
1 1 0.326329
0 0 0.574914
0.00273136 0 0.574914
0.12369 0 0.574914
0.326329 0 0.574914
0.574914 0 0.574914
0.797848 0 0.574914
0.927794 0 0.574914
0.981445 0 0.574914
1 0 0.574914
0 0.00273136 0.574914
0.00273136 0.00273136 0.574914
0.12369 0.00273136 0.574914
0.326329 0.00273136 0.574914
0.574914 0.00273136 0.574914
0.797848 0.00273136 0.574914
0.927794 0.00273136 0.574914
0.981445 0.00273136 0.574914
1 0.00273136 0.574914
0 0.12369 0.574914
0.00273136 0.12369 0.574914
0.12369 0.12369 0.574914
0.326329 0.12369 0.574914
0.574914 0.12369 0.574914
0.797848 0.12369 0.574914
0.927794 0.12369 0.574914
0.981445 0.12369 0.574914
1 0.12369 0.574914
0 0.326329 0.574914
0.00273136 0.326329 0.574914
0.12369 0.326329 0.574914
0.326329 0.326329 0.574914
0.574914 0.326329 0.574914
0.797848 0.326329 0.574914
0.927794 0.326329 0.574914
0.981445 0.326329 0.574914
1 0.326329 0.574914
0 0.574914 0.574914
0.00273136 0.574914 0.574914
0.12369 0.574914 0.574914
0.326329 0.574914 0.574914
0.574914 0.574914 0.574914
0.797848 0.574914 0.574914
0.927794 0.574914 0.574914
0.981445 0.574914 0.574914
1 0.574914 0.574914
0 0.797848 0.574914
0.00273136 0.797848 0.574914
0.12369 0.797848 0.574914
0.326329 0.797848 0.574914
0.574914 0.797848 0.574914
0.797848 0.797848 0.574914
0.927794 0.797848 0.574914
0.981445 0.797848 0.574914
1 0.797848 0.574914
0 0.927794 0.574914
0.00273136 0.927794 0.574914
0.12369 0.927794 0.574914
0.326329 0.927794 0.574914
0.574914 0.927794 0.574914
0.797848 0.927794 0.574914
0.927794 0.927794 0.574914
0.981445 0.927794 0.574914
1 0.927794 0.574914
0 0.981445 0.574914
0.00273136 0.981445 0.574914
0.12369 0.981445 0.574914
0.326329 0.981445 0.574914
0.574914 0.981445 0.574914
0.797848 0.981445 0.574914
0.927794 0.981445 0.574914
0.981445 0.981445 0.574914
1 0.981445 0.574914
0 1 0.574914
0.00273136 1 0.574914
0.12369 1 0.574914
0.326329 1 0.574914
0.574914 1 0.574914
0.797848 1 0.574914
0.927794 1 0.574914
0.981445 1 0.574914
1 1 0.574914
0 0 0.797848
0.00273136 0 0.797848
0.12369 0 0.797848
0.326329 0 0.797848
0.574914 0 0.797848
0.797848 0 0.797848
0.927794 0 0.797848
0.981445 0 0.797848
1 0 0.797848
0 0.00273136 0.797848
0.00273136 0.00273136 0.797848
0.12369 0.00273136 0.797848
0.326329 0.00273136 0.797848
0.574914 0.00273136 0.797848
0.797848 0.00273136 0.797848
0.927794 0.00273136 0.797848
0.981445 0.00273136 0.797848
1 0.00273136 0.797848
0 0.12369 0.797848
0.00273136 0.12369 0.797848
0.12369 0.12369 0.797848
0.326329 0.12369 0.797848
0.574914 0.12369 0.797848
0.797848 0.12369 0.797848
0.927794 0.12369 0.797848
0.981445 0.12369 0.797848
1 0.12369 0.797848
0 0.326329 0.797848
0.00273136 0.326329 0.797848
0.12369 0.326329 0.797848
0.326329 0.326329 0.797848
0.574914 0.326329 0.797848
0.797848 0.326329 0.797848
0.927794 0.326329 0.797848
0.981445 0.326329 0.797848
1 0.326329 0.797848
0 0.574914 0.797848
0.00273136 0.574914 0.797848
0.12369 0.574914 0.797848
0.326329 0.574914 0.797848
0.574914 0.574914 0.797848
0.797848 0.574914 0.797848
0.927794 0.574914 0.797848
0.981445 0.574914 0.797848
1 0.574914 0.797848
0 0.797848 0.797848
0.00273136 0.797848 0.797848
0.12369 0.797848 0.797848
0.326329 0.797848 0.797848
0.574914 0.797848 0.797848
0.797848 0.797848 0.797848
0.927794 0.797848 0.797848
0.981445 0.797848 0.797848
1 0.797848 0.797848
0 0.927794 0.797848
0.00273136 0.927794 0.797848
0.12369 0.927794 0.797848
0.326329 0.927794 0.797848
0.574914 0.927794 0.797848
0.797848 0.927794 0.797848
0.927794 0.927794 0.797848
0.981445 0.927794 0.797848
1 0.927794 0.797848
0 0.981445 0.797848
0.00273136 0.981445 0.797848
0.12369 0.981445 0.797848
0.326329 0.981445 0.797848
0.574914 0.981445 0.797848
0.797848 0.981445 0.797848
0.927794 0.981445 0.797848
0.981445 0.981445 0.797848
1 0.981445 0.797848
0 1 0.797848
0.00273136 1 0.797848
0.12369 1 0.797848
0.326329 1 0.797848
0.574914 1 0.797848
0.797848 1 0.797848
0.927794 1 0.797848
0.981445 1 0.797848
1 1 0.797848
0 0 0.927794
0.00273136 0 0.927794
0.12369 0 0.927794
0.326329 0 0.927794
0.574914 0 0.927794
0.797848 0 0.927794
0.927794 0 0.927794
0.981445 0 0.927794
1 0 0.927794
0 0.00273136 0.927794
0.00273136 0.00273136 0.927794
0.12369 0.00273136 0.927794
0.326329 0.00273136 0.927794
0.574914 0.00273136 0.927794
0.797848 0.00273136 0.927794
0.927794 0.00273136 0.927794
0.981445 0.00273136 0.927794
1 0.00273136 0.927794
0 0.12369 0.927794
0.00273136 0.12369 0.927794
0.12369 0.12369 0.927794
0.326329 0.12369 0.927794
0.574914 0.12369 0.927794
0.797848 0.12369 0.927794
0.927794 0.12369 0.927794
0.981445 0.12369 0.927794
1 0.12369 0.927794
0 0.326329 0.927794
0.00273136 0.326329 0.927794
0.12369 0.326329 0.927794
0.326329 0.326329 0.927794
0.574914 0.326329 0.927794
0.797848 0.326329 0.927794
0.927794 0.326329 0.927794
0.981445 0.326329 0.927794
1 0.326329 0.927794
0 0.574914 0.927794
0.00273136 0.574914 0.927794
0.12369 0.574914 0.927794
0.326329 0.574914 0.927794
0.574914 0.574914 0.927794
0.797848 0.574914 0.927794
0.927794 0.574914 0.927794
0.981445 0.574914 0.927794
1 0.574914 0.927794
0 0.797848 0.927794
0.00273136 0.797848 0.927794
0.12369 0.797848 0.927794
0.326329 0.797848 0.927794
0.574914 0.797848 0.927794
0.797848 0.797848 0.927794
0.927794 0.797848 0.927794
0.981445 0.797848 0.927794
1 0.797848 0.927794
0 0.927794 0.927794
0.00273136 0.927794 0.927794
0.12369 0.927794 0.927794
0.326329 0.927794 0.927794
0.574914 0.927794 0.927794
0.797848 0.927794 0.927794
0.927794 0.927794 0.927794
0.981445 0.927794 0.927794
1 0.927794 0.927794
0 0.981445 0.927794
0.00273136 0.981445 0.927794
0.12369 0.981445 0.927794
0.326329 0.981445 0.927794
0.574914 0.981445 0.927794
0.797848 0.981445 0.927794
0.927794 0.981445 0.927794
0.981445 0.981445 0.927794
1 0.981445 0.927794
0 1 0.927794
0.00273136 1 0.927794
0.12369 1 0.927794
0.326329 1 0.927794
0.574914 1 0.927794
0.797848 1 0.927794
0.927794 1 0.927794
0.981445 1 0.927794
1 1 0.927794
0 0 0.981445
0.00273136 0 0.981445
0.12369 0 0.981445
0.326329 0 0.981445
0.574914 0 0.981445
0.797848 0 0.981445
0.927794 0 0.981445
0.981445 0 0.981445
1 0 0.981445
0 0.00273136 0.981445
0.00273136 0.00273136 0.981445
0.12369 0.00273136 0.981445
0.326329 0.00273136 0.981445
0.574914 0.00273136 0.981445
0.797848 0.00273136 0.981445
0.927794 0.00273136 0.981445
0.981445 0.00273136 0.981445
1 0.00273136 0.981445
0 0.12369 0.981445
0.00273136 0.12369 0.981445
0.12369 0.12369 0.981445
0.326329 0.12369 0.981445
0.574914 0.12369 0.981445
0.797848 0.12369 0.981445
0.927794 0.12369 0.981445
0.981445 0.12369 0.981445
1 0.12369 0.981445
0 0.326329 0.981445
0.00273136 0.326329 0.981445
0.12369 0.326329 0.981445
0.326329 0.326329 0.981445
0.574914 0.326329 0.981445
0.797848 0.326329 0.981445
0.927794 0.326329 0.981445
0.981445 0.326329 0.981445
1 0.326329 0.981445
0 0.574914 0.981445
0.00273136 0.574914 0.981445
0.12369 0.574914 0.981445
0.326329 0.574914 0.981445
0.574914 0.574914 0.981445
0.797848 0.574914 0.981445
0.927794 0.574914 0.981445
0.981445 0.574914 0.981445
1 0.574914 0.981445
0 0.797848 0.981445
0.00273136 0.797848 0.981445
0.12369 0.797848 0.981445
0.326329 0.797848 0.981445
0.574914 0.797848 0.981445
0.797848 0.797848 0.981445
0.927794 0.797848 0.981445
0.981445 0.797848 0.981445
1 0.797848 0.981445
0 0.927794 0.981445
0.00273136 0.927794 0.981445
0.12369 0.927794 0.981445
0.326329 0.927794 0.981445
0.574914 0.927794 0.981445
0.797848 0.927794 0.981445
0.927794 0.927794 0.981445
0.981445 0.927794 0.981445
1 0.927794 0.981445
0 0.981445 0.981445
0.00273136 0.981445 0.981445
0.12369 0.981445 0.981445
0.326329 0.981445 0.981445
0.574914 0.981445 0.981445
0.797848 0.981445 0.981445
0.927794 0.981445 0.981445
0.981445 0.981445 0.981445
1 0.981445 0.981445
0 1 0.981445
0.00273136 1 0.981445
0.12369 1 0.981445
0.326329 1 0.981445
0.574914 1 0.981445
0.797848 1 0.981445
0.927794 1 0.981445
0.981445 1 0.981445
1 1 0.981445
0 0 1
0.00273136 0 1
0.12369 0 1
0.326329 0 1
0.574914 0 1
0.797848 0 1
0.927794 0 1
0.981445 0 1
1 0 1
0 0.00273136 1
0.00273136 0.00273136 1
0.12369 0.00273136 1
0.326329 0.00273136 1
0.574914 0.00273136 1
0.797848 0.00273136 1
0.927794 0.00273136 1
0.981445 0.00273136 1
1 0.00273136 1
0 0.12369 1
0.00273136 0.12369 1
0.12369 0.12369 1
0.326329 0.12369 1
0.574914 0.12369 1
0.797848 0.12369 1
0.927794 0.12369 1
0.981445 0.12369 1
1 0.12369 1
0 0.326329 1
0.00273136 0.326329 1
0.12369 0.326329 1
0.326329 0.326329 1
0.574914 0.326329 1
0.797848 0.326329 1
0.927794 0.326329 1
0.981445 0.326329 1
1 0.326329 1
0 0.574914 1
0.00273136 0.574914 1
0.12369 0.574914 1
0.326329 0.574914 1
0.574914 0.574914 1
0.797848 0.574914 1
0.927794 0.574914 1
0.981445 0.574914 1
1 0.574914 1
0 0.797848 1
0.00273136 0.797848 1
0.12369 0.797848 1
0.326329 0.797848 1
0.574914 0.797848 1
0.797848 0.797848 1
0.927794 0.797848 1
0.981445 0.797848 1
1 0.797848 1
0 0.927794 1
0.00273136 0.927794 1
0.12369 0.927794 1
0.326329 0.927794 1
0.574914 0.927794 1
0.797848 0.927794 1
0.927794 0.927794 1
0.981445 0.927794 1
1 0.927794 1
0 0.981445 1
0.00273136 0.981445 1
0.12369 0.981445 1
0.326329 0.981445 1
0.574914 0.981445 1
0.797848 0.981445 1
0.927794 0.981445 1
0.981445 0.981445 1
1 0.981445 1
0 1 1
0.00273136 1 1
0.12369 1 1
0.326329 1 1
0.574914 1 1
0.797848 1 1
0.927794 1 1
0.981445 1 1
1 1 1
