resources/LogC3_Blackmagic Design Film Gen 5.cube
TITLE "Generated by Resolve"
LUT_3D_SIZE 5
0 0 0
0.264179 0 0
0.473472 0 0
0.682506 0 0
1 0 0
0 0.264179 0
0.264179 0.264179 0
0.473472 0.264179 0
0.682506 0.264179 0
1 0.264179 0
0 0.473472 0
0.264179 0.473472 0
0.473472 0.473472 0
0.682506 0.473472 0
1 0.473472 0
0 0.682506 0
0.264179 0.682506 0
0.473472 0.682506 0
0.682506 0.682506 0
1 0.682506 0
0 1 0
0.264179 1 0
0.473472 1 0
0.682506 1 0
1 1 0
0 0 0.264179
0.264179 0 0.264179
0.473472 0 0.264179
0.682506 0 0.264179
1 0 0.264179
0 0.264179 0.264179
0.264179 0.264179 0.264179
0.473472 0.264179 0.264179
0.682506 0.264179 0.264179
1 0.264179 0.264179
0 0.473472 0.264179
0.264179 0.473472 0.264179
0.473472 0.473472 0.264179
0.682506 0.473472 0.264179
1 0.473472 0.264179
0 0.682506 0.264179
0.264179 0.682506 0.264179
0.473472 0.682506 0.264179
0.682506 0.682506 0.264179
1 0.682506 0.264179
0 1 0.264179
0.264179 1 0.264179
0.473472 1 0.264179
0.682506 1 0.264179
1 1 0.264179
0 0 0.473472
0.264179 0 0.473472
0.473472 0 0.473472
0.682506 0 0.473472
1 0 0.473472
0 0.264179 0.473472
0.264179 0.264179 0.473472
0.473472 0.264179 0.473472
0.682506 0.264179 0.473472
1 0.264179 0.473472
0 0.473472 0.473472
0.264179 0.473472 0.473472
0.473472 0.473472 0.473472
0.682506 0.473472 0.473472
1 0.473472 0.473472
0 0.682506 0.473472
0.264179 0.682506 0.473472
0.473472 0.682506 0.473472
0.682506 0.682506 0.473472
1 0.682506 0.473472
0 1 0.473472
0.264179 1 0.473472
0.473472 1 0.473472
0.682506 1 0.473472
1 1 0.473472
0 0 0.682506
0.264179 0 0.682506
0.473472 0 0.682506
0.682506 0 0.682506
1 0 0.682506
0 0.264179 0.682506
0.264179 0.264179 0.682506
0.473472 0.264179 0.682506
0.682506 0.264179 0.682506
1 0.264179 0.682506
0 0.473472 0.682506
0.264179 0.473472 0.682506
0.473472 0.473472 0.682506
0.682506 0.473472 0.682506
1 0.473472 0.682506
0 0.682506 0.682506
0.264179 0.682506 0.682506
0.473472 0.682506 0.682506
0.682506 0.682506 0.682506
1 0.682506 0.682506
0 1 0.682506
0.264179 1 0.682506
0.473472 1 0.682506
0.682506 1 0.682506
1 1 0.682506
0 0 1
0.264179 0 1
0.473472 0 1
0.682506 0 1
1 0 1
0 0.264179 1
0.264179 0.264179 1
0.473472 0.264179 1
0.682506 0.264179 1
1 0.264179 1
0 0.473472 1
0.264179 0.473472 1
0.473472 0.473472 1
0.682506 0.473472 1
1 0.473472 1
0 0.682506 1
0.264179 0.682506 1
0.473472 0.682506 1
0.682506 0.682506 1
1 0.682506 1
0 1 1
0.264179 1 1
0.473472 1 1
0.682506 1 1
1 1 1
