resources/LogC3_sRGB.cube
TITLE "Generated by Resolve"
LUT_3D_SIZE 5
0 0 0
0.12369 0 0
0.574914 0 0
0.927794 0 0
1 0 0
0 0.12369 0
0.12369 0.12369 0
0.574914 0.12369 0
0.927794 0.12369 0
1 0.12369 0
0 0.574914 0
0.12369 0.574914 0
0.574914 0.574914 0
0.927794 0.574914 0
1 0.574914 0
0 0.927794 0
0.12369 0.927794 0
0.574914 0.927794 0
0.927794 0.927794 0
1 0.927794 0
0 1 0
0.12369 1 0
0.574914 1 0
0.927794 1 0
1 1 0
0 0 0.12369
0.12369 0 0.12369
0.574914 0 0.12369
0.927794 0 0.12369
1 0 0.12369
0 0.12369 0.12369
0.12369 0.12369 0.12369
0.574914 0.12369 0.12369
0.927794 0.12369 0.12369
1 0.12369 0.12369
0 0.574914 0.12369
0.12369 0.574914 0.12369
0.574914 0.574914 0.12369
0.927794 0.574914 0.12369
1 0.574914 0.12369
0 0.927794 0.12369
0.12369 0.927794 0.12369
0.574914 0.927794 0.12369
0.927794 0.927794 0.12369
1 0.927794 0.12369
0 1 0.12369
0.12369 1 0.12369
0.574914 1 0.12369
0.927794 1 0.12369
1 1 0.12369
0 0 0.574914
0.12369 0 0.574914
0.574914 0 0.574914
0.927794 0 0.574914
1 0 0.574914
0 0.12369 0.574914
0.12369 0.12369 0.574914
0.574914 0.12369 0.574914
0.927794 0.12369 0.574914
1 0.12369 0.574914
0 0.574914 0.574914
0.12369 0.574914 0.574914
0.574914 0.574914 0.574914
0.927794 0.574914 0.574914
1 0.574914 0.574914
0 0.927794 0.574914
0.12369 0.927794 0.574914
0.574914 0.927794 0.574914
0.927794 0.927794 0.574914
1 0.927794 0.574914
0 1 0.574914
0.12369 1 0.574914
0.574914 1 0.574914
0.927794 1 0.574914
1 1 0.574914
0 0 0.927794
0.12369 0 0.927794
0.574914 0 0.927794
0.927794 0 0.927794
1 0 0.927794
0 0.12369 0.927794
0.12369 0.12369 0.927794
0.574914 0.12369 0.927794
0.927794 0.12369 0.927794
1 0.12369 0.927794
0 0.574914 0.927794
0.12369 0.574914 0.927794
0.574914 0.574914 0.927794
0.927794 0.574914 0.927794
1 0.574914 0.927794
0 0.927794 0.927794
0.12369 0.927794 0.927794
0.574914 0.927794 0.927794
0.927794 0.927794 0.927794
1 0.927794 0.927794
0 1 0.927794
0.12369 1 0.927794
0.574914 1 0.927794
0.927794 1 0.927794
1 1 0.927794
0 0 1
0.12369 0 1
0.574914 0 1
0.927794 0 1
1 0 1
0 0.12369 1
0.12369 0.12369 1
0.574914 0.12369 1
0.927794 0.12369 1
1 0.12369 1
0 0.574914 1
0.12369 0.574914 1
0.574914 0.574914 1
0.927794 0.574914 1
1 0.574914 1
0 0.927794 1
0.12369 0.927794 1
0.574914 0.927794 1
0.927794 0.927794 1
1 0.927794 1
0 1 1
0.12369 1 1
0.574914 1 1
0.927794 1 1
1 1 1
