resources/LogC3_Cineon Film Log.cube
TITLE "Generated by Resolve"
LUT_3D_SIZE 33
0 0 0
0 0 0
0 0 0
0.0948806 0 0
0.148821 0 0
0.186801 0 0
0.221759 0 0
0.257206 0 0
0.293004 0 0
0.329061 0 0
0.365301 0 0
0.401648 0 0
0.438056 0 0
0.474464 0 0
0.510796 0 0
0.547021 0 0
0.583062 0 0
0.618814 0 0
0.654215 0 0
0.689097 0 0
0.723339 0 0
0.756741 0 0
0.789075 0 0
0.820066 0 0
0.849454 0 0
0.876921 0 0
0.902174 0 0
0.924987 0 0
0.945174 0 0
0.962676 0 0
0.977539 0 0
0.989899 0 0
1 0 0
0 0 0
0 0 0
0 0 0
0.0948806 0 0
0.148821 0 0
0.186801 0 0
0.221759 0 0
0.257206 0 0
0.293004 0 0
0.329061 0 0
0.365301 0 0
0.401648 0 0
0.438056 0 0
0.474464 0 0
0.510796 0 0
0.547021 0 0
0.583062 0 0
0.618814 0 0
0.654215 0 0
0.689097 0 0
0.723339 0 0
0.756741 0 0
0.789075 0 0
0.820066 0 0
0.849454 0 0
0.876921 0 0
0.902174 0 0
0.924987 0 0
0.945174 0 0
0.962676 0 0
0.977539 0 0
0.989899 0 0
1 0 0
0 0 0
0 0 0
0 0 0
0.0948806 0 0
0.148821 0 0
0.186801 0 0
0.221759 0 0
0.257206 0 0
0.293004 0 0
0.329061 0 0
0.365301 0 0
0.401648 0 0
0.438056 0 0
0.474464 0 0
0.510796 0 0
0.547021 0 0
0.583062 0 0
0.618814 0 0
0.654215 0 0
0.689097 0 0
0.723339 0 0
0.756741 0 0
0.789075 0 0
0.820066 0 0
0.849454 0 0
0.876921 0 0
0.902174 0 0
0.924987 0 0
0.945174 0 0
0.962676 0 0
0.977539 0 0
0.989899 0 0
1 0 0
0 0.0948806 0
0 0.0948806 0
0 0.0948806 0
0.0948806 0.0948806 0
0.148821 0.0948806 0
0.186801 0.0948806 0
0.221759 0.0948806 0
0.257206 0.0948806 0
0.293004 0.0948806 0
0.329061 0.0948806 0
0.365301 0.0948806 0
0.401648 0.0948806 0
0.438056 0.0948806 0
0.474464 0.0948806 0
0.510796 0.0948806 0
0.547021 0.0948806 0
0.583062 0.0948806 0
0.618814 0.0948806 0
0.654215 0.0948806 0
0.689097 0.0948806 0
0.723339 0.0948806 0
0.756741 0.0948806 0
0.789075 0.0948806 0
0.820066 0.0948806 0
0.849454 0.0948806 0
0.876921 0.0948806 0
0.902174 0.0948806 0
0.924987 0.0948806 0
0.945174 0.0948806 0
0.962676 0.0948806 0
0.977539 0.0948806 0
0.989899 0.0948806 0
1 0.0948806 0
0 0.148821 0
0 0.148821 0
0 0.148821 0
0.0948806 0.148821 0
0.148821 0.148821 0
0.186801 0.148821 0
0.221759 0.148821 0
0.257206 0.148821 0
0.293004 0.148821 0
0.329061 0.148821 0
0.365301 0.148821 0
0.401648 0.148821 0
0.438056 0.148821 0
0.474464 0.148821 0
0.510796 0.148821 0
0.547021 0.148821 0
0.583062 0.148821 0
0.618814 0.148821 0
0.654215 0.148821 0
0.689097 0.148821 0
0.723339 0.148821 0
0.756741 0.148821 0
0.789075 0.148821 0
0.820066 0.148821 0
0.849454 0.148821 0
0.876921 0.148821 0
0.902174 0.148821 0
0.924987 0.148821 0
0.945174 0.148821 0
0.962676 0.148821 0
0.977539 0.148821 0
0.989899 0.148821 0
1 0.148821 0
0 0.186801 0
0 0.186801 0
0 0.186801 0
0.0948806 0.186801 0
0.148821 0.186801 0
0.186801 0.186801 0
0.221759 0.186801 0
0.257206 0.186801 0
0.293004 0.186801 0
0.329061 0.186801 0
0.365301 0.186801 0
0.401648 0.186801 0
0.438056 0.186801 0
0.474464 0.186801 0
0.510796 0.186801 0
0.547021 0.186801 0
0.583062 0.186801 0
0.618814 0.186801 0
0.654215 0.186801 0
0.689097 0.186801 0
0.723339 0.186801 0
0.756741 0.186801 0
0.789075 0.186801 0
0.820066 0.186801 0
0.849454 0.186801 0
0.876921 0.186801 0
0.902174 0.186801 0
0.924987 0.186801 0
0.945174 0.186801 0
0.962676 0.186801 0
0.977539 0.186801 0
0.989899 0.186801 0
1 0.186801 0
0 0.221759 0
0 0.221759 0
0 0.221759 0
0.0948806 0.221759 0
0.148821 0.221759 0
0.186801 0.221759 0
0.221759 0.221759 0
0.257206 0.221759 0
0.293004 0.221759 0
0.329061 0.221759 0
0.365301 0.221759 0
0.401648 0.221759 0
0.438056 0.221759 0
0.474464 0.221759 0
0.510796 0.221759 0
0.547021 0.221759 0
0.583062 0.221759 0
0.618814 0.221759 0
0.654215 0.221759 0
0.689097 0.221759 0
0.723339 0.221759 0
0.756741 0.221759 0
0.789075 0.221759 0
0.820066 0.221759 0
0.849454 0.221759 0
0.876921 0.221759 0
0.902174 0.221759 0
0.924987 0.221759 0
0.945174 0.221759 0
0.962676 0.221759 0
0.977539 0.221759 0
0.989899 0.221759 0
1 0.221759 0
0 0.257206 0
0 0.257206 0
0 0.257206 0
0.0948806 0.257206 0
0.148821 0.257206 0
0.186801 0.257206 0
0.221759 0.257206 0
0.257206 0.257206 0
0.293004 0.257206 0
0.329061 0.257206 0
0.365301 0.257206 0
0.401648 0.257206 0
0.438056 0.257206 0
0.474464 0.257206 0
0.510796 0.257206 0
0.547021 0.257206 0
0.583062 0.257206 0
0.618814 0.257206 0
0.654215 0.257206 0
0.689097 0.257206 0
0.723339 0.257206 0
0.756741 0.257206 0
0.789075 0.257206 0
0.820066 0.257206 0
0.849454 0.257206 0
0.876921 0.257206 0
0.902174 0.257206 0
0.924987 0.257206 0
0.945174 0.257206 0
0.962676 0.257206 0
0.977539 0.257206 0
0.989899 0.257206 0
1 0.257206 0
0 0.293004 0
0 0.293004 0
0 0.293004 0
0.0948806 0.293004 0
0.148821 0.293004 0
0.186801 0.293004 0
0.221759 0.293004 0
0.257206 0.293004 0
0.293004 0.293004 0
0.329061 0.293004 0
0.365301 0.293004 0
0.401648 0.293004 0
0.438056 0.293004 0
0.474464 0.293004 0
0.510796 0.293004 0
0.547021 0.293004 0
0.583062 0.293004 0
0.618814 0.293004 0
0.654215 0.293004 0
0.689097 0.293004 0
0.723339 0.293004 0
0.756741 0.293004 0
0.789075 0.293004 0
0.820066 0.293004 0
0.849454 0.293004 0
0.876921 0.293004 0
0.902174 0.293004 0
0.924987 0.293004 0
0.945174 0.293004 0
0.962676 0.293004 0
0.977539 0.293004 0
0.989899 0.293004 0
1 0.293004 0
0 0.329061 0
0 0.329061 0
0 0.329061 0
0.0948806 0.329061 0
0.148821 0.329061 0
0.186801 0.329061 0
0.221759 0.329061 0
0.257206 0.329061 0
0.293004 0.329061 0
0.329061 0.329061 0
0.365301 0.329061 0
0.401648 0.329061 0
0.438056 0.329061 0
0.474464 0.329061 0
0.510796 0.329061 0
0.547021 0.329061 0
0.583062 0.329061 0
0.618814 0.329061 0
0.654215 0.329061 0
0.689097 0.329061 0
0.723339 0.329061 0
0.756741 0.329061 0
0.789075 0.329061 0
0.820066 0.329061 0
0.849454 0.329061 0
0.876921 0.329061 0
0.902174 0.329061 0
0.924987 0.329061 0
0.945174 0.329061 0
0.962676 0.329061 0
0.977539 0.329061 0
0.989899 0.329061 0
1 0.329061 0
0 0.365301 0
0 0.365301 0
0 0.365301 0
0.0948806 0.365301 0
0.148821 0.365301 0
0.186801 0.365301 0
0.221759 0.365301 0
0.257206 0.365301 0
0.293004 0.365301 0
0.329061 0.365301 0
0.365301 0.365301 0
0.401648 0.365301 0
0.438056 0.365301 0
0.474464 0.365301 0
0.510796 0.365301 0
0.547021 0.365301 0
0.583062 0.365301 0
0.618814 0.365301 0
0.654215 0.365301 0
0.689097 0.365301 0
0.723339 0.365301 0
0.756741 0.365301 0
0.789075 0.365301 0
0.820066 0.365301 0
0.849454 0.365301 0
0.876921 0.365301 0
0.902174 0.365301 0
0.924987 0.365301 0
0.945174 0.365301 0
0.962676 0.365301 0
0.977539 0.365301 0
0.989899 0.365301 0
1 0.365301 0
0 0.401648 0
0 0.401648 0
0 0.401648 0
0.0948806 0.401648 0
0.148821 0.401648 0
0.186801 0.401648 0
0.221759 0.401648 0
0.257206 0.401648 0
0.293004 0.401648 0
0.329061 0.401648 0
0.365301 0.401648 0
0.401648 0.401648 0
0.438056 0.401648 0
0.474464 0.401648 0
0.510796 0.401648 0
0.547021 0.401648 0
0.583062 0.401648 0
0.618814 0.401648 0
0.654215 0.401648 0
0.689097 0.401648 0
0.723339 0.401648 0
0.756741 0.401648 0
0.789075 0.401648 0
0.820066 0.401648 0
0.849454 0.401648 0
0.876921 0.401648 0
0.902174 0.401648 0
0.924987 0.401648 0
0.945174 0.401648 0
0.962676 0.401648 0
0.977539 0.401648 0
0.989899 0.401648 0
1 0.401648 0
0 0.438056 0
0 0.438056 0
0 0.438056 0
0.0948806 0.438056 0
0.148821 0.438056 0
0.186801 0.438056 0
0.221759 0.438056 0
0.257206 0.438056 0
0.293004 0.438056 0
0.329061 0.438056 0
0.365301 0.438056 0
0.401648 0.438056 0
0.438056 0.438056 0
0.474464 0.438056 0
0.510796 0.438056 0
0.547021 0.438056 0
0.583062 0.438056 0
0.618814 0.438056 0
0.654215 0.438056 0
0.689097 0.438056 0
0.723339 0.438056 0
0.756741 0.438056 0
0.789075 0.438056 0
0.820066 0.438056 0
0.849454 0.438056 0
0.876921 0.438056 0
0.902174 0.438056 0
0.924987 0.438056 0
0.945174 0.438056 0
0.962676 0.438056 0
0.977539 0.438056 0
0.989899 0.438056 0
1 0.438056 0
0 0.474464 0
0 0.474464 0
0 0.474464 0
0.0948806 0.474464 0
0.148821 0.474464 0
0.186801 0.474464 0
0.221759 0.474464 0
0.257206 0.474464 0
0.293004 0.474464 0
0.329061 0.474464 0
0.365301 0.474464 0
0.401648 0.474464 0
0.438056 0.474464 0
0.474464 0.474464 0
0.510796 0.474464 0
0.547021 0.474464 0
0.583062 0.474464 0
0.618814 0.474464 0
0.654215 0.474464 0
0.689097 0.474464 0
0.723339 0.474464 0
0.756741 0.474464 0
0.789075 0.474464 0
0.820066 0.474464 0
0.849454 0.474464 0
0.876921 0.474464 0
0.902174 0.474464 0
0.924987 0.474464 0
0.945174 0.474464 0
0.962676 0.474464 0
0.977539 0.474464 0
0.989899 0.474464 0
1 0.474464 0
0 0.510796 0
0 0.510796 0
0 0.510796 0
0.0948806 0.510796 0
0.148821 0.510796 0
0.186801 0.510796 0
0.221759 0.510796 0
0.257206 0.510796 0
0.293004 0.510796 0
0.329061 0.510796 0
0.365301 0.510796 0
0.401648 0.510796 0
0.438056 0.510796 0
0.474464 0.510796 0
0.510796 0.510796 0
0.547021 0.510796 0
0.583062 0.510796 0
0.618814 0.510796 0
0.654215 0.510796 0
0.689097 0.510796 0
0.723339 0.510796 0
0.756741 0.510796 0
0.789075 0.510796 0
0.820066 0.510796 0
0.849454 0.510796 0
0.876921 0.510796 0
0.902174 0.510796 0
0.924987 0.510796 0
0.945174 0.510796 0
0.962676 0.510796 0
0.977539 0.510796 0
0.989899 0.510796 0
1 0.510796 0
0 0.547021 0
0 0.547021 0
0 0.547021 0
0.0948806 0.547021 0
0.148821 0.547021 0
0.186801 0.547021 0
0.221759 0.547021 0
0.257206 0.547021 0
0.293004 0.547021 0
0.329061 0.547021 0
0.365301 0.547021 0
0.401648 0.547021 0
0.438056 0.547021 0
0.474464 0.547021 0
0.510796 0.547021 0
0.547021 0.547021 0
0.583062 0.547021 0
0.618814 0.547021 0
0.654215 0.547021 0
0.689097 0.547021 0
0.723339 0.547021 0
0.756741 0.547021 0
0.789075 0.547021 0
0.820066 0.547021 0
0.849454 0.547021 0
0.876921 0.547021 0
0.902174 0.547021 0
0.924987 0.547021 0
0.945174 0.547021 0
0.962676 0.547021 0
0.977539 0.547021 0
0.989899 0.547021 0
1 0.547021 0
0 0.583062 0
0 0.583062 0
0 0.583062 0
0.0948806 0.583062 0
0.148821 0.583062 0
0.186801 0.583062 0
0.221759 0.583062 0
0.257206 0.583062 0
0.293004 0.583062 0
0.329061 0.583062 0
0.365301 0.583062 0
0.401648 0.583062 0
0.438056 0.583062 0
0.474464 0.583062 0
0.510796 0.583062 0
0.547021 0.583062 0
0.583062 0.583062 0
0.618814 0.583062 0
0.654215 0.583062 0
0.689097 0.583062 0
0.723339 0.583062 0
0.756741 0.583062 0
0.789075 0.583062 0
0.820066 0.583062 0
0.849454 0.583062 0
0.876921 0.583062 0
0.902174 0.583062 0
0.924987 0.583062 0
0.945174 0.583062 0
0.962676 0.583062 0
0.977539 0.583062 0
0.989899 0.583062 0
1 0.583062 0
0 0.618814 0
0 0.618814 0
0 0.618814 0
0.0948806 0.618814 0
0.148821 0.618814 0
0.186801 0.618814 0
0.221759 0.618814 0
0.257206 0.618814 0
0.293004 0.618814 0
0.329061 0.618814 0
0.365301 0.618814 0
0.401648 0.618814 0
0.438056 0.618814 0
0.474464 0.618814 0
0.510796 0.618814 0
0.547021 0.618814 0
0.583062 0.618814 0
0.618814 0.618814 0
0.654215 0.618814 0
0.689097 0.618814 0
0.723339 0.618814 0
0.756741 0.618814 0
0.789075 0.618814 0
0.820066 0.618814 0
0.849454 0.618814 0
0.876921 0.618814 0
0.902174 0.618814 0
0.924987 0.618814 0
0.945174 0.618814 0
0.962676 0.618814 0
0.977539 0.618814 0
0.989899 0.618814 0
1 0.618814 0
0 0.654215 0
0 0.654215 0
0 0.654215 0
0.0948806 0.654215 0
0.148821 0.654215 0
0.186801 0.654215 0
0.221759 0.654215 0
0.257206 0.654215 0
0.293004 0.654215 0
0.329061 0.654215 0
0.365301 0.654215 0
0.401648 0.654215 0
0.438056 0.654215 0
0.474464 0.654215 0
0.510796 0.654215 0
0.547021 0.654215 0
0.583062 0.654215 0
0.618814 0.654215 0
0.654215 0.654215 0
0.689097 0.654215 0
0.723339 0.654215 0
0.756741 0.654215 0
0.789075 0.654215 0
0.820066 0.654215 0
0.849454 0.654215 0
0.876921 0.654215 0
0.902174 0.654215 0
0.924987 0.654215 0
0.945174 0.654215 0
0.962676 0.654215 0
0.977539 0.654215 0
0.989899 0.654215 0
1 0.654215 0
0 0.689097 0
0 0.689097 0
0 0.689097 0
0.0948806 0.689097 0
0.148821 0.689097 0
0.186801 0.689097 0
0.221759 0.689097 0
0.257206 0.689097 0
0.293004 0.689097 0
0.329061 0.689097 0
0.365301 0.689097 0
0.401648 0.689097 0
0.438056 0.689097 0
0.474464 0.689097 0
0.510796 0.689097 0
0.547021 0.689097 0
0.583062 0.689097 0
0.618814 0.689097 0
0.654215 0.689097 0
0.689097 0.689097 0
0.723339 0.689097 0
0.756741 0.689097 0
0.789075 0.689097 0
0.820066 0.689097 0
0.849454 0.689097 0
0.876921 0.689097 0
0.902174 0.689097 0
0.924987 0.689097 0
0.945174 0.689097 0
0.962676 0.689097 0
0.977539 0.689097 0
0.989899 0.689097 0
1 0.689097 0
0 0.723339 0
0 0.723339 0
0 0.723339 0
0.0948806 0.723339 0
0.148821 0.723339 0
0.186801 0.723339 0
0.221759 0.723339 0
0.257206 0.723339 0
0.293004 0.723339 0
0.329061 0.723339 0
0.365301 0.723339 0
0.401648 0.723339 0
0.438056 0.723339 0
0.474464 0.723339 0
0.510796 0.723339 0
0.547021 0.723339 0
0.583062 0.723339 0
0.618814 0.723339 0
0.654215 0.723339 0
0.689097 0.723339 0
0.723339 0.723339 0
0.756741 0.723339 0
0.789075 0.723339 0
0.820066 0.723339 0
0.849454 0.723339 0
0.876921 0.723339 0
0.902174 0.723339 0
0.924987 0.723339 0
0.945174 0.723339 0
0.962676 0.723339 0
0.977539 0.723339 0
0.989899 0.723339 0
1 0.723339 0
0 0.756741 0
0 0.756741 0
0 0.756741 0
0.0948806 0.756741 0
0.148821 0.756741 0
0.186801 0.756741 0
0.221759 0.756741 0
0.257206 0.756741 0
0.293004 0.756741 0
0.329061 0.756741 0
0.365301 0.756741 0
0.401648 0.756741 0
0.438056 0.756741 0
0.474464 0.756741 0
0.510796 0.756741 0
0.547021 0.756741 0
0.583062 0.756741 0
0.618814 0.756741 0
0.654215 0.756741 0
0.689097 0.756741 0
0.723339 0.756741 0
0.756741 0.756741 0
0.789075 0.756741 0
0.820066 0.756741 0
0.849454 0.756741 0
0.876921 0.756741 0
0.902174 0.756741 0
0.924987 0.756741 0
0.945174 0.756741 0
0.962676 0.756741 0
0.977539 0.756741 0
0.989899 0.756741 0
1 0.756741 0
0 0.789075 0
0 0.789075 0
0 0.789075 0
0.0948806 0.789075 0
0.148821 0.789075 0
0.186801 0.789075 0
0.221759 0.789075 0
0.257206 0.789075 0
0.293004 0.789075 0
0.329061 0.789075 0
0.365301 0.789075 0
0.401648 0.789075 0
0.438056 0.789075 0
0.474464 0.789075 0
0.510796 0.789075 0
0.547021 0.789075 0
0.583062 0.789075 0
0.618814 0.789075 0
0.654215 0.789075 0
0.689097 0.789075 0
0.723339 0.789075 0
0.756741 0.789075 0
0.789075 0.789075 0
0.820066 0.789075 0
0.849454 0.789075 0
0.876921 0.789075 0
0.902174 0.789075 0
0.924987 0.789075 0
0.945174 0.789075 0
0.962676 0.789075 0
0.977539 0.789075 0
0.989899 0.789075 0
1 0.789075 0
0 0.820066 0
0 0.820066 0
0 0.820066 0
0.0948806 0.820066 0
0.148821 0.820066 0
0.186801 0.820066 0
0.221759 0.820066 0
0.257206 0.820066 0
0.293004 0.820066 0
0.329061 0.820066 0
0.365301 0.820066 0
0.401648 0.820066 0
0.438056 0.820066 0
0.474464 0.820066 0
0.510796 0.820066 0
0.547021 0.820066 0
0.583062 0.820066 0
0.618814 0.820066 0
0.654215 0.820066 0
0.689097 0.820066 0
0.723339 0.820066 0
0.756741 0.820066 0
0.789075 0.820066 0
0.820066 0.820066 0
0.849454 0.820066 0
0.876921 0.820066 0
0.902174 0.820066 0
0.924987 0.820066 0
0.945174 0.820066 0
0.962676 0.820066 0
0.977539 0.820066 0
0.989899 0.820066 0
1 0.820066 0
0 0.849454 0
0 0.849454 0
0 0.849454 0
0.0948806 0.849454 0
0.148821 0.849454 0
0.186801 0.849454 0
0.221759 0.849454 0
0.257206 0.849454 0
0.293004 0.849454 0
0.329061 0.849454 0
0.365301 0.849454 0
0.401648 0.849454 0
0.438056 0.849454 0
0.474464 0.849454 0
0.510796 0.849454 0
0.547021 0.849454 0
0.583062 0.849454 0
0.618814 0.849454 0
0.654215 0.849454 0
0.689097 0.849454 0
0.723339 0.849454 0
0.756741 0.849454 0
0.789075 0.849454 0
0.820066 0.849454 0
0.849454 0.849454 0
0.876921 0.849454 0
0.902174 0.849454 0
0.924987 0.849454 0
0.945174 0.849454 0
0.962676 0.849454 0
0.977539 0.849454 0
0.989899 0.849454 0
1 0.849454 0
0 0.876921 0
0 0.876921 0
0 0.876921 0
0.0948806 0.876921 0
0.148821 0.876921 0
0.186801 0.876921 0
0.221759 0.876921 0
0.257206 0.876921 0
0.293004 0.876921 0
0.329061 0.876921 0
0.365301 0.876921 0
0.401648 0.876921 0
0.438056 0.876921 0
0.474464 0.876921 0
0.510796 0.876921 0
0.547021 0.876921 0
0.583062 0.876921 0
0.618814 0.876921 0
0.654215 0.876921 0
0.689097 0.876921 0
0.723339 0.876921 0
0.756741 0.876921 0
0.789075 0.876921 0
0.820066 0.876921 0
0.849454 0.876921 0
0.876921 0.876921 0
0.902174 0.876921 0
0.924987 0.876921 0
0.945174 0.876921 0
0.962676 0.876921 0
0.977539 0.876921 0
0.989899 0.876921 0
1 0.876921 0
0 0.902174 0
0 0.902174 0
0 0.902174 0
0.0948806 0.902174 0
0.148821 0.902174 0
0.186801 0.902174 0
0.221759 0.902174 0
0.257206 0.902174 0
0.293004 0.902174 0
0.329061 0.902174 0
0.365301 0.902174 0
0.401648 0.902174 0
0.438056 0.902174 0
0.474464 0.902174 0
0.510796 0.902174 0
0.547021 0.902174 0
0.583062 0.902174 0
0.618814 0.902174 0
0.654215 0.902174 0
0.689097 0.902174 0
0.723339 0.902174 0
0.756741 0.902174 0
0.789075 0.902174 0
0.820066 0.902174 0
0.849454 0.902174 0
0.876921 0.902174 0
0.902174 0.902174 0
0.924987 0.902174 0
0.945174 0.902174 0
0.962676 0.902174 0
0.977539 0.902174 0
0.989899 0.902174 0
1 0.902174 0
0 0.924987 0
0 0.924987 0
0 0.924987 0
0.0948806 0.924987 0
0.148821 0.924987 0
0.186801 0.924987 0
0.221759 0.924987 0
0.257206 0.924987 0
0.293004 0.924987 0
