resources/LogC3_LogC4.cube
TITLE "Generated by Resolve"
LUT_3D_SIZE 5
0.00668345 0.00668345 0.00668345
0.176501 0.00668345 0.00668345
0.368231 0.00668345 0.00668345
0.590494 0.00668345 0.00668345
1 0.00668345 0.00668345
0.00668345 0.176501 0.00668345
0.176501 0.176501 0.00668345
0.368231 0.176501 0.00668345
0.590494 0.176501 0.00668345
1 0.176501 0.00668345
0.00668345 0.368231 0.00668345
0.176501 0.368231 0.00668345
0.368231 0.368231 0.00668345
0.590494 0.368231 0.00668345
1 0.368231 0.00668345
0.00668345 0.590494 0.00668345
0.176501 0.590494 0.00668345
0.368231 0.590494 0.00668345
0.590494 0.590494 0.00668345
1 0.590494 0.00668345
0.00668345 1 0.00668345
0.176501 1 0.00668345
0.368231 1 0.00668345
0.590494 1 0.00668345
1 1 0.00668345
0.00668345 0.00668345 0.176501
0.176501 0.00668345 0.176501
0.368231 0.00668345 0.176501
0.590494 0.00668345 0.176501
1 0.00668345 0.176501
0.00668345 0.176501 0.176501
0.176501 0.176501 0.176501
0.368231 0.176501 0.176501
0.590494 0.176501 0.176501
1 0.176501 0.176501
0.00668345 0.368231 0.176501
0.176501 0.368231 0.176501
0.368231 0.368231 0.176501
0.590494 0.368231 0.176501
1 0.368231 0.176501
0.00668345 0.590494 0.176501
0.176501 0.590494 0.176501
0.368231 0.590494 0.176501
0.590494 0.590494 0.176501
1 0.590494 0.176501
0.00668345 1 0.176501
0.176501 1 0.176501
0.368231 1 0.176501
0.590494 1 0.176501
1 1 0.176501
0.00668345 0.00668345 0.368231
0.176501 0.00668345 0.368231
0.368231 0.00668345 0.368231
0.590494 0.00668345 0.368231
1 0.00668345 0.368231
0.00668345 0.176501 0.368231
0.176501 0.176501 0.368231
0.368231 0.176501 0.368231
0.590494 0.176501 0.368231
1 0.176501 0.368231
0.00668345 0.368231 0.368231
0.176501 0.368231 0.368231
0.368231 0.368231 0.368231
0.590494 0.368231 0.368231
1 0.368231 0.368231
0.00668345 0.590494 0.368231
0.176501 0.590494 0.368231
0.368231 0.590494 0.368231
0.590494 0.590494 0.368231
1 0.590494 0.368231
0.00668345 1 0.368231
0.176501 1 0.368231
0.368231 1 0.368231
0.590494 1 0.368231
1 1 0.368231
0.00668345 0.00668345 0.590494
0.176501 0.00668345 0.590494
0.368231 0.00668345 0.590494
0.590494 0.00668345 0.590494
1 0.00668345 0.590494
0.00668345 0.176501 0.590494
0.176501 0.176501 0.590494
0.368231 0.176501 0.590494
0.590494 0.176501 0.590494
1 0.176501 0.590494
0.00668345 0.368231 0.590494
0.176501 0.368231 0.590494
0.368231 0.368231 0.590494
0.590494 0.368231 0.590494
1 0.368231 0.590494
0.00668345 0.590494 0.590494
0.176501 0.590494 0.590494
0.368231 0.590494 0.590494
0.590494 0.590494 0.590494
1 0.590494 0.590494
0.00668345 1 0.590494
0.176501 1 0.590494
0.368231 1 0.590494
0.590494 1 0.590494
1 1 0.590494
0.00668345 0.00668345 1
0.176501 0.00668345 1
0.368231 0.00668345 1
0.590494 0.00668345 1
1 0.00668345 1
0.00668345 0.176501 1
0.176501 0.176501 1
0.368231 0.176501 1
0.590494 0.176501 1
1 0.176501 1
0.00668345 0.368231 1
0.176501 0.368231 1
0.368231 0.368231 1
0.590494 0.368231 1
1 0.368231 1
0.00668345 0.590494 1
0.176501 0.590494 1
0.368231 0.590494 1
0.590494 0.590494 1
1 0.590494 1
0.00668345 1 1
0.176501 1 1
0.368231 1 1
0.590494 1 1
1 1 1
