resources/LogC3_Blackmagic Design Film Gen 5.cube
TITLE "Generated by Resolve"
LUT_3D_SIZE 33
0 0 0
0 0 0
0.045716 0 0
0.0938888 0 0
0.141711 0 0
0.177523 0 0
0.207645 0 0
0.236393 0 0
0.264179 0 0
0.29131 0 0
0.317968 0 0
0.344289 0 0
0.370367 0 0
0.396277 0 0
0.422065 0 0
0.447791 0 0
0.473472 0 0
0.499153 0 0
0.524865 0 0
0.550652 0 0
0.576532 0 0
0.602579 0 0
0.628855 0 0
0.655451 0 0
0.682506 0 0
0.710185 0 0
0.73875 0 0
0.768627 0 0
0.800443 0 0
0.835279 0 0
0.875227 0 0
0.925017 0 0
1 0 0
0 0 0
0 0 0
0.045716 0 0
0.0938888 0 0
0.141711 0 0
0.177523 0 0
0.207645 0 0
0.236393 0 0
0.264179 0 0
0.29131 0 0
0.317968 0 0
0.344289 0 0
0.370367 0 0
0.396277 0 0
0.422065 0 0
0.447791 0 0
0.473472 0 0
0.499153 0 0
0.524865 0 0
0.550652 0 0
0.576532 0 0
0.602579 0 0
0.628855 0 0
0.655451 0 0
0.682506 0 0
0.710185 0 0
0.73875 0 0
0.768627 0 0
0.800443 0 0
0.835279 0 0
0.875227 0 0
0.925017 0 0
1 0 0
0 0.045716 0
0 0.045716 0
0.045716 0.045716 0
0.0938888 0.045716 0
0.141711 0.045716 0
0.177523 0.045716 0
0.207645 0.045716 0
0.236393 0.045716 0
0.264179 0.045716 0
0.29131 0.045716 0
0.317968 0.045716 0
0.344289 0.045716 0
0.370367 0.045716 0
0.396277 0.045716 0
0.422065 0.045716 0
0.447791 0.045716 0
0.473472 0.045716 0
0.499153 0.045716 0
0.524865 0.045716 0
0.550652 0.045716 0
0.576532 0.045716 0
0.602579 0.045716 0
0.628855 0.045716 0
0.655451 0.045716 0
0.682506 0.045716 0
0.710185 0.045716 0
0.73875 0.045716 0
0.768627 0.045716 0
0.800443 0.045716 0
0.835279 0.045716 0
0.875227 0.045716 0
0.925017 0.045716 0
1 0.045716 0
0 0.0938888 0
0 0.0938888 0
0.045716 0.0938888 0
0.0938888 0.0938888 0
0.141711 0.0938888 0
0.177523 0.0938888 0
0.207645 0.0938888 0
0.236393 0.0938888 0
0.264179 0.0938888 0
0.29131 0.0938888 0
0.317968 0.0938888 0
0.344289 0.0938888 0
0.370367 0.0938888 0
0.396277 0.0938888 0
0.422065 0.0938888 0
0.447791 0.0938888 0
0.473472 0.0938888 0
0.499153 0.0938888 0
0.524865 0.0938888 0
0.550652 0.0938888 0
0.576532 0.0938888 0
0.602579 0.0938888 0
0.628855 0.0938888 0
0.655451 0.0938888 0
0.682506 0.0938888 0
0.710185 0.0938888 0
0.73875 0.0938888 0
0.768627 0.0938888 0
0.800443 0.0938888 0
0.835279 0.0938888 0
0.875227 0.0938888 0
0.925017 0.0938888 0
1 0.0938888 0
0 0.141711 0
0 0.141711 0
0.045716 0.141711 0
0.0938888 0.141711 0
0.141711 0.141711 0
0.177523 0.141711 0
0.207645 0.141711 0
0.236393 0.141711 0
0.264179 0.141711 0
0.29131 0.141711 0
0.317968 0.141711 0
0.344289 0.141711 0
0.370367 0.141711 0
0.396277 0.141711 0
0.422065 0.141711 0
0.447791 0.141711 0
0.473472 0.141711 0
0.499153 0.141711 0
0.524865 0.141711 0
0.550652 0.141711 0
0.576532 0.141711 0
0.602579 0.141711 0
0.628855 0.141711 0
0.655451 0.141711 0
0.682506 0.141711 0
0.710185 0.141711 0
0.73875 0.141711 0
0.768627 0.141711 0
0.800443 0.141711 0
0.835279 0.141711 0
0.875227 0.141711 0
0.925017 0.141711 0
1 0.141711 0
0 0.177523 0
0 0.177523 0
0.045716 0.177523 0
0.0938888 0.177523 0
0.141711 0.177523 0
0.177523 0.177523 0
0.207645 0.177523 0
0.236393 0.177523 0
0.264179 0.177523 0
0.29131 0.177523 0
0.317968 0.177523 0
0.344289 0.177523 0
0.370367 0.177523 0
0.396277 0.177523 0
0.422065 0.177523 0
0.447791 0.177523 0
0.473472 0.177523 0
0.499153 0.177523 0
0.524865 0.177523 0
0.550652 0.177523 0
0.576532 0.177523 0
0.602579 0.177523 0
0.628855 0.177523 0
0.655451 0.177523 0
0.682506 0.177523 0
0.710185 0.177523 0
0.73875 0.177523 0
0.768627 0.177523 0
0.800443 0.177523 0
0.835279 0.177523 0
0.875227 0.177523 0
0.925017 0.177523 0
1 0.177523 0
0 0.207645 0
0 0.207645 0
0.045716 0.207645 0
0.0938888 0.207645 0
0.141711 0.207645 0
0.177523 0.207645 0
0.207645 0.207645 0
0.236393 0.207645 0
0.264179 0.207645 0
0.29131 0.207645 0
0.317968 0.207645 0
0.344289 0.207645 0
0.370367 0.207645 0
0.396277 0.207645 0
0.422065 0.207645 0
0.447791 0.207645 0
0.473472 0.207645 0
0.499153 0.207645 0
0.524865 0.207645 0
0.550652 0.207645 0
0.576532 0.207645 0
0.602579 0.207645 0
0.628855 0.207645 0
0.655451 0.207645 0
0.682506 0.207645 0
0.710185 0.207645 0
0.73875 0.207645 0
0.768627 0.207645 0
0.800443 0.207645 0
0.835279 0.207645 0
0.875227 0.207645 0
0.925017 0.207645 0
1 0.207645 0
0 0.236393 0
0 0.236393 0
0.045716 0.236393 0
0.0938888 0.236393 0
0.141711 0.236393 0
0.177523 0.236393 0
0.207645 0.236393 0
0.236393 0.236393 0
0.264179 0.236393 0
0.29131 0.236393 0
0.317968 0.236393 0
0.344289 0.236393 0
0.370367 0.236393 0
0.396277 0.236393 0
0.422065 0.236393 0
0.447791 0.236393 0
0.473472 0.236393 0
0.499153 0.236393 0
0.524865 0.236393 0
0.550652 0.236393 0
0.576532 0.236393 0
0.602579 0.236393 0
0.628855 0.236393 0
0.655451 0.236393 0
0.682506 0.236393 0
0.710185 0.236393 0
0.73875 0.236393 0
0.768627 0.236393 0
0.800443 0.236393 0
0.835279 0.236393 0
0.875227 0.236393 0
0.925017 0.236393 0
1 0.236393 0
0 0.264179 0
0 0.264179 0
0.045716 0.264179 0
0.0938888 0.264179 0
0.141711 0.264179 0
0.177523 0.264179 0
0.207645 0.264179 0
0.236393 0.264179 0
0.264179 0.264179 0
0.29131 0.264179 0
0.317968 0.264179 0
0.344289 0.264179 0
0.370367 0.264179 0
0.396277 0.264179 0
0.422065 0.264179 0
0.447791 0.264179 0
0.473472 0.264179 0
0.499153 0.264179 0
0.524865 0.264179 0
0.550652 0.264179 0
0.576532 0.264179 0
0.602579 0.264179 0
0.628855 0.264179 0
0.655451 0.264179 0
0.682506 0.264179 0
0.710185 0.264179 0
0.73875 0.264179 0
0.768627 0.264179 0
0.800443 0.264179 0
0.835279 0.264179 0
0.875227 0.264179 0
0.925017 0.264179 0
1 0.264179 0
0 0.29131 0
0 0.29131 0
0.045716 0.29131 0
0.0938888 0.29131 0
0.141711 0.29131 0
0.177523 0.29131 0
0.207645 0.29131 0
0.236393 0.29131 0
0.264179 0.29131 0
0.29131 0.29131 0
0.317968 0.29131 0
0.344289 0.29131 0
0.370367 0.29131 0
0.396277 0.29131 0
0.422065 0.29131 0
0.447791 0.29131 0
0.473472 0.29131 0
0.499153 0.29131 0
0.524865 0.29131 0
0.550652 0.29131 0
0.576532 0.29131 0
0.602579 0.29131 0
0.628855 0.29131 0
0.655451 0.29131 0
0.682506 0.29131 0
0.710185 0.29131 0
0.73875 0.29131 0
0.768627 0.29131 0
0.800443 0.29131 0
0.835279 0.29131 0
0.875227 0.29131 0
0.925017 0.29131 0
1 0.29131 0
0 0.317968 0
0 0.317968 0
0.045716 0.317968 0
0.0938888 0.317968 0
0.141711 0.317968 0
0.177523 0.317968 0
0.207645 0.317968 0
0.236393 0.317968 0
0.264179 0.317968 0
0.29131 0.317968 0
0.317968 0.317968 0
0.344289 0.317968 0
0.370367 0.317968 0
0.396277 0.317968 0
0.422065 0.317968 0
0.447791 0.317968 0
0.473472 0.317968 0
0.499153 0.317968 0
0.524865 0.317968 0
0.550652 0.317968 0
0.576532 0.317968 0
0.602579 0.317968 0
0.628855 0.317968 0
0.655451 0.317968 0
0.682506 0.317968 0
0.710185 0.317968 0
0.73875 0.317968 0
0.768627 0.317968 0
0.800443 0.317968 0
0.835279 0.317968 0
0.875227 0.317968 0
0.925017 0.317968 0
1 0.317968 0
0 0.344289 0
0 0.344289 0
0.045716 0.344289 0
0.0938888 0.344289 0
0.141711 0.344289 0
0.177523 0.344289 0
0.207645 0.344289 0
0.236393 0.344289 0
0.264179 0.344289 0
0.29131 0.344289 0
0.317968 0.344289 0
0.344289 0.344289 0
0.370367 0.344289 0
0.396277 0.344289 0
0.422065 0.344289 0
0.447791 0.344289 0
0.473472 0.344289 0
0.499153 0.344289 0
0.524865 0.344289 0
0.550652 0.344289 0
0.576532 0.344289 0
0.602579 0.344289 0
0.628855 0.344289 0
0.655451 0.344289 0
0.682506 0.344289 0
0.710185 0.344289 0
0.73875 0.344289 0
0.768627 0.344289 0
0.800443 0.344289 0
0.835279 0.344289 0
0.875227 0.344289 0
0.925017 0.344289 0
1 0.344289 0
0 0.370367 0
0 0.370367 0
0.045716 0.370367 0
0.0938888 0.370367 0
0.141711 0.370367 0
0.177523 0.370367 0
0.207645 0.370367 0
0.236393 0.370367 0
0.264179 0.370367 0
0.29131 0.370367 0
0.317968 0.370367 0
0.344289 0.370367 0
0.370367 0.370367 0
0.396277 0.370367 0
0.422065 0.370367 0
0.447791 0.370367 0
0.473472 0.370367 0
0.499153 0.370367 0
0.524865 0.370367 0
0.550652 0.370367 0
0.576532 0.370367 0
0.602579 0.370367 0
0.628855 0.370367 0
0.655451 0.370367 0
0.682506 0.370367 0
0.710185 0.370367 0
0.73875 0.370367 0
0.768627 0.370367 0
0.800443 0.370367 0
0.835279 0.370367 0
0.875227 0.370367 0
0.925017 0.370367 0
1 0.370367 0
0 0.396277 0
0 0.396277 0
0.045716 0.396277 0
0.0938888 0.396277 0
0.141711 0.396277 0
0.177523 0.396277 0
0.207645 0.396277 0
0.236393 0.396277 0
0.264179 0.396277 0
0.29131 0.396277 0
0.317968 0.396277 0
0.344289 0.396277 0
0.370367 0.396277 0
0.396277 0.396277 0
0.422065 0.396277 0
0.447791 0.396277 0
0.473472 0.396277 0
0.499153 0.396277 0
0.524865 0.396277 0
0.550652 0.396277 0
0.576532 0.396277 0
0.602579 0.396277 0
0.628855 0.396277 0
0.655451 0.396277 0
0.682506 0.396277 0
0.710185 0.396277 0
0.73875 0.396277 0
0.768627 0.396277 0
0.800443 0.396277 0
0.835279 0.396277 0
0.875227 0.396277 0
0.925017 0.396277 0
1 0.396277 0
0 0.422065 0
0 0.422065 0
0.045716 0.422065 0
0.0938888 0.422065 0
0.141711 0.422065 0
0.177523 0.422065 0
0.207645 0.422065 0
0.236393 0.422065 0
0.264179 0.422065 0
0.29131 0.422065 0
0.317968 0.422065 0
0.344289 0.422065 0
0.370367 0.422065 0
0.396277 0.422065 0
0.422065 0.422065 0
0.447791 0.422065 0
0.473472 0.422065 0
0.499153 0.422065 0
0.524865 0.422065 0
0.550652 0.422065 0
0.576532 0.422065 0
0.602579 0.422065 0
0.628855 0.422065 0
0.655451 0.422065 0
0.682506 0.422065 0
0.710185 0.422065 0
0.73875 0.422065 0
0.768627 0.422065 0
0.800443 0.422065 0
0.835279 0.422065 0
0.875227 0.422065 0
0.925017 0.422065 0
1 0.422065 0
0 0.447791 0
0 0.447791 0
0.045716 0.447791 0
0.0938888 0.447791 0
0.141711 0.447791 0
0.177523 0.447791 0
0.207645 0.447791 0
0.236393 0.447791 0
0.264179 0.447791 0
0.29131 0.447791 0
0.317968 0.447791 0
0.344289 0.447791 0
0.370367 0.447791 0
0.396277 0.447791 0
0.422065 0.447791 0
0.447791 0.447791 0
0.473472 0.447791 0
0.499153 0.447791 0
0.524865 0.447791 0
0.550652 0.447791 0
0.576532 0.447791 0
0.602579 0.447791 0
0.628855 0.447791 0
0.655451 0.447791 0
0.682506 0.447791 0
0.710185 0.447791 0
0.73875 0.447791 0
0.768627 0.447791 0
0.800443 0.447791 0
0.835279 0.447791 0
0.875227 0.447791 0
0.925017 0.447791 0
1 0.447791 0
0 0.473472 0
0 0.473472 0
0.045716 0.473472 0
0.0938888 0.473472 0
0.141711 0.473472 0
0.177523 0.473472 0
0.207645 0.473472 0
0.236393 0.473472 0
0.264179 0.473472 0
0.29131 0.473472 0
0.317968 0.473472 0
0.344289 0.473472 0
0.370367 0.473472 0
0.396277 0.473472 0
0.422065 0.473472 0
0.447791 0.473472 0
0.473472 0.473472 0
0.499153 0.473472 0
0.524865 0.473472 0
0.550652 0.473472 0
0.576532 0.473472 0
0.602579 0.473472 0
0.628855 0.473472 0
0.655451 0.473472 0
0.682506 0.473472 0
0.710185 0.473472 0
0.73875 0.473472 0
0.768627 0.473472 0
0.800443 0.473472 0
0.835279 0.473472 0
0.875227 0.473472 0
0.925017 0.473472 0
1 0.473472 0
0 0.499153 0
0 0.499153 0
0.045716 0.499153 0
0.0938888 0.499153 0
0.141711 0.499153 0
0.177523 0.499153 0
0.207645 0.499153 0
0.236393 0.499153 0
0.264179 0.499153 0
0.29131 0.499153 0
0.317968 0.499153 0
0.344289 0.499153 0
0.370367 0.499153 0
0.396277 0.499153 0
0.422065 0.499153 0
0.447791 0.499153 0
0.473472 0.499153 0
0.499153 0.499153 0
0.524865 0.499153 0
0.550652 0.499153 0
0.576532 0.499153 0
0.602579 0.499153 0
0.628855 0.499153 0
0.655451 0.499153 0
0.682506 0.499153 0
0.710185 0.499153 0
0.73875 0.499153 0
0.768627 0.499153 0
0.800443 0.499153 0
0.835279 0.499153 0
0.875227 0.499153 0
0.925017 0.499153 0
1 0.499153 0
0 0.524865 0
0 0.524865 0
0.045716 0.524865 0
0.0938888 0.524865 0
0.141711 0.524865 0
0.177523 0.524865 0
0.207645 0.524865 0
0.236393 0.524865 0
0.264179 0.524865 0
0.29131 0.524865 0
0.317968 0.524865 0
0.344289 0.524865 0
0.370367 0.524865 0
0.396277 0.524865 0
0.422065 0.524865 0
0.447791 0.524865 0
0.473472 0.524865 0
0.499153 0.524865 0
0.524865 0.524865 0
0.550652 0.524865 0
0.576532 0.524865 0
0.602579 0.524865 0
0.628855 0.524865 0
0.655451 0.524865 0
0.682506 0.524865 0
0.710185 0.524865 0
0.73875 0.524865 0
0.768627 0.524865 0
0.800443 0.524865 0
0.835279 0.524865 0
0.875227 0.524865 0
0.925017 0.524865 0
1 0.524865 0
0 0.550652 0
0 0.550652 0
0.045716 0.550652 0
0.0938888 0.550652 0
0.141711 0.550652 0
0.177523 0.550652 0
0.207645 0.550652 0
0.236393 0.550652 0
0.264179 0.550652 0
0.29131 0.550652 0
0.317968 0.550652 0
0.344289 0.550652 0
0.370367 0.550652 0
0.396277 0.550652 0
0.422065 0.550652 0
0.447791 0.550652 0
0.473472 0.550652 0
0.499153 0.550652 0
0.524865 0.550652 0
0.550652 0.550652 0
0.576532 0.550652 0
0.602579 0.550652 0
0.628855 0.550652 0
0.655451 0.550652 0
0.682506 0.550652 0
0.710185 0.550652 0
0.73875 0.550652 0
0.768627 0.550652 0
0.800443 0.550652 0
0.835279 0.550652 0
0.875227 0.550652 0
0.925017 0.550652 0
1 0.550652 0
0 0.576532 0
0 0.576532 0
0.045716 0.576532 0
0.0938888 0.576532 0
0.141711 0.576532 0
0.177523 0.576532 0
0.207645 0.576532 0
0.236393 0.576532 0
0.264179 0.576532 0
0.29131 0.576532 0
0.317968 0.576532 0
0.344289 0.576532 0
0.370367 0.576532 0
0.396277 0.576532 0
0.422065 0.576532 0
0.447791 0.576532 0
0.473472 0.576532 0
0.499153 0.576532 0
0.524865 0.576532 0
0.550652 0.576532 0
0.576532 0.576532 0
0.602579 0.576532 0
0.628855 0.576532 0
0.655451 0.576532 0
0.682506 0.576532 0
0.710185 0.576532 0
0.73875 0.576532 0
0.768627 0.576532 0
0.800443 0.576532 0
0.835279 0.576532 0
0.875227 0.576532 0
0.925017 0.576532 0
1 0.576532 0
0 0.602579 0
0 0.602579 0
0.045716 0.602579 0
0.0938888 0.602579 0
0.141711 0.602579 0
0.177523 0.602579 0
0.207645 0.602579 0
0.236393 0.602579 0
0.264179 0.602579 0
0.29131 0.602579 0
0.317968 0.602579 0
0.344289 0.602579 0
0.370367 0.602579 0
0.396277 0.602579 0
0.422065 0.602579 0
0.447791 0.602579 0
0.473472 0.602579 0
0.499153 0.602579 0
0.524865 0.602579 0
0.550652 0.602579 0
0.576532 0.602579 0
0.602579 0.602579 0
0.628855 0.602579 0
0.655451 0.602579 0
0.682506 0.602579 0
0.710185 0.602579 0
0.73875 0.602579 0
0.768627 0.602579 0
0.800443 0.602579 0
0.835279 0.602579 0
0.875227 0.602579 0
0.925017 0.602579 0
1 0.602579 0
0 0.628855 0
0 0.628855 0
0.045716 0.628855 0
0.0938888 0.628855 0
0.141711 0.628855 0
0.177523 0.628855 0
0.207645 0.628855 0
0.236393 0.628855 0
0.264179 0.628855 0
0.29131 0.628855 0
0.317968 0.628855 0
0.344289 0.628855 0
0.370367 0.628855 0
0.396277 0.628855 0
0.422065 0.628855 0
0.447791 0.628855 0
0.473472 0.628855 0
0.499153 0.628855 0
0.524865 0.628855 0
0.550652 0.628855 0
0.576532 0.628855 0
0.602579 0.628855 0
0.628855 0.628855 0
0.655451 0.628855 0
0.682506 0.628855 0
0.710185 0.628855 0
0.73875 0.628855 0
0.768627 0.628855 0
0.800443 0.628855 0
0.835279 0.628855 0
0.875227 0.628855 0
0.925017 0.628855 0
1 0.628855 0
0 0.655451 0
0 0.655451 0
0.045716 0.655451 0
0.0938888 0.655451 0
0.141711 0.655451 0
0.177523 0.655451 0
0.207645 0.655451 0
0.236393 0.655451 0
0.264179 0.655451 0
0.29131 0.655451 0
0.317968 0.655451 0
0.344289 0.655451 0
0.370367 0.655451 0
0.396277 0.655451 0
0.422065 0.655451 0
0.447791 0.655451 0
0.473472 0.655451 0
0.499153 0.655451 0
0.524865 0.655451 0
0.550652 0.655451 0
0.576532 0.655451 0
0.602579 0.655451 0
0.628855 0.655451 0
0.655451 0.655451 0
0.682506 0.655451 0
0.710185 0.655451 0
0.73875 0.655451 0
0.768627 0.655451 0
0.800443 0.655451 0
0.835279 0.655451 0
0.875227 0.655451 0
0.925017 0.655451 0
1 0.655451 0
0 0.682506 0
0 0.682506 0
0.045716 0.682506 0
0.0938888 0.682506 0
0.141711 0.682506 0
0.177523 0.682506 0
0.207645 0.682506 0
0.236393 0.682506 0
0.264179 0.682506 0
0.29131 0.682506 0
0.317968 0.682506 0
0.344289 0.682506 0
0.370367 0.682506 0
0.396277 0.682506 0
0.422065 0.682506 0
0.447791 0.682506 0
0.473472 0.682506 0
0.499153 0.682506 0
0.524865 0.682506 0
0.550652 0.682506 0
0.576532 0.682506 0
0.602579 0.682506 0
0.628855 0.682506 0
0.655451 0.682506 0
0.682506 0.682506 0
0.710185 0.682506 0
0.73875 0.682506 0
0.768627 0.682506 0
0.800443 0.682506 0
0.835279 0.682506 0
0.875227 0.682506 0
0.925017 0.682506 0
1 0.682506 0
0 0.710185 0
0 0.710185 0
0.045716 0.710185 0
0.0938888 0.710185 0
0.141711 0.710185 0
0.177523 0.710185 0
0.207645 0.710185 0
0.236393 0.710185 0
0.264179 0.710185 0
0.29131 0.710185 0
0.317968 0.710185 0
0.344289 0.710185 0
0.370367 0.710185 0
0.396277 0.710185 0
0.422065 0.710185 0
0.447791 0.710185 0
0.473472 0.710185 0
0.499153 0.710185 0
0.524865 0.710185 0
0.550652 0.710185 0
0.576532 0.710185 0
0.602579 0.710185 0
0.628855 0.710185 0
0.655451 0.710185 0
0.682506 0.710185 0
0.710185 0.710185 0
0.73875 0.710185 0
0.768627 0.710185 0
0.800443 0.710185 0
0.835279 0.710185 0
0.875227 0.710185 0
0.925017 0.710185 0
1 0.710185 0
0 0.73875 0
0 0.73875 0
0.045716 0.73875 0
0.0938888 0.73875 0
0.141711 0.73875 0
0.177523 0.73875 0
0.207645 0.73875 0
0.236393 0.73875 0
0.264179 0.73875 0
0.29131 0.73875 0
0.317968 0.73875 0
0.344289 0.73875 0
0.370367 0.73875 0
0.396277 0.73875 0
0.422065 0.73875 0
0.447791 0.73875 0
0.473472 0.73875 0
0.499153 0.73875 0
0.524865 0.73875 0
0.550652 0.73875 0
0.576532 0.73875 0
0.602579 0.73875 0
0.628855 0.73875 0
0.655451 0.73875 0
0.682506 0.73875 0
0.710185 0.73875 0
0.73875 0.73875 0
0.768627 0.73875 0
0.800443 0.73875 0
0.835279 0.73875 0
0.875227 0.73875 0
0.925017 0.73875 0
1 0.73875 0
0 0.768627 0
0 0.768627 0
0.045716 0.768627 0
0.0938888 0.768627 0
0.141711 0.768627 0
0.177523 0.768627 0
0.207645 0.768627 0
0.236393 0.768627 0
0.264179 0.768627 0
