resources/LogC3_Blackmagic Design Film.cube
TITLE "Generated by Resolve"
LUT_3D_SIZE 5
0 0 0
0.187747 0 0
0.548287 0 0
0.875715 0 0
1 0 0
0 0.187747 0
0.187747 0.187747 0
0.548287 0.187747 0
0.875715 0.187747 0
1 0.187747 0
0 0.548287 0
0.187747 0.548287 0
0.548287 0.548287 0
0.875715 0.548287 0
1 0.548287 0
0 0.875715 0
0.187747 0.875715 0
0.548287 0.875715 0
0.875715 0.875715 0
1 0.875715 0
0 1 0
0.187747 1 0
0.548287 1 0
0.875715 1 0
1 1 0
0 0 0.187747
0.187747 0 0.187747
0.548287 0 0.187747
0.875715 0 0.187747
1 0 0.187747
0 0.187747 0.187747
0.187747 0.187747 0.187747
0.548287 0.187747 0.187747
0.875715 0.187747 0.187747
1 0.187747 0.187747
0 0.548287 0.187747
0.187747 0.548287 0.187747
0.548287 0.548287 0.187747
0.875715 0.548287 0.187747
1 0.548287 0.187747
0 0.875715 0.187747
0.187747 0.875715 0.187747
0.548287 0.875715 0.187747
0.875715 0.875715 0.187747
1 0.875715 0.187747
0 1 0.187747
0.187747 1 0.187747
0.548287 1 0.187747
0.875715 1 0.187747
1 1 0.187747
0 0 0.548287
0.187747 0 0.548287
0.548287 0 0.548287
0.875715 0 0.548287
1 0 0.548287
0 0.187747 0.548287
0.187747 0.187747 0.548287
0.548287 0.187747 0.548287
0.875715 0.187747 0.548287
1 0.187747 0.548287
0 0.548287 0.548287
0.187747 0.548287 0.548287
0.548287 0.548287 0.548287
0.875715 0.548287 0.548287
1 0.548287 0.548287
0 0.875715 0.548287
0.187747 0.875715 0.548287
0.548287 0.875715 0.548287
0.875715 0.875715 0.548287
1 0.875715 0.548287
0 1 0.548287
0.187747 1 0.548287
0.548287 1 0.548287
0.875715 1 0.548287
1 1 0.548287
0 0 0.875715
0.187747 0 0.875715
0.548287 0 0.875715
0.875715 0 0.875715
1 0 0.875715
0 0.187747 0.875715
0.187747 0.187747 0.875715
0.548287 0.187747 0.875715
0.875715 0.187747 0.875715
1 0.187747 0.875715
0 0.548287 0.875715
0.187747 0.548287 0.875715
0.548287 0.548287 0.875715
0.875715 0.548287 0.875715
1 0.548287 0.875715
0 0.875715 0.875715
0.187747 0.875715 0.875715
0.548287 0.875715 0.875715
0.875715 0.875715 0.875715
1 0.875715 0.875715
0 1 0.875715
0.187747 1 0.875715
0.548287 1 0.875715
0.875715 1 0.875715
1 1 0.875715
0 0 1
0.187747 0 1
0.548287 0 1
0.875715 0 1
1 0 1
0 0.187747 1
0.187747 0.187747 1
0.548287 0.187747 1
0.875715 0.187747 1
1 0.187747 1
0 0.548287 1
0.187747 0.548287 1
0.548287 0.548287 1
0.875715 0.548287 1
1 0.548287 1
0 0.875715 1
0.187747 0.875715 1
0.548287 0.875715 1
0.875715 0.875715 1
1 0.875715 1
0 1 1
0.187747 1 1
0.548287 1 1
0.875715 1 1
1 1 1
