resources/LogC3_Cineon Film Log.cube
TITLE "Generated by Resolve"
LUT_3D_SIZE 5
0 0 0
0.293004 0 0
0.583062 0 0
0.849454 0 0
1 0 0
0 0.293004 0
0.293004 0.293004 0
0.583062 0.293004 0
0.849454 0.293004 0
1 0.293004 0
0 0.583062 0
0.293004 0.583062 0
0.583062 0.583062 0
0.849454 0.583062 0
1 0.583062 0
0 0.849454 0
0.293004 0.849454 0
0.583062 0.849454 0
0.849454 0.849454 0
1 0.849454 0
0 1 0
0.293004 1 0
0.583062 1 0
0.849454 1 0
1 1 0
0 0 0.293004
0.293004 0 0.293004
0.583062 0 0.293004
0.849454 0 0.293004
1 0 0.293004
0 0.293004 0.293004
0.293004 0.293004 0.293004
0.583062 0.293004 0.293004
0.849454 0.293004 0.293004
1 0.293004 0.293004
0 0.583062 0.293004
0.293004 0.583062 0.293004
0.583062 0.583062 0.293004
0.849454 0.583062 0.293004
1 0.583062 0.293004
0 0.849454 0.293004
0.293004 0.849454 0.293004
0.583062 0.849454 0.293004
0.849454 0.849454 0.293004
1 0.849454 0.293004
0 1 0.293004
0.293004 1 0.293004
0.583062 1 0.293004
0.849454 1 0.293004
1 1 0.293004
0 0 0.583062
0.293004 0 0.583062
0.583062 0 0.583062
0.849454 0 0.583062
1 0 0.583062
0 0.293004 0.583062
0.293004 0.293004 0.583062
0.583062 0.293004 0.583062
0.849454 0.293004 0.583062
1 0.293004 0.583062
0 0.583062 0.583062
0.293004 0.583062 0.583062
0.583062 0.583062 0.583062
0.849454 0.583062 0.583062
1 0.583062 0.583062
0 0.849454 0.583062
0.293004 0.849454 0.583062
0.583062 0.849454 0.583062
0.849454 0.849454 0.583062
1 0.849454 0.583062
0 1 0.583062
0.293004 1 0.583062
0.583062 1 0.583062
0.849454 1 0.583062
1 1 0.583062
0 0 0.849454
0.293004 0 0.849454
0.583062 0 0.849454
0.849454 0 0.849454
1 0 0.849454
0 0.293004 0.849454
0.293004 0.293004 0.849454
0.583062 0.293004 0.849454
0.849454 0.293004 0.849454
1 0.293004 0.849454
0 0.583062 0.849454
0.293004 0.583062 0.849454
0.583062 0.583062 0.849454
0.849454 0.583062 0.849454
1 0.583062 0.849454
0 0.849454 0.849454
0.293004 0.849454 0.849454
0.583062 0.849454 0.849454
0.849454 0.849454 0.849454
1 0.849454 0.849454
0 1 0.849454
0.293004 1 0.849454
0.583062 1 0.849454
0.849454 1 0.849454
1 1 0.849454
0 0 1
0.293004 0 1
0.583062 0 1
0.849454 0 1
1 0 1
0 0.293004 1
0.293004 0.293004 1
0.583062 0.293004 1
0.849454 0.293004 1
1 0.293004 1
0 0.583062 1
0.293004 0.583062 1
0.583062 0.583062 1
0.849454 0.583062 1
1 0.583062 1
0 0.849454 1
0.293004 0.849454 1
0.583062 0.849454 1
0.849454 0.849454 1
1 0.849454 1
0 1 1
0.293004 1 1
0.583062 1 1
0.849454 1 1
1 1 1
