resources/LogC3_Rec709.cube
TITLE "Generated by Resolve"
LUT_3D_SIZE 9
0 0 0
0.0294041 0 0
0.169375 0 0
0.36144 0 0
0.59707 0 0
0.808392 0 0
0.931563 0 0
0.982422 0 0
1 0 0
0 0.0294041 0
0.0294041 0.0294041 0
0.169375 0.0294041 0
0.36144 0.0294041 0
0.59707 0.0294041 0
0.808392 0.0294041 0
0.931563 0.0294041 0
0.982422 0.0294041 0
1 0.0294041 0
0 0.169375 0
0.0294041 0.169375 0
0.169375 0.169375 0
0.36144 0.169375 0
0.59707 0.169375 0
0.808392 0.169375 0
0.931563 0.169375 0
0.982422 0.169375 0
1 0.169375 0
0 0.36144 0
0.0294041 0.36144 0
0.169375 0.36144 0
0.36144 0.36144 0
0.59707 0.36144 0
0.808392 0.36144 0
0.931563 0.36144 0
0.982422 0.36144 0
1 0.36144 0
0 0.59707 0
0.0294041 0.59707 0
0.169375 0.59707 0
0.36144 0.59707 0
0.59707 0.59707 0
0.808392 0.59707 0
0.931563 0.59707 0
0.982422 0.59707 0
1 0.59707 0
0 0.808392 0
0.0294041 0.808392 0
0.169375 0.808392 0
0.36144 0.808392 0
0.59707 0.808392 0
0.808392 0.808392 0
0.931563 0.808392 0
0.982422 0.808392 0
1 0.808392 0
0 0.931563 0
0.0294041 0.931563 0
0.169375 0.931563 0
0.36144 0.931563 0
0.59707 0.931563 0
0.808392 0.931563 0
0.931563 0.931563 0
0.982422 0.931563 0
1 0.931563 0
0 0.982422 0
0.0294041 0.982422 0
0.169375 0.982422 0
0.36144 0.982422 0
0.59707 0.982422 0
0.808392 0.982422 0
0.931563 0.982422 0
0.982422 0.982422 0
1 0.982422 0
0 1 0
0.0294041 1 0
0.169375 1 0
0.36144 1 0
0.59707 1 0
0.808392 1 0
0.931563 1 0
0.982422 1 0
1 1 0
0 0 0.0294041
0.0294041 0 0.0294041
0.169375 0 0.0294041
0.36144 0 0.0294041
0.59707 0 0.0294041
0.808392 0 0.0294041
0.931563 0 0.0294041
0.982422 0 0.0294041
1 0 0.0294041
0 0.0294041 0.0294041
0.0294041 0.0294041 0.0294041
0.169375 0.0294041 0.0294041
0.36144 0.0294041 0.0294041
0.59707 0.0294041 0.0294041
0.808392 0.0294041 0.0294041
0.931563 0.0294041 0.0294041
0.982422 0.0294041 0.0294041
1 0.0294041 0.0294041
0 0.169375 0.0294041
0.0294041 0.169375 0.0294041
0.169375 0.169375 0.0294041
0.36144 0.169375 0.0294041
0.59707 0.169375 0.0294041
0.808392 0.169375 0.0294041
0.931563 0.169375 0.0294041
0.982422 0.169375 0.0294041
1 0.169375 0.0294041
0 0.36144 0.0294041
0.0294041 0.36144 0.0294041
0.169375 0.36144 0.0294041
0.36144 0.36144 0.0294041
0.59707 0.36144 0.0294041
0.808392 0.36144 0.0294041
0.931563 0.36144 0.0294041
0.982422 0.36144 0.0294041
1 0.36144 0.0294041
0 0.59707 0.0294041
0.0294041 0.59707 0.0294041
0.169375 0.59707 0.0294041
0.36144 0.59707 0.0294041
0.59707 0.59707 0.0294041
0.808392 0.59707 0.0294041
0.931563 0.59707 0.0294041
0.982422 0.59707 0.0294041
1 0.59707 0.0294041
0 0.808392 0.0294041
0.0294041 0.808392 0.0294041
0.169375 0.808392 0.0294041
0.36144 0.808392 0.0294041
0.59707 0.808392 0.0294041
0.808392 0.808392 0.0294041
0.931563 0.808392 0.0294041
0.982422 0.808392 0.0294041
1 0.808392 0.0294041
0 0.931563 0.0294041
0.0294041 0.931563 0.0294041
0.169375 0.931563 0.0294041
0.36144 0.931563 0.0294041
0.59707 0.931563 0.0294041
0.808392 0.931563 0.0294041
0.931563 0.931563 0.0294041
0.982422 0.931563 0.0294041
1 0.931563 0.0294041
0 0.982422 0.0294041
0.0294041 0.982422 0.0294041
0.169375 0.982422 0.0294041
0.36144 0.982422 0.0294041
0.59707 0.982422 0.0294041
0.808392 0.982422 0.0294041
0.931563 0.982422 0.0294041
0.982422 0.982422 0.0294041
1 0.982422 0.0294041
0 1 0.0294041
0.0294041 1 0.0294041
0.169375 1 0.0294041
0.36144 1 0.0294041
0.59707 1 0.0294041
0.808392 1 0.0294041
0.931563 1 0.0294041
0.982422 1 0.0294041
1 1 0.0294041
0 0 0.169375
0.0294041 0 0.169375
0.169375 0 0.169375
0.36144 0 0.169375
0.59707 0 0.169375
0.808392 0 0.169375
0.931563 0 0.169375
0.982422 0 0.169375
1 0 0.169375
0 0.0294041 0.169375
0.0294041 0.0294041 0.169375
0.169375 0.0294041 0.169375
0.36144 0.0294041 0.169375
0.59707 0.0294041 0.169375
0.808392 0.0294041 0.169375
0.931563 0.0294041 0.169375
0.982422 0.0294041 0.169375
1 0.0294041 0.169375
0 0.169375 0.169375
0.0294041 0.169375 0.169375
0.169375 0.169375 0.169375
0.36144 0.169375 0.169375
0.59707 0.169375 0.169375
0.808392 0.169375 0.169375
0.931563 0.169375 0.169375
0.982422 0.169375 0.169375
1 0.169375 0.169375
0 0.36144 0.169375
0.0294041 0.36144 0.169375
0.169375 0.36144 0.169375
0.36144 0.36144 0.169375
0.59707 0.36144 0.169375
0.808392 0.36144 0.169375
0.931563 0.36144 0.169375
0.982422 0.36144 0.169375
1 0.36144 0.169375
0 0.59707 0.169375
0.0294041 0.59707 0.169375
0.169375 0.59707 0.169375
0.36144 0.59707 0.169375
0.59707 0.59707 0.169375
0.808392 0.59707 0.169375
0.931563 0.59707 0.169375
0.982422 0.59707 0.169375
1 0.59707 0.169375
0 0.808392 0.169375
0.0294041 0.808392 0.169375
0.169375 0.808392 0.169375
0.36144 0.808392 0.169375
0.59707 0.808392 0.169375
0.808392 0.808392 0.169375
0.931563 0.808392 0.169375
0.982422 0.808392 0.169375
1 0.808392 0.169375
0 0.931563 0.169375
0.0294041 0.931563 0.169375
0.169375 0.931563 0.169375
0.36144 0.931563 0.169375
0.59707 0.931563 0.169375
0.808392 0.931563 0.169375
0.931563 0.931563 0.169375
0.982422 0.931563 0.169375
1 0.931563 0.169375
0 0.982422 0.169375
0.0294041 0.982422 0.169375
0.169375 0.982422 0.169375
0.36144 0.982422 0.169375
0.59707 0.982422 0.169375
0.808392 0.982422 0.169375
0.931563 0.982422 0.169375
0.982422 0.982422 0.169375
1 0.982422 0.169375
0 1 0.169375
0.0294041 1 0.169375
0.169375 1 0.169375
0.36144 1 0.169375
0.59707 1 0.169375
0.808392 1 0.169375
0.931563 1 0.169375
0.982422 1 0.169375
1 1 0.169375
0 0 0.36144
0.0294041 0 0.36144
0.169375 0 0.36144
0.36144 0 0.36144
0.59707 0 0.36144
0.808392 0 0.36144
0.931563 0 0.36144
0.982422 0 0.36144
1 0 0.36144
0 0.0294041 0.36144
0.0294041 0.0294041 0.36144
0.169375 0.0294041 0.36144
0.36144 0.0294041 0.36144
0.59707 0.0294041 0.36144
0.808392 0.0294041 0.36144
0.931563 0.0294041 0.36144
0.982422 0.0294041 0.36144
1 0.0294041 0.36144
0 0.169375 0.36144
0.0294041 0.169375 0.36144
0.169375 0.169375 0.36144
0.36144 0.169375 0.36144
0.59707 0.169375 0.36144
0.808392 0.169375 0.36144
0.931563 0.169375 0.36144
0.982422 0.169375 0.36144
1 0.169375 0.36144
0 0.36144 0.36144
0.0294041 0.36144 0.36144
0.169375 0.36144 0.36144
0.36144 0.36144 0.36144
0.59707 0.36144 0.36144
0.808392 0.36144 0.36144
0.931563 0.36144 0.36144
0.982422 0.36144 0.36144
1 0.36144 0.36144
0 0.59707 0.36144
0.0294041 0.59707 0.36144
0.169375 0.59707 0.36144
0.36144 0.59707 0.36144
0.59707 0.59707 0.36144
0.808392 0.59707 0.36144
0.931563 0.59707 0.36144
0.982422 0.59707 0.36144
1 0.59707 0.36144
0 0.808392 0.36144
0.0294041 0.808392 0.36144
0.169375 0.808392 0.36144
0.36144 0.808392 0.36144
0.59707 0.808392 0.36144
0.808392 0.808392 0.36144
0.931563 0.808392 0.36144
0.982422 0.808392 0.36144
1 0.808392 0.36144
0 0.931563 0.36144
0.0294041 0.931563 0.36144
0.169375 0.931563 0.36144
0.36144 0.931563 0.36144
0.59707 0.931563 0.36144
0.808392 0.931563 0.36144
0.931563 0.931563 0.36144
0.982422 0.931563 0.36144
1 0.931563 0.36144
0 0.982422 0.36144
0.0294041 0.982422 0.36144
0.169375 0.982422 0.36144
0.36144 0.982422 0.36144
0.59707 0.982422 0.36144
0.808392 0.982422 0.36144
0.931563 0.982422 0.36144
0.982422 0.982422 0.36144
1 0.982422 0.36144
0 1 0.36144
0.0294041 1 0.36144
0.169375 1 0.36144
0.36144 1 0.36144
0.59707 1 0.36144
0.808392 1 0.36144
0.931563 1 0.36144
0.982422 1 0.36144
1 1 0.36144
0 0 0.59707
0.0294041 0 0.59707
0.169375 0 0.59707
0.36144 0 0.59707
0.59707 0 0.59707
0.808392 0 0.59707
0.931563 0 0.59707
0.982422 0 0.59707
1 0 0.59707
0 0.0294041 0.59707
0.0294041 0.0294041 0.59707
0.169375 0.0294041 0.59707
0.36144 0.0294041 0.59707
0.59707 0.0294041 0.59707
0.808392 0.0294041 0.59707
0.931563 0.0294041 0.59707
0.982422 0.0294041 0.59707
1 0.0294041 0.59707
0 0.169375 0.59707
0.0294041 0.169375 0.59707
0.169375 0.169375 0.59707
0.36144 0.169375 0.59707
0.59707 0.169375 0.59707
0.808392 0.169375 0.59707
0.931563 0.169375 0.59707
0.982422 0.169375 0.59707
1 0.169375 0.59707
0 0.36144 0.59707
0.0294041 0.36144 0.59707
0.169375 0.36144 0.59707
0.36144 0.36144 0.59707
0.59707 0.36144 0.59707
0.808392 0.36144 0.59707
0.931563 0.36144 0.59707
0.982422 0.36144 0.59707
1 0.36144 0.59707
0 0.59707 0.59707
0.0294041 0.59707 0.59707
0.169375 0.59707 0.59707
0.36144 0.59707 0.59707
0.59707 0.59707 0.59707
0.808392 0.59707 0.59707
0.931563 0.59707 0.59707
0.982422 0.59707 0.59707
1 0.59707 0.59707
0 0.808392 0.59707
0.0294041 0.808392 0.59707
0.169375 0.808392 0.59707
0.36144 0.808392 0.59707
0.59707 0.808392 0.59707
0.808392 0.808392 0.59707
0.931563 0.808392 0.59707
0.982422 0.808392 0.59707
1 0.808392 0.59707
0 0.931563 0.59707
0.0294041 0.931563 0.59707
0.169375 0.931563 0.59707
0.36144 0.931563 0.59707
0.59707 0.931563 0.59707
0.808392 0.931563 0.59707
0.931563 0.931563 0.59707
0.982422 0.931563 0.59707
1 0.931563 0.59707
0 0.982422 0.59707
0.0294041 0.982422 0.59707
0.169375 0.982422 0.59707
0.36144 0.982422 0.59707
0.59707 0.982422 0.59707
0.808392 0.982422 0.59707
0.931563 0.982422 0.59707
0.982422 0.982422 0.59707
1 0.982422 0.59707
0 1 0.59707
0.0294041 1 0.59707
0.169375 1 0.59707
0.36144 1 0.59707
0.59707 1 0.59707
0.808392 1 0.59707
0.931563 1 0.59707
0.982422 1 0.59707
1 1 0.59707
0 0 0.808392
0.0294041 0 0.808392
0.169375 0 0.808392
0.36144 0 0.808392
0.59707 0 0.808392
0.808392 0 0.808392
0.931563 0 0.808392
0.982422 0 0.808392
1 0 0.808392
0 0.0294041 0.808392
0.0294041 0.0294041 0.808392
0.169375 0.0294041 0.808392
0.36144 0.0294041 0.808392
0.59707 0.0294041 0.808392
0.808392 0.0294041 0.808392
0.931563 0.0294041 0.808392
0.982422 0.0294041 0.808392
1 0.0294041 0.808392
0 0.169375 0.808392
0.0294041 0.169375 0.808392
0.169375 0.169375 0.808392
0.36144 0.169375 0.808392
0.59707 0.169375 0.808392
0.808392 0.169375 0.808392
0.931563 0.169375 0.808392
0.982422 0.169375 0.808392
1 0.169375 0.808392
0 0.36144 0.808392
0.0294041 0.36144 0.808392
0.169375 0.36144 0.808392
0.36144 0.36144 0.808392
0.59707 0.36144 0.808392
0.808392 0.36144 0.808392
0.931563 0.36144 0.808392
0.982422 0.36144 0.808392
1 0.36144 0.808392
0 0.59707 0.808392
0.0294041 0.59707 0.808392
0.169375 0.59707 0.808392
0.36144 0.59707 0.808392
0.59707 0.59707 0.808392
0.808392 0.59707 0.808392
0.931563 0.59707 0.808392
0.982422 0.59707 0.808392
1 0.59707 0.808392
0 0.808392 0.808392
0.0294041 0.808392 0.808392
0.169375 0.808392 0.808392
0.36144 0.808392 0.808392
0.59707 0.808392 0.808392
0.808392 0.808392 0.808392
0.931563 0.808392 0.808392
0.982422 0.808392 0.808392
1 0.808392 0.808392
0 0.931563 0.808392
0.0294041 0.931563 0.808392
0.169375 0.931563 0.808392
0.36144 0.931563 0.808392
0.59707 0.931563 0.808392
0.808392 0.931563 0.808392
0.931563 0.931563 0.808392
0.982422 0.931563 0.808392
1 0.931563 0.808392
0 0.982422 0.808392
0.0294041 0.982422 0.808392
0.169375 0.982422 0.808392
0.36144 0.982422 0.808392
0.59707 0.982422 0.808392
0.808392 0.982422 0.808392
0.931563 0.982422 0.808392
0.982422 0.982422 0.808392
1 0.982422 0.808392
0 1 0.808392
0.0294041 1 0.808392
0.169375 1 0.808392
0.36144 1 0.808392
0.59707 1 0.808392
0.808392 1 0.808392
0.931563 1 0.808392
0.982422 1 0.808392
1 1 0.808392
0 0 0.931563
0.0294041 0 0.931563
0.169375 0 0.931563
0.36144 0 0.931563
0.59707 0 0.931563
0.808392 0 0.931563
0.931563 0 0.931563
0.982422 0 0.931563
1 0 0.931563
0 0.0294041 0.931563
0.0294041 0.0294041 0.931563
0.169375 0.0294041 0.931563
0.36144 0.0294041 0.931563
0.59707 0.0294041 0.931563
0.808392 0.0294041 0.931563
0.931563 0.0294041 0.931563
0.982422 0.0294041 0.931563
1 0.0294041 0.931563
0 0.169375 0.931563
0.0294041 0.169375 0.931563
0.169375 0.169375 0.931563
0.36144 0.169375 0.931563
0.59707 0.169375 0.931563
0.808392 0.169375 0.931563
0.931563 0.169375 0.931563
0.982422 0.169375 0.931563
1 0.169375 0.931563
0 0.36144 0.931563
0.0294041 0.36144 0.931563
0.169375 0.36144 0.931563
0.36144 0.36144 0.931563
0.59707 0.36144 0.931563
0.808392 0.36144 0.931563
0.931563 0.36144 0.931563
0.982422 0.36144 0.931563
1 0.36144 0.931563
0 0.59707 0.931563
0.0294041 0.59707 0.931563
0.169375 0.59707 0.931563
0.36144 0.59707 0.931563
0.59707 0.59707 0.931563
0.808392 0.59707 0.931563
0.931563 0.59707 0.931563
0.982422 0.59707 0.931563
1 0.59707 0.931563
0 0.808392 0.931563
0.0294041 0.808392 0.931563
0.169375 0.808392 0.931563
0.36144 0.808392 0.931563
0.59707 0.808392 0.931563
0.808392 0.808392 0.931563
0.931563 0.808392 0.931563
0.982422 0.808392 0.931563
1 0.808392 0.931563
0 0.931563 0.931563
0.0294041 0.931563 0.931563
0.169375 0.931563 0.931563
0.36144 0.931563 0.931563
0.59707 0.931563 0.931563
0.808392 0.931563 0.931563
0.931563 0.931563 0.931563
0.982422 0.931563 0.931563
1 0.931563 0.931563
0 0.982422 0.931563
0.0294041 0.982422 0.931563
0.169375 0.982422 0.931563
0.36144 0.982422 0.931563
0.59707 0.982422 0.931563
0.808392 0.982422 0.931563
0.931563 0.982422 0.931563
0.982422 0.982422 0.931563
1 0.982422 0.931563
0 1 0.931563
0.0294041 1 0.931563
0.169375 1 0.931563
0.36144 1 0.931563
0.59707 1 0.931563
0.808392 1 0.931563
0.931563 1 0.931563
0.982422 1 0.931563
1 1 0.931563
0 0 0.982422
0.0294041 0 0.982422
0.169375 0 0.982422
0.36144 0 0.982422
0.59707 0 0.982422
0.808392 0 0.982422
0.931563 0 0.982422
0.982422 0 0.982422
1 0 0.982422
0 0.0294041 0.982422
0.0294041 0.0294041 0.982422
0.169375 0.0294041 0.982422
0.36144 0.0294041 0.982422
0.59707 0.0294041 0.982422
0.808392 0.0294041 0.982422
0.931563 0.0294041 0.982422
0.982422 0.0294041 0.982422
1 0.0294041 0.982422
0 0.169375 0.982422
0.0294041 0.169375 0.982422
0.169375 0.169375 0.982422
0.36144 0.169375 0.982422
0.59707 0.169375 0.982422
0.808392 0.169375 0.982422
0.931563 0.169375 0.982422
0.982422 0.169375 0.982422
1 0.169375 0.982422
0 0.36144 0.982422
0.0294041 0.36144 0.982422
0.169375 0.36144 0.982422
0.36144 0.36144 0.982422
0.59707 0.36144 0.982422
0.808392 0.36144 0.982422
0.931563 0.36144 0.982422
0.982422 0.36144 0.982422
1 0.36144 0.982422
0 0.59707 0.982422
0.0294041 0.59707 0.982422
0.169375 0.59707 0.982422
0.36144 0.59707 0.982422
0.59707 0.59707 0.982422
0.808392 0.59707 0.982422
0.931563 0.59707 0.982422
0.982422 0.59707 0.982422
1 0.59707 0.982422
0 0.808392 0.982422
0.0294041 0.808392 0.982422
0.169375 0.808392 0.982422
0.36144 0.808392 0.982422
0.59707 0.808392 0.982422
0.808392 0.808392 0.982422
0.931563 0.808392 0.982422
0.982422 0.808392 0.982422
1 0.808392 0.982422
0 0.931563 0.982422
0.0294041 0.931563 0.982422
0.169375 0.931563 0.982422
0.36144 0.931563 0.982422
0.59707 0.931563 0.982422
0.808392 0.931563 0.982422
0.931563 0.931563 0.982422
0.982422 0.931563 0.982422
1 0.931563 0.982422
0 0.982422 0.982422
0.0294041 0.982422 0.982422
0.169375 0.982422 0.982422
0.36144 0.982422 0.982422
0.59707 0.982422 0.982422
0.808392 0.982422 0.982422
0.931563 0.982422 0.982422
0.982422 0.982422 0.982422
1 0.982422 0.982422
0 1 0.982422
0.0294041 1 0.982422
0.169375 1 0.982422
0.36144 1 0.982422
0.59707 1 0.982422
0.808392 1 0.982422
0.931563 1 0.982422
0.982422 1 0.982422
1 1 0.982422
0 0 1
0.0294041 0 1
0.169375 0 1
0.36144 0 1
0.59707 0 1
0.808392 0 1
0.931563 0 1
0.982422 0 1
1 0 1
0 0.0294041 1
0.0294041 0.0294041 1
0.169375 0.0294041 1
0.36144 0.0294041 1
0.59707 0.0294041 1
0.808392 0.0294041 1
0.931563 0.0294041 1
0.982422 0.0294041 1
1 0.0294041 1
0 0.169375 1
0.0294041 0.169375 1
0.169375 0.169375 1
0.36144 0.169375 1
0.59707 0.169375 1
0.808392 0.169375 1
0.931563 0.169375 1
0.982422 0.169375 1
1 0.169375 1
0 0.36144 1
0.0294041 0.36144 1
0.169375 0.36144 1
0.36144 0.36144 1
0.59707 0.36144 1
0.808392 0.36144 1
0.931563 0.36144 1
0.982422 0.36144 1
1 0.36144 1
0 0.59707 1
0.0294041 0.59707 1
0.169375 0.59707 1
0.36144 0.59707 1
0.59707 0.59707 1
0.808392 0.59707 1
0.931563 0.59707 1
0.982422 0.59707 1
1 0.59707 1
0 0.808392 1
0.0294041 0.808392 1
0.169375 0.808392 1
0.36144 0.808392 1
0.59707 0.808392 1
0.808392 0.808392 1
0.931563 0.808392 1
0.982422 0.808392 1
1 0.808392 1
0 0.931563 1
0.0294041 0.931563 1
0.169375 0.931563 1
0.36144 0.931563 1
0.59707 0.931563 1
0.808392 0.931563 1
0.931563 0.931563 1
0.982422 0.931563 1
1 0.931563 1
0 0.982422 1
0.0294041 0.982422 1
0.169375 0.982422 1
0.36144 0.982422 1
0.59707 0.982422 1
0.808392 0.982422 1
0.931563 0.982422 1
0.982422 0.982422 1
1 0.982422 1
0 1 1
0.0294041 1 1
0.169375 1 1
0.36144 1 1
0.59707 1 1
0.808392 1 1
0.931563 1 1
0.982422 1 1
1 1 1
