resources/LogC3_Cineon Film Log.cube
TITLE "Generated by Resolve"
LUT_3D_SIZE 9
0 0 0
0.148821 0 0
0.293004 0 0
0.438056 0 0
0.583062 0 0
0.723339 0 0
0.849454 0 0
0.945174 0 0
1 0 0
0 0.148821 0
0.148821 0.148821 0
0.293004 0.148821 0
0.438056 0.148821 0
0.583062 0.148821 0
0.723339 0.148821 0
0.849454 0.148821 0
0.945174 0.148821 0
1 0.148821 0
0 0.293004 0
0.148821 0.293004 0
0.293004 0.293004 0
0.438056 0.293004 0
0.583062 0.293004 0
0.723339 0.293004 0
0.849454 0.293004 0
0.945174 0.293004 0
1 0.293004 0
0 0.438056 0
0.148821 0.438056 0
0.293004 0.438056 0
0.438056 0.438056 0
0.583062 0.438056 0
0.723339 0.438056 0
0.849454 0.438056 0
0.945174 0.438056 0
1 0.438056 0
0 0.583062 0
0.148821 0.583062 0
0.293004 0.583062 0
0.438056 0.583062 0
0.583062 0.583062 0
0.723339 0.583062 0
0.849454 0.583062 0
0.945174 0.583062 0
1 0.583062 0
0 0.723339 0
0.148821 0.723339 0
0.293004 0.723339 0
0.438056 0.723339 0
0.583062 0.723339 0
0.723339 0.723339 0
0.849454 0.723339 0
0.945174 0.723339 0
1 0.723339 0
0 0.849454 0
0.148821 0.849454 0
0.293004 0.849454 0
0.438056 0.849454 0
0.583062 0.849454 0
0.723339 0.849454 0
0.849454 0.849454 0
0.945174 0.849454 0
1 0.849454 0
0 0.945174 0
0.148821 0.945174 0
0.293004 0.945174 0
0.438056 0.945174 0
0.583062 0.945174 0
0.723339 0.945174 0
0.849454 0.945174 0
0.945174 0.945174 0
1 0.945174 0
0 1 0
0.148821 1 0
0.293004 1 0
0.438056 1 0
0.583062 1 0
0.723339 1 0
0.849454 1 0
0.945174 1 0
1 1 0
0 0 0.148821
0.148821 0 0.148821
0.293004 0 0.148821
0.438056 0 0.148821
0.583062 0 0.148821
0.723339 0 0.148821
0.849454 0 0.148821
0.945174 0 0.148821
1 0 0.148821
0 0.148821 0.148821
0.148821 0.148821 0.148821
0.293004 0.148821 0.148821
0.438056 0.148821 0.148821
0.583062 0.148821 0.148821
0.723339 0.148821 0.148821
0.849454 0.148821 0.148821
0.945174 0.148821 0.148821
1 0.148821 0.148821
0 0.293004 0.148821
0.148821 0.293004 0.148821
0.293004 0.293004 0.148821
0.438056 0.293004 0.148821
0.583062 0.293004 0.148821
0.723339 0.293004 0.148821
0.849454 0.293004 0.148821
0.945174 0.293004 0.148821
1 0.293004 0.148821
0 0.438056 0.148821
0.148821 0.438056 0.148821
0.293004 0.438056 0.148821
0.438056 0.438056 0.148821
0.583062 0.438056 0.148821
0.723339 0.438056 0.148821
0.849454 0.438056 0.148821
0.945174 0.438056 0.148821
1 0.438056 0.148821
0 0.583062 0.148821
0.148821 0.583062 0.148821
0.293004 0.583062 0.148821
0.438056 0.583062 0.148821
0.583062 0.583062 0.148821
0.723339 0.583062 0.148821
0.849454 0.583062 0.148821
0.945174 0.583062 0.148821
1 0.583062 0.148821
0 0.723339 0.148821
0.148821 0.723339 0.148821
0.293004 0.723339 0.148821
0.438056 0.723339 0.148821
0.583062 0.723339 0.148821
0.723339 0.723339 0.148821
0.849454 0.723339 0.148821
0.945174 0.723339 0.148821
1 0.723339 0.148821
0 0.849454 0.148821
0.148821 0.849454 0.148821
0.293004 0.849454 0.148821
0.438056 0.849454 0.148821
0.583062 0.849454 0.148821
0.723339 0.849454 0.148821
0.849454 0.849454 0.148821
0.945174 0.849454 0.148821
1 0.849454 0.148821
0 0.945174 0.148821
0.148821 0.945174 0.148821
0.293004 0.945174 0.148821
0.438056 0.945174 0.148821
0.583062 0.945174 0.148821
0.723339 0.945174 0.148821
0.849454 0.945174 0.148821
0.945174 0.945174 0.148821
1 0.945174 0.148821
0 1 0.148821
0.148821 1 0.148821
0.293004 1 0.148821
0.438056 1 0.148821
0.583062 1 0.148821
0.723339 1 0.148821
0.849454 1 0.148821
0.945174 1 0.148821
1 1 0.148821
0 0 0.293004
0.148821 0 0.293004
0.293004 0 0.293004
0.438056 0 0.293004
0.583062 0 0.293004
0.723339 0 0.293004
0.849454 0 0.293004
0.945174 0 0.293004
1 0 0.293004
0 0.148821 0.293004
0.148821 0.148821 0.293004
0.293004 0.148821 0.293004
0.438056 0.148821 0.293004
0.583062 0.148821 0.293004
0.723339 0.148821 0.293004
0.849454 0.148821 0.293004
0.945174 0.148821 0.293004
1 0.148821 0.293004
0 0.293004 0.293004
0.148821 0.293004 0.293004
0.293004 0.293004 0.293004
0.438056 0.293004 0.293004
0.583062 0.293004 0.293004
0.723339 0.293004 0.293004
0.849454 0.293004 0.293004
0.945174 0.293004 0.293004
1 0.293004 0.293004
0 0.438056 0.293004
0.148821 0.438056 0.293004
0.293004 0.438056 0.293004
0.438056 0.438056 0.293004
0.583062 0.438056 0.293004
0.723339 0.438056 0.293004
0.849454 0.438056 0.293004
0.945174 0.438056 0.293004
1 0.438056 0.293004
0 0.583062 0.293004
0.148821 0.583062 0.293004
0.293004 0.583062 0.293004
0.438056 0.583062 0.293004
0.583062 0.583062 0.293004
0.723339 0.583062 0.293004
0.849454 0.583062 0.293004
0.945174 0.583062 0.293004
1 0.583062 0.293004
0 0.723339 0.293004
0.148821 0.723339 0.293004
0.293004 0.723339 0.293004
0.438056 0.723339 0.293004
0.583062 0.723339 0.293004
0.723339 0.723339 0.293004
0.849454 0.723339 0.293004
0.945174 0.723339 0.293004
1 0.723339 0.293004
0 0.849454 0.293004
0.148821 0.849454 0.293004
0.293004 0.849454 0.293004
0.438056 0.849454 0.293004
0.583062 0.849454 0.293004
0.723339 0.849454 0.293004
0.849454 0.849454 0.293004
0.945174 0.849454 0.293004
1 0.849454 0.293004
0 0.945174 0.293004
0.148821 0.945174 0.293004
0.293004 0.945174 0.293004
0.438056 0.945174 0.293004
0.583062 0.945174 0.293004
0.723339 0.945174 0.293004
0.849454 0.945174 0.293004
0.945174 0.945174 0.293004
1 0.945174 0.293004
0 1 0.293004
0.148821 1 0.293004
0.293004 1 0.293004
0.438056 1 0.293004
0.583062 1 0.293004
0.723339 1 0.293004
0.849454 1 0.293004
0.945174 1 0.293004
1 1 0.293004
0 0 0.438056
0.148821 0 0.438056
0.293004 0 0.438056
0.438056 0 0.438056
0.583062 0 0.438056
0.723339 0 0.438056
0.849454 0 0.438056
0.945174 0 0.438056
1 0 0.438056
0 0.148821 0.438056
0.148821 0.148821 0.438056
0.293004 0.148821 0.438056
0.438056 0.148821 0.438056
0.583062 0.148821 0.438056
0.723339 0.148821 0.438056
0.849454 0.148821 0.438056
0.945174 0.148821 0.438056
1 0.148821 0.438056
0 0.293004 0.438056
0.148821 0.293004 0.438056
0.293004 0.293004 0.438056
0.438056 0.293004 0.438056
0.583062 0.293004 0.438056
0.723339 0.293004 0.438056
0.849454 0.293004 0.438056
0.945174 0.293004 0.438056
1 0.293004 0.438056
0 0.438056 0.438056
0.148821 0.438056 0.438056
0.293004 0.438056 0.438056
0.438056 0.438056 0.438056
0.583062 0.438056 0.438056
0.723339 0.438056 0.438056
0.849454 0.438056 0.438056
0.945174 0.438056 0.438056
1 0.438056 0.438056
0 0.583062 0.438056
0.148821 0.583062 0.438056
0.293004 0.583062 0.438056
0.438056 0.583062 0.438056
0.583062 0.583062 0.438056
0.723339 0.583062 0.438056
0.849454 0.583062 0.438056
0.945174 0.583062 0.438056
1 0.583062 0.438056
0 0.723339 0.438056
0.148821 0.723339 0.438056
0.293004 0.723339 0.438056
0.438056 0.723339 0.438056
0.583062 0.723339 0.438056
0.723339 0.723339 0.438056
0.849454 0.723339 0.438056
0.945174 0.723339 0.438056
1 0.723339 0.438056
0 0.849454 0.438056
0.148821 0.849454 0.438056
0.293004 0.849454 0.438056
0.438056 0.849454 0.438056
0.583062 0.849454 0.438056
0.723339 0.849454 0.438056
0.849454 0.849454 0.438056
0.945174 0.849454 0.438056
1 0.849454 0.438056
0 0.945174 0.438056
0.148821 0.945174 0.438056
0.293004 0.945174 0.438056
0.438056 0.945174 0.438056
0.583062 0.945174 0.438056
0.723339 0.945174 0.438056
0.849454 0.945174 0.438056
0.945174 0.945174 0.438056
1 0.945174 0.438056
0 1 0.438056
0.148821 1 0.438056
0.293004 1 0.438056
0.438056 1 0.438056
0.583062 1 0.438056
0.723339 1 0.438056
0.849454 1 0.438056
0.945174 1 0.438056
1 1 0.438056
0 0 0.583062
0.148821 0 0.583062
0.293004 0 0.583062
0.438056 0 0.583062
0.583062 0 0.583062
0.723339 0 0.583062
0.849454 0 0.583062
0.945174 0 0.583062
1 0 0.583062
0 0.148821 0.583062
0.148821 0.148821 0.583062
0.293004 0.148821 0.583062
0.438056 0.148821 0.583062
0.583062 0.148821 0.583062
0.723339 0.148821 0.583062
0.849454 0.148821 0.583062
0.945174 0.148821 0.583062
1 0.148821 0.583062
0 0.293004 0.583062
0.148821 0.293004 0.583062
0.293004 0.293004 0.583062
0.438056 0.293004 0.583062
0.583062 0.293004 0.583062
0.723339 0.293004 0.583062
0.849454 0.293004 0.583062
0.945174 0.293004 0.583062
1 0.293004 0.583062
0 0.438056 0.583062
0.148821 0.438056 0.583062
0.293004 0.438056 0.583062
0.438056 0.438056 0.583062
0.583062 0.438056 0.583062
0.723339 0.438056 0.583062
0.849454 0.438056 0.583062
0.945174 0.438056 0.583062
1 0.438056 0.583062
0 0.583062 0.583062
0.148821 0.583062 0.583062
0.293004 0.583062 0.583062
0.438056 0.583062 0.583062
0.583062 0.583062 0.583062
0.723339 0.583062 0.583062
0.849454 0.583062 0.583062
0.945174 0.583062 0.583062
1 0.583062 0.583062
0 0.723339 0.583062
0.148821 0.723339 0.583062
0.293004 0.723339 0.583062
0.438056 0.723339 0.583062
0.583062 0.723339 0.583062
0.723339 0.723339 0.583062
0.849454 0.723339 0.583062
0.945174 0.723339 0.583062
1 0.723339 0.583062
0 0.849454 0.583062
0.148821 0.849454 0.583062
0.293004 0.849454 0.583062
0.438056 0.849454 0.583062
0.583062 0.849454 0.583062
0.723339 0.849454 0.583062
0.849454 0.849454 0.583062
0.945174 0.849454 0.583062
1 0.849454 0.583062
0 0.945174 0.583062
0.148821 0.945174 0.583062
0.293004 0.945174 0.583062
0.438056 0.945174 0.583062
0.583062 0.945174 0.583062
0.723339 0.945174 0.583062
0.849454 0.945174 0.583062
0.945174 0.945174 0.583062
1 0.945174 0.583062
0 1 0.583062
0.148821 1 0.583062
0.293004 1 0.583062
0.438056 1 0.583062
0.583062 1 0.583062
0.723339 1 0.583062
0.849454 1 0.583062
0.945174 1 0.583062
1 1 0.583062
0 0 0.723339
0.148821 0 0.723339
0.293004 0 0.723339
0.438056 0 0.723339
0.583062 0 0.723339
0.723339 0 0.723339
0.849454 0 0.723339
0.945174 0 0.723339
1 0 0.723339
0 0.148821 0.723339
0.148821 0.148821 0.723339
0.293004 0.148821 0.723339
0.438056 0.148821 0.723339
0.583062 0.148821 0.723339
0.723339 0.148821 0.723339
0.849454 0.148821 0.723339
0.945174 0.148821 0.723339
1 0.148821 0.723339
0 0.293004 0.723339
0.148821 0.293004 0.723339
0.293004 0.293004 0.723339
0.438056 0.293004 0.723339
0.583062 0.293004 0.723339
0.723339 0.293004 0.723339
0.849454 0.293004 0.723339
0.945174 0.293004 0.723339
1 0.293004 0.723339
0 0.438056 0.723339
0.148821 0.438056 0.723339
0.293004 0.438056 0.723339
0.438056 0.438056 0.723339
0.583062 0.438056 0.723339
0.723339 0.438056 0.723339
0.849454 0.438056 0.723339
0.945174 0.438056 0.723339
1 0.438056 0.723339
0 0.583062 0.723339
0.148821 0.583062 0.723339
0.293004 0.583062 0.723339
0.438056 0.583062 0.723339
0.583062 0.583062 0.723339
0.723339 0.583062 0.723339
0.849454 0.583062 0.723339
0.945174 0.583062 0.723339
1 0.583062 0.723339
0 0.723339 0.723339
0.148821 0.723339 0.723339
0.293004 0.723339 0.723339
0.438056 0.723339 0.723339
0.583062 0.723339 0.723339
0.723339 0.723339 0.723339
0.849454 0.723339 0.723339
0.945174 0.723339 0.723339
1 0.723339 0.723339
0 0.849454 0.723339
0.148821 0.849454 0.723339
0.293004 0.849454 0.723339
0.438056 0.849454 0.723339
0.583062 0.849454 0.723339
0.723339 0.849454 0.723339
0.849454 0.849454 0.723339
0.945174 0.849454 0.723339
1 0.849454 0.723339
0 0.945174 0.723339
0.148821 0.945174 0.723339
0.293004 0.945174 0.723339
0.438056 0.945174 0.723339
0.583062 0.945174 0.723339
0.723339 0.945174 0.723339
0.849454 0.945174 0.723339
0.945174 0.945174 0.723339
1 0.945174 0.723339
0 1 0.723339
0.148821 1 0.723339
0.293004 1 0.723339
0.438056 1 0.723339
0.583062 1 0.723339
0.723339 1 0.723339
0.849454 1 0.723339
0.945174 1 0.723339
1 1 0.723339
0 0 0.849454
0.148821 0 0.849454
0.293004 0 0.849454
0.438056 0 0.849454
0.583062 0 0.849454
0.723339 0 0.849454
0.849454 0 0.849454
0.945174 0 0.849454
1 0 0.849454
0 0.148821 0.849454
0.148821 0.148821 0.849454
0.293004 0.148821 0.849454
0.438056 0.148821 0.849454
0.583062 0.148821 0.849454
0.723339 0.148821 0.849454
0.849454 0.148821 0.849454
0.945174 0.148821 0.849454
1 0.148821 0.849454
0 0.293004 0.849454
0.148821 0.293004 0.849454
0.293004 0.293004 0.849454
0.438056 0.293004 0.849454
0.583062 0.293004 0.849454
0.723339 0.293004 0.849454
0.849454 0.293004 0.849454
0.945174 0.293004 0.849454
1 0.293004 0.849454
0 0.438056 0.849454
0.148821 0.438056 0.849454
0.293004 0.438056 0.849454
0.438056 0.438056 0.849454
0.583062 0.438056 0.849454
0.723339 0.438056 0.849454
0.849454 0.438056 0.849454
0.945174 0.438056 0.849454
1 0.438056 0.849454
0 0.583062 0.849454
0.148821 0.583062 0.849454
0.293004 0.583062 0.849454
0.438056 0.583062 0.849454
0.583062 0.583062 0.849454
0.723339 0.583062 0.849454
0.849454 0.583062 0.849454
0.945174 0.583062 0.849454
1 0.583062 0.849454
0 0.723339 0.849454
0.148821 0.723339 0.849454
0.293004 0.723339 0.849454
0.438056 0.723339 0.849454
0.583062 0.723339 0.849454
0.723339 0.723339 0.849454
0.849454 0.723339 0.849454
0.945174 0.723339 0.849454
1 0.723339 0.849454
0 0.849454 0.849454
0.148821 0.849454 0.849454
0.293004 0.849454 0.849454
0.438056 0.849454 0.849454
0.583062 0.849454 0.849454
0.723339 0.849454 0.849454
0.849454 0.849454 0.849454
0.945174 0.849454 0.849454
1 0.849454 0.849454
0 0.945174 0.849454
0.148821 0.945174 0.849454
0.293004 0.945174 0.849454
0.438056 0.945174 0.849454
0.583062 0.945174 0.849454
0.723339 0.945174 0.849454
0.849454 0.945174 0.849454
0.945174 0.945174 0.849454
1 0.945174 0.849454
0 1 0.849454
0.148821 1 0.849454
0.293004 1 0.849454
0.438056 1 0.849454
0.583062 1 0.849454
0.723339 1 0.849454
0.849454 1 0.849454
0.945174 1 0.849454
1 1 0.849454
0 0 0.945174
0.148821 0 0.945174
0.293004 0 0.945174
0.438056 0 0.945174
0.583062 0 0.945174
0.723339 0 0.945174
0.849454 0 0.945174
0.945174 0 0.945174
1 0 0.945174
0 0.148821 0.945174
0.148821 0.148821 0.945174
0.293004 0.148821 0.945174
0.438056 0.148821 0.945174
0.583062 0.148821 0.945174
0.723339 0.148821 0.945174
0.849454 0.148821 0.945174
0.945174 0.148821 0.945174
1 0.148821 0.945174
0 0.293004 0.945174
0.148821 0.293004 0.945174
0.293004 0.293004 0.945174
0.438056 0.293004 0.945174
0.583062 0.293004 0.945174
0.723339 0.293004 0.945174
0.849454 0.293004 0.945174
0.945174 0.293004 0.945174
1 0.293004 0.945174
0 0.438056 0.945174
0.148821 0.438056 0.945174
0.293004 0.438056 0.945174
0.438056 0.438056 0.945174
0.583062 0.438056 0.945174
0.723339 0.438056 0.945174
0.849454 0.438056 0.945174
0.945174 0.438056 0.945174
1 0.438056 0.945174
0 0.583062 0.945174
0.148821 0.583062 0.945174
0.293004 0.583062 0.945174
0.438056 0.583062 0.945174
0.583062 0.583062 0.945174
0.723339 0.583062 0.945174
0.849454 0.583062 0.945174
0.945174 0.583062 0.945174
1 0.583062 0.945174
0 0.723339 0.945174
0.148821 0.723339 0.945174
0.293004 0.723339 0.945174
0.438056 0.723339 0.945174
0.583062 0.723339 0.945174
0.723339 0.723339 0.945174
0.849454 0.723339 0.945174
0.945174 0.723339 0.945174
1 0.723339 0.945174
0 0.849454 0.945174
0.148821 0.849454 0.945174
0.293004 0.849454 0.945174
0.438056 0.849454 0.945174
0.583062 0.849454 0.945174
0.723339 0.849454 0.945174
0.849454 0.849454 0.945174
0.945174 0.849454 0.945174
1 0.849454 0.945174
0 0.945174 0.945174
0.148821 0.945174 0.945174
0.293004 0.945174 0.945174
0.438056 0.945174 0.945174
0.583062 0.945174 0.945174
0.723339 0.945174 0.945174
0.849454 0.945174 0.945174
0.945174 0.945174 0.945174
1 0.945174 0.945174
0 1 0.945174
0.148821 1 0.945174
0.293004 1 0.945174
0.438056 1 0.945174
0.583062 1 0.945174
0.723339 1 0.945174
0.849454 1 0.945174
0.945174 1 0.945174
1 1 0.945174
0 0 1
0.148821 0 1
0.293004 0 1
0.438056 0 1
0.583062 0 1
0.723339 0 1
0.849454 0 1
0.945174 0 1
1 0 1
0 0.148821 1
0.148821 0.148821 1
0.293004 0.148821 1
0.438056 0.148821 1
0.583062 0.148821 1
0.723339 0.148821 1
0.849454 0.148821 1
0.945174 0.148821 1
1 0.148821 1
0 0.293004 1
0.148821 0.293004 1
0.293004 0.293004 1
0.438056 0.293004 1
0.583062 0.293004 1
0.723339 0.293004 1
0.849454 0.293004 1
0.945174 0.293004 1
1 0.293004 1
0 0.438056 1
0.148821 0.438056 1
0.293004 0.438056 1
0.438056 0.438056 1
0.583062 0.438056 1
0.723339 0.438056 1
0.849454 0.438056 1
0.945174 0.438056 1
1 0.438056 1
0 0.583062 1
0.148821 0.583062 1
0.293004 0.583062 1
0.438056 0.583062 1
0.583062 0.583062 1
0.723339 0.583062 1
0.849454 0.583062 1
0.945174 0.583062 1
1 0.583062 1
0 0.723339 1
0.148821 0.723339 1
0.293004 0.723339 1
0.438056 0.723339 1
0.583062 0.723339 1
0.723339 0.723339 1
0.849454 0.723339 1
0.945174 0.723339 1
1 0.723339 1
0 0.849454 1
0.148821 0.849454 1
0.293004 0.849454 1
0.438056 0.849454 1
0.583062 0.849454 1
0.723339 0.849454 1
0.849454 0.849454 1
0.945174 0.849454 1
1 0.849454 1
0 0.945174 1
0.148821 0.945174 1
0.293004 0.945174 1
0.438056 0.945174 1
0.583062 0.945174 1
0.723339 0.945174 1
0.849454 0.945174 1
0.945174 0.945174 1
1 0.945174 1
0 1 1
0.148821 1 1
0.293004 1 1
0.438056 1 1
0.583062 1 1
0.723339 1 1
0.849454 1 1
0.945174 1 1
1 1 1
