resources/LogC3_Rec709.cube
TITLE "Generated by Resolve"
LUT_3D_SIZE 5
0 0 0
0.169375 0 0
0.59707 0 0
0.931563 0 0
1 0 0
0 0.169375 0
0.169375 0.169375 0
0.59707 0.169375 0
0.931563 0.169375 0
1 0.169375 0
0 0.59707 0
0.169375 0.59707 0
0.59707 0.59707 0
0.931563 0.59707 0
1 0.59707 0
0 0.931563 0
0.169375 0.931563 0
0.59707 0.931563 0
0.931563 0.931563 0
1 0.931563 0
0 1 0
0.169375 1 0
0.59707 1 0
0.931563 1 0
1 1 0
0 0 0.169375
0.169375 0 0.169375
0.59707 0 0.169375
0.931563 0 0.169375
1 0 0.169375
0 0.169375 0.169375
0.169375 0.169375 0.169375
0.59707 0.169375 0.169375
0.931563 0.169375 0.169375
1 0.169375 0.169375
0 0.59707 0.169375
0.169375 0.59707 0.169375
0.59707 0.59707 0.169375
0.931563 0.59707 0.169375
1 0.59707 0.169375
0 0.931563 0.169375
0.169375 0.931563 0.169375
0.59707 0.931563 0.169375
0.931563 0.931563 0.169375
1 0.931563 0.169375
0 1 0.169375
0.169375 1 0.169375
0.59707 1 0.169375
0.931563 1 0.169375
1 1 0.169375
0 0 0.59707
0.169375 0 0.59707
0.59707 0 0.59707
0.931563 0 0.59707
1 0 0.59707
0 0.169375 0.59707
0.169375 0.169375 0.59707
0.59707 0.169375 0.59707
0.931563 0.169375 0.59707
1 0.169375 0.59707
0 0.59707 0.59707
0.169375 0.59707 0.59707
0.59707 0.59707 0.59707
0.931563 0.59707 0.59707
1 0.59707 0.59707
0 0.931563 0.59707
0.169375 0.931563 0.59707
0.59707 0.931563 0.59707
0.931563 0.931563 0.59707
1 0.931563 0.59707
0 1 0.59707
0.169375 1 0.59707
0.59707 1 0.59707
0.931563 1 0.59707
1 1 0.59707
0 0 0.931563
0.169375 0 0.931563
0.59707 0 0.931563
0.931563 0 0.931563
1 0 0.931563
0 0.169375 0.931563
0.169375 0.169375 0.931563
0.59707 0.169375 0.931563
0.931563 0.169375 0.931563
1 0.169375 0.931563
0 0.59707 0.931563
0.169375 0.59707 0.931563
0.59707 0.59707 0.931563
0.931563 0.59707 0.931563
1 0.59707 0.931563
0 0.931563 0.931563
0.169375 0.931563 0.931563
0.59707 0.931563 0.931563
0.931563 0.931563 0.931563
1 0.931563 0.931563
0 1 0.931563
0.169375 1 0.931563
0.59707 1 0.931563
0.931563 1 0.931563
1 1 0.931563
0 0 1
0.169375 0 1
0.59707 0 1
0.931563 0 1
1 0 1
0 0.169375 1
0.169375 0.169375 1
0.59707 0.169375 1
0.931563 0.169375 1
1 0.169375 1
0 0.59707 1
0.169375 0.59707 1
0.59707 0.59707 1
0.931563 0.59707 1
1 0.59707 1
0 0.931563 1
0.169375 0.931563 1
0.59707 0.931563 1
0.931563 0.931563 1
1 0.931563 1
0 1 1
0.169375 1 1
0.59707 1 1
0.931563 1 1
1 1 1
