resources/LogC3_LogC4.cube
TITLE "Generated by Resolve"
LUT_3D_SIZE 9
0.00668345 0.00668345 0.00668345
0.110582 0.00668345 0.00668345
0.176501 0.00668345 0.00668345
0.265904 0.00668345 0.00668345
0.368231 0.00668345 0.00668345
0.476509 0.00668345 0.00668345
0.590494 0.00668345 0.00668345
0.720836 0.00668345 0.00668345
1 0.00668345 0.00668345
0.00668345 0.110582 0.00668345
0.110582 0.110582 0.00668345
0.176501 0.110582 0.00668345
0.265904 0.110582 0.00668345
0.368231 0.110582 0.00668345
0.476509 0.110582 0.00668345
0.590494 0.110582 0.00668345
0.720836 0.110582 0.00668345
1 0.110582 0.00668345
0.00668345 0.176501 0.00668345
0.110582 0.176501 0.00668345
0.176501 0.176501 0.00668345
0.265904 0.176501 0.00668345
0.368231 0.176501 0.00668345
0.476509 0.176501 0.00668345
0.590494 0.176501 0.00668345
0.720836 0.176501 0.00668345
1 0.176501 0.00668345
0.00668345 0.265904 0.00668345
0.110582 0.265904 0.00668345
0.176501 0.265904 0.00668345
0.265904 0.265904 0.00668345
0.368231 0.265904 0.00668345
0.476509 0.265904 0.00668345
0.590494 0.265904 0.00668345
0.720836 0.265904 0.00668345
1 0.265904 0.00668345
0.00668345 0.368231 0.00668345
0.110582 0.368231 0.00668345
0.176501 0.368231 0.00668345
0.265904 0.368231 0.00668345
0.368231 0.368231 0.00668345
0.476509 0.368231 0.00668345
0.590494 0.368231 0.00668345
0.720836 0.368231 0.00668345
1 0.368231 0.00668345
0.00668345 0.476509 0.00668345
0.110582 0.476509 0.00668345
0.176501 0.476509 0.00668345
0.265904 0.476509 0.00668345
0.368231 0.476509 0.00668345
0.476509 0.476509 0.00668345
0.590494 0.476509 0.00668345
0.720836 0.476509 0.00668345
1 0.476509 0.00668345
0.00668345 0.590494 0.00668345
0.110582 0.590494 0.00668345
0.176501 0.590494 0.00668345
0.265904 0.590494 0.00668345
0.368231 0.590494 0.00668345
0.476509 0.590494 0.00668345
0.590494 0.590494 0.00668345
0.720836 0.590494 0.00668345
1 0.590494 0.00668345
0.00668345 0.720836 0.00668345
0.110582 0.720836 0.00668345
0.176501 0.720836 0.00668345
0.265904 0.720836 0.00668345
0.368231 0.720836 0.00668345
0.476509 0.720836 0.00668345
0.590494 0.720836 0.00668345
0.720836 0.720836 0.00668345
1 0.720836 0.00668345
0.00668345 1 0.00668345
0.110582 1 0.00668345
0.176501 1 0.00668345
0.265904 1 0.00668345
0.368231 1 0.00668345
0.476509 1 0.00668345
0.590494 1 0.00668345
0.720836 1 0.00668345
1 1 0.00668345
0.00668345 0.00668345 0.110582
0.110582 0.00668345 0.110582
0.176501 0.00668345 0.110582
0.265904 0.00668345 0.110582
0.368231 0.00668345 0.110582
0.476509 0.00668345 0.110582
0.590494 0.00668345 0.110582
0.720836 0.00668345 0.110582
1 0.00668345 0.110582
0.00668345 0.110582 0.110582
0.110582 0.110582 0.110582
0.176501 0.110582 0.110582
0.265904 0.110582 0.110582
0.368231 0.110582 0.110582
0.476509 0.110582 0.110582
0.590494 0.110582 0.110582
0.720836 0.110582 0.110582
1 0.110582 0.110582
0.00668345 0.176501 0.110582
0.110582 0.176501 0.110582
0.176501 0.176501 0.110582
0.265904 0.176501 0.110582
0.368231 0.176501 0.110582
0.476509 0.176501 0.110582
0.590494 0.176501 0.110582
0.720836 0.176501 0.110582
1 0.176501 0.110582
0.00668345 0.265904 0.110582
0.110582 0.265904 0.110582
0.176501 0.265904 0.110582
0.265904 0.265904 0.110582
0.368231 0.265904 0.110582
0.476509 0.265904 0.110582
0.590494 0.265904 0.110582
0.720836 0.265904 0.110582
1 0.265904 0.110582
0.00668345 0.368231 0.110582
0.110582 0.368231 0.110582
0.176501 0.368231 0.110582
0.265904 0.368231 0.110582
0.368231 0.368231 0.110582
0.476509 0.368231 0.110582
0.590494 0.368231 0.110582
0.720836 0.368231 0.110582
1 0.368231 0.110582
0.00668345 0.476509 0.110582
0.110582 0.476509 0.110582
0.176501 0.476509 0.110582
0.265904 0.476509 0.110582
0.368231 0.476509 0.110582
0.476509 0.476509 0.110582
0.590494 0.476509 0.110582
0.720836 0.476509 0.110582
1 0.476509 0.110582
0.00668345 0.590494 0.110582
0.110582 0.590494 0.110582
0.176501 0.590494 0.110582
0.265904 0.590494 0.110582
0.368231 0.590494 0.110582
0.476509 0.590494 0.110582
0.590494 0.590494 0.110582
0.720836 0.590494 0.110582
1 0.590494 0.110582
0.00668345 0.720836 0.110582
0.110582 0.720836 0.110582
0.176501 0.720836 0.110582
0.265904 0.720836 0.110582
0.368231 0.720836 0.110582
0.476509 0.720836 0.110582
0.590494 0.720836 0.110582
0.720836 0.720836 0.110582
1 0.720836 0.110582
0.00668345 1 0.110582
0.110582 1 0.110582
0.176501 1 0.110582
0.265904 1 0.110582
0.368231 1 0.110582
0.476509 1 0.110582
0.590494 1 0.110582
0.720836 1 0.110582
1 1 0.110582
0.00668345 0.00668345 0.176501
0.110582 0.00668345 0.176501
0.176501 0.00668345 0.176501
0.265904 0.00668345 0.176501
0.368231 0.00668345 0.176501
0.476509 0.00668345 0.176501
0.590494 0.00668345 0.176501
0.720836 0.00668345 0.176501
1 0.00668345 0.176501
0.00668345 0.110582 0.176501
0.110582 0.110582 0.176501
0.176501 0.110582 0.176501
0.265904 0.110582 0.176501
0.368231 0.110582 0.176501
0.476509 0.110582 0.176501
0.590494 0.110582 0.176501
0.720836 0.110582 0.176501
1 0.110582 0.176501
0.00668345 0.176501 0.176501
0.110582 0.176501 0.176501
0.176501 0.176501 0.176501
0.265904 0.176501 0.176501
0.368231 0.176501 0.176501
0.476509 0.176501 0.176501
0.590494 0.176501 0.176501
0.720836 0.176501 0.176501
1 0.176501 0.176501
0.00668345 0.265904 0.176501
0.110582 0.265904 0.176501
0.176501 0.265904 0.176501
0.265904 0.265904 0.176501
0.368231 0.265904 0.176501
0.476509 0.265904 0.176501
0.590494 0.265904 0.176501
0.720836 0.265904 0.176501
1 0.265904 0.176501
0.00668345 0.368231 0.176501
0.110582 0.368231 0.176501
0.176501 0.368231 0.176501
0.265904 0.368231 0.176501
0.368231 0.368231 0.176501
0.476509 0.368231 0.176501
0.590494 0.368231 0.176501
0.720836 0.368231 0.176501
1 0.368231 0.176501
0.00668345 0.476509 0.176501
0.110582 0.476509 0.176501
0.176501 0.476509 0.176501
0.265904 0.476509 0.176501
0.368231 0.476509 0.176501
0.476509 0.476509 0.176501
0.590494 0.476509 0.176501
0.720836 0.476509 0.176501
1 0.476509 0.176501
0.00668345 0.590494 0.176501
0.110582 0.590494 0.176501
0.176501 0.590494 0.176501
0.265904 0.590494 0.176501
0.368231 0.590494 0.176501
0.476509 0.590494 0.176501
0.590494 0.590494 0.176501
0.720836 0.590494 0.176501
1 0.590494 0.176501
0.00668345 0.720836 0.176501
0.110582 0.720836 0.176501
0.176501 0.720836 0.176501
0.265904 0.720836 0.176501
0.368231 0.720836 0.176501
0.476509 0.720836 0.176501
0.590494 0.720836 0.176501
0.720836 0.720836 0.176501
1 0.720836 0.176501
0.00668345 1 0.176501
0.110582 1 0.176501
0.176501 1 0.176501
0.265904 1 0.176501
0.368231 1 0.176501
0.476509 1 0.176501
0.590494 1 0.176501
0.720836 1 0.176501
1 1 0.176501
0.00668345 0.00668345 0.265904
0.110582 0.00668345 0.265904
0.176501 0.00668345 0.265904
0.265904 0.00668345 0.265904
0.368231 0.00668345 0.265904
0.476509 0.00668345 0.265904
0.590494 0.00668345 0.265904
0.720836 0.00668345 0.265904
1 0.00668345 0.265904
0.00668345 0.110582 0.265904
0.110582 0.110582 0.265904
0.176501 0.110582 0.265904
0.265904 0.110582 0.265904
0.368231 0.110582 0.265904
0.476509 0.110582 0.265904
0.590494 0.110582 0.265904
0.720836 0.110582 0.265904
1 0.110582 0.265904
0.00668345 0.176501 0.265904
0.110582 0.176501 0.265904
0.176501 0.176501 0.265904
0.265904 0.176501 0.265904
0.368231 0.176501 0.265904
0.476509 0.176501 0.265904
0.590494 0.176501 0.265904
0.720836 0.176501 0.265904
1 0.176501 0.265904
0.00668345 0.265904 0.265904
0.110582 0.265904 0.265904
0.176501 0.265904 0.265904
0.265904 0.265904 0.265904
0.368231 0.265904 0.265904
0.476509 0.265904 0.265904
0.590494 0.265904 0.265904
0.720836 0.265904 0.265904
1 0.265904 0.265904
0.00668345 0.368231 0.265904
0.110582 0.368231 0.265904
0.176501 0.368231 0.265904
0.265904 0.368231 0.265904
0.368231 0.368231 0.265904
0.476509 0.368231 0.265904
0.590494 0.368231 0.265904
0.720836 0.368231 0.265904
1 0.368231 0.265904
0.00668345 0.476509 0.265904
0.110582 0.476509 0.265904
0.176501 0.476509 0.265904
0.265904 0.476509 0.265904
0.368231 0.476509 0.265904
0.476509 0.476509 0.265904
0.590494 0.476509 0.265904
0.720836 0.476509 0.265904
1 0.476509 0.265904
0.00668345 0.590494 0.265904
0.110582 0.590494 0.265904
0.176501 0.590494 0.265904
0.265904 0.590494 0.265904
0.368231 0.590494 0.265904
0.476509 0.590494 0.265904
0.590494 0.590494 0.265904
0.720836 0.590494 0.265904
1 0.590494 0.265904
0.00668345 0.720836 0.265904
0.110582 0.720836 0.265904
0.176501 0.720836 0.265904
0.265904 0.720836 0.265904
0.368231 0.720836 0.265904
0.476509 0.720836 0.265904
0.590494 0.720836 0.265904
0.720836 0.720836 0.265904
1 0.720836 0.265904
0.00668345 1 0.265904
0.110582 1 0.265904
0.176501 1 0.265904
0.265904 1 0.265904
0.368231 1 0.265904
0.476509 1 0.265904
0.590494 1 0.265904
0.720836 1 0.265904
1 1 0.265904
0.00668345 0.00668345 0.368231
0.110582 0.00668345 0.368231
0.176501 0.00668345 0.368231
0.265904 0.00668345 0.368231
0.368231 0.00668345 0.368231
0.476509 0.00668345 0.368231
0.590494 0.00668345 0.368231
0.720836 0.00668345 0.368231
1 0.00668345 0.368231
0.00668345 0.110582 0.368231
0.110582 0.110582 0.368231
0.176501 0.110582 0.368231
0.265904 0.110582 0.368231
0.368231 0.110582 0.368231
0.476509 0.110582 0.368231
0.590494 0.110582 0.368231
0.720836 0.110582 0.368231
1 0.110582 0.368231
0.00668345 0.176501 0.368231
0.110582 0.176501 0.368231
0.176501 0.176501 0.368231
0.265904 0.176501 0.368231
0.368231 0.176501 0.368231
0.476509 0.176501 0.368231
0.590494 0.176501 0.368231
0.720836 0.176501 0.368231
1 0.176501 0.368231
0.00668345 0.265904 0.368231
0.110582 0.265904 0.368231
0.176501 0.265904 0.368231
0.265904 0.265904 0.368231
0.368231 0.265904 0.368231
0.476509 0.265904 0.368231
0.590494 0.265904 0.368231
0.720836 0.265904 0.368231
1 0.265904 0.368231
0.00668345 0.368231 0.368231
0.110582 0.368231 0.368231
0.176501 0.368231 0.368231
0.265904 0.368231 0.368231
0.368231 0.368231 0.368231
0.476509 0.368231 0.368231
0.590494 0.368231 0.368231
0.720836 0.368231 0.368231
1 0.368231 0.368231
0.00668345 0.476509 0.368231
0.110582 0.476509 0.368231
0.176501 0.476509 0.368231
0.265904 0.476509 0.368231
0.368231 0.476509 0.368231
0.476509 0.476509 0.368231
0.590494 0.476509 0.368231
0.720836 0.476509 0.368231
1 0.476509 0.368231
0.00668345 0.590494 0.368231
0.110582 0.590494 0.368231
0.176501 0.590494 0.368231
0.265904 0.590494 0.368231
0.368231 0.590494 0.368231
0.476509 0.590494 0.368231
0.590494 0.590494 0.368231
0.720836 0.590494 0.368231
1 0.590494 0.368231
0.00668345 0.720836 0.368231
0.110582 0.720836 0.368231
0.176501 0.720836 0.368231
0.265904 0.720836 0.368231
0.368231 0.720836 0.368231
0.476509 0.720836 0.368231
0.590494 0.720836 0.368231
0.720836 0.720836 0.368231
1 0.720836 0.368231
0.00668345 1 0.368231
0.110582 1 0.368231
0.176501 1 0.368231
0.265904 1 0.368231
0.368231 1 0.368231
0.476509 1 0.368231
0.590494 1 0.368231
0.720836 1 0.368231
1 1 0.368231
0.00668345 0.00668345 0.476509
0.110582 0.00668345 0.476509
0.176501 0.00668345 0.476509
0.265904 0.00668345 0.476509
0.368231 0.00668345 0.476509
0.476509 0.00668345 0.476509
0.590494 0.00668345 0.476509
0.720836 0.00668345 0.476509
1 0.00668345 0.476509
0.00668345 0.110582 0.476509
0.110582 0.110582 0.476509
0.176501 0.110582 0.476509
0.265904 0.110582 0.476509
0.368231 0.110582 0.476509
0.476509 0.110582 0.476509
0.590494 0.110582 0.476509
0.720836 0.110582 0.476509
1 0.110582 0.476509
0.00668345 0.176501 0.476509
0.110582 0.176501 0.476509
0.176501 0.176501 0.476509
0.265904 0.176501 0.476509
0.368231 0.176501 0.476509
0.476509 0.176501 0.476509
0.590494 0.176501 0.476509
0.720836 0.176501 0.476509
1 0.176501 0.476509
0.00668345 0.265904 0.476509
0.110582 0.265904 0.476509
0.176501 0.265904 0.476509
0.265904 0.265904 0.476509
0.368231 0.265904 0.476509
0.476509 0.265904 0.476509
0.590494 0.265904 0.476509
0.720836 0.265904 0.476509
1 0.265904 0.476509
0.00668345 0.368231 0.476509
0.110582 0.368231 0.476509
0.176501 0.368231 0.476509
0.265904 0.368231 0.476509
0.368231 0.368231 0.476509
0.476509 0.368231 0.476509
0.590494 0.368231 0.476509
0.720836 0.368231 0.476509
1 0.368231 0.476509
0.00668345 0.476509 0.476509
0.110582 0.476509 0.476509
0.176501 0.476509 0.476509
0.265904 0.476509 0.476509
0.368231 0.476509 0.476509
0.476509 0.476509 0.476509
0.590494 0.476509 0.476509
0.720836 0.476509 0.476509
1 0.476509 0.476509
0.00668345 0.590494 0.476509
0.110582 0.590494 0.476509
0.176501 0.590494 0.476509
0.265904 0.590494 0.476509
0.368231 0.590494 0.476509
0.476509 0.590494 0.476509
0.590494 0.590494 0.476509
0.720836 0.590494 0.476509
1 0.590494 0.476509
0.00668345 0.720836 0.476509
0.110582 0.720836 0.476509
0.176501 0.720836 0.476509
0.265904 0.720836 0.476509
0.368231 0.720836 0.476509
0.476509 0.720836 0.476509
0.590494 0.720836 0.476509
0.720836 0.720836 0.476509
1 0.720836 0.476509
0.00668345 1 0.476509
0.110582 1 0.476509
0.176501 1 0.476509
0.265904 1 0.476509
0.368231 1 0.476509
0.476509 1 0.476509
0.590494 1 0.476509
0.720836 1 0.476509
1 1 0.476509
0.00668345 0.00668345 0.590494
0.110582 0.00668345 0.590494
0.176501 0.00668345 0.590494
0.265904 0.00668345 0.590494
0.368231 0.00668345 0.590494
0.476509 0.00668345 0.590494
0.590494 0.00668345 0.590494
0.720836 0.00668345 0.590494
1 0.00668345 0.590494
0.00668345 0.110582 0.590494
0.110582 0.110582 0.590494
0.176501 0.110582 0.590494
0.265904 0.110582 0.590494
0.368231 0.110582 0.590494
0.476509 0.110582 0.590494
0.590494 0.110582 0.590494
0.720836 0.110582 0.590494
1 0.110582 0.590494
0.00668345 0.176501 0.590494
0.110582 0.176501 0.590494
0.176501 0.176501 0.590494
0.265904 0.176501 0.590494
0.368231 0.176501 0.590494
0.476509 0.176501 0.590494
0.590494 0.176501 0.590494
0.720836 0.176501 0.590494
1 0.176501 0.590494
0.00668345 0.265904 0.590494
0.110582 0.265904 0.590494
0.176501 0.265904 0.590494
0.265904 0.265904 0.590494
0.368231 0.265904 0.590494
0.476509 0.265904 0.590494
0.590494 0.265904 0.590494
0.720836 0.265904 0.590494
1 0.265904 0.590494
0.00668345 0.368231 0.590494
0.110582 0.368231 0.590494
0.176501 0.368231 0.590494
0.265904 0.368231 0.590494
0.368231 0.368231 0.590494
0.476509 0.368231 0.590494
0.590494 0.368231 0.590494
0.720836 0.368231 0.590494
1 0.368231 0.590494
0.00668345 0.476509 0.590494
0.110582 0.476509 0.590494
0.176501 0.476509 0.590494
0.265904 0.476509 0.590494
0.368231 0.476509 0.590494
0.476509 0.476509 0.590494
0.590494 0.476509 0.590494
0.720836 0.476509 0.590494
1 0.476509 0.590494
0.00668345 0.590494 0.590494
0.110582 0.590494 0.590494
0.176501 0.590494 0.590494
0.265904 0.590494 0.590494
0.368231 0.590494 0.590494
0.476509 0.590494 0.590494
0.590494 0.590494 0.590494
0.720836 0.590494 0.590494
1 0.590494 0.590494
0.00668345 0.720836 0.590494
0.110582 0.720836 0.590494
0.176501 0.720836 0.590494
0.265904 0.720836 0.590494
0.368231 0.720836 0.590494
0.476509 0.720836 0.590494
0.590494 0.720836 0.590494
0.720836 0.720836 0.590494
1 0.720836 0.590494
0.00668345 1 0.590494
0.110582 1 0.590494
0.176501 1 0.590494
0.265904 1 0.590494
0.368231 1 0.590494
0.476509 1 0.590494
0.590494 1 0.590494
0.720836 1 0.590494
1 1 0.590494
0.00668345 0.00668345 0.720836
0.110582 0.00668345 0.720836
0.176501 0.00668345 0.720836
0.265904 0.00668345 0.720836
0.368231 0.00668345 0.720836
0.476509 0.00668345 0.720836
0.590494 0.00668345 0.720836
0.720836 0.00668345 0.720836
1 0.00668345 0.720836
0.00668345 0.110582 0.720836
0.110582 0.110582 0.720836
0.176501 0.110582 0.720836
0.265904 0.110582 0.720836
0.368231 0.110582 0.720836
0.476509 0.110582 0.720836
0.590494 0.110582 0.720836
0.720836 0.110582 0.720836
1 0.110582 0.720836
0.00668345 0.176501 0.720836
0.110582 0.176501 0.720836
0.176501 0.176501 0.720836
0.265904 0.176501 0.720836
0.368231 0.176501 0.720836
0.476509 0.176501 0.720836
0.590494 0.176501 0.720836
0.720836 0.176501 0.720836
1 0.176501 0.720836
0.00668345 0.265904 0.720836
0.110582 0.265904 0.720836
0.176501 0.265904 0.720836
0.265904 0.265904 0.720836
0.368231 0.265904 0.720836
0.476509 0.265904 0.720836
0.590494 0.265904 0.720836
0.720836 0.265904 0.720836
1 0.265904 0.720836
0.00668345 0.368231 0.720836
0.110582 0.368231 0.720836
0.176501 0.368231 0.720836
0.265904 0.368231 0.720836
0.368231 0.368231 0.720836
0.476509 0.368231 0.720836
0.590494 0.368231 0.720836
0.720836 0.368231 0.720836
1 0.368231 0.720836
0.00668345 0.476509 0.720836
0.110582 0.476509 0.720836
0.176501 0.476509 0.720836
0.265904 0.476509 0.720836
0.368231 0.476509 0.720836
0.476509 0.476509 0.720836
0.590494 0.476509 0.720836
0.720836 0.476509 0.720836
1 0.476509 0.720836
0.00668345 0.590494 0.720836
0.110582 0.590494 0.720836
0.176501 0.590494 0.720836
0.265904 0.590494 0.720836
0.368231 0.590494 0.720836
0.476509 0.590494 0.720836
0.590494 0.590494 0.720836
0.720836 0.590494 0.720836
1 0.590494 0.720836
0.00668345 0.720836 0.720836
0.110582 0.720836 0.720836
0.176501 0.720836 0.720836
0.265904 0.720836 0.720836
0.368231 0.720836 0.720836
0.476509 0.720836 0.720836
0.590494 0.720836 0.720836
0.720836 0.720836 0.720836
1 0.720836 0.720836
0.00668345 1 0.720836
0.110582 1 0.720836
0.176501 1 0.720836
0.265904 1 0.720836
0.368231 1 0.720836
0.476509 1 0.720836
0.590494 1 0.720836
0.720836 1 0.720836
1 1 0.720836
0.00668345 0.00668345 1
0.110582 0.00668345 1
0.176501 0.00668345 1
0.265904 0.00668345 1
0.368231 0.00668345 1
0.476509 0.00668345 1
0.590494 0.00668345 1
0.720836 0.00668345 1
1 0.00668345 1
0.00668345 0.110582 1
0.110582 0.110582 1
0.176501 0.110582 1
0.265904 0.110582 1
0.368231 0.110582 1
0.476509 0.110582 1
0.590494 0.110582 1
0.720836 0.110582 1
1 0.110582 1
0.00668345 0.176501 1
0.110582 0.176501 1
0.176501 0.176501 1
0.265904 0.176501 1
0.368231 0.176501 1
0.476509 0.176501 1
0.590494 0.176501 1
0.720836 0.176501 1
1 0.176501 1
0.00668345 0.265904 1
0.110582 0.265904 1
0.176501 0.265904 1
0.265904 0.265904 1
0.368231 0.265904 1
0.476509 0.265904 1
0.590494 0.265904 1
0.720836 0.265904 1
1 0.265904 1
0.00668345 0.368231 1
0.110582 0.368231 1
0.176501 0.368231 1
0.265904 0.368231 1
0.368231 0.368231 1
0.476509 0.368231 1
0.590494 0.368231 1
0.720836 0.368231 1
1 0.368231 1
0.00668345 0.476509 1
0.110582 0.476509 1
0.176501 0.476509 1
0.265904 0.476509 1
0.368231 0.476509 1
0.476509 0.476509 1
0.590494 0.476509 1
0.720836 0.476509 1
1 0.476509 1
0.00668345 0.590494 1
0.110582 0.590494 1
0.176501 0.590494 1
0.265904 0.590494 1
0.368231 0.590494 1
0.476509 0.590494 1
0.590494 0.590494 1
0.720836 0.590494 1
1 0.590494 1
0.00668345 0.720836 1
0.110582 0.720836 1
0.176501 0.720836 1
0.265904 0.720836 1
0.368231 0.720836 1
0.476509 0.720836 1
0.590494 0.720836 1
0.720836 0.720836 1
1 0.720836 1
0.00668345 1 1
0.110582 1 1
0.176501 1 1
0.265904 1 1
0.368231 1 1
0.476509 1 1
0.590494 1 1
0.720836 1 1
1 1 1
