resources/LogC3_Blackmagic Design Pocket 6K Film Gen4.cube
TITLE "Generated by Resolve"
LUT_3D_SIZE 9
0 0 0
0.101335 0 0
0.212924 0 0
0.361517 0 0
0.527367 0 0
0.692515 0 0
0.838666 0 0
0.943893 0 0
1 0 0
0 0.101335 0
0.101335 0.101335 0
0.212924 0.101335 0
0.361517 0.101335 0
0.527367 0.101335 0
0.692515 0.101335 0
0.838666 0.101335 0
0.943893 0.101335 0
1 0.101335 0
0 0.212924 0
0.101335 0.212924 0
0.212924 0.212924 0
0.361517 0.212924 0
0.527367 0.212924 0
0.692515 0.212924 0
0.838666 0.212924 0
0.943893 0.212924 0
1 0.212924 0
0 0.361517 0
0.101335 0.361517 0
0.212924 0.361517 0
0.361517 0.361517 0
0.527367 0.361517 0
0.692515 0.361517 0
0.838666 0.361517 0
0.943893 0.361517 0
1 0.361517 0
0 0.527367 0
0.101335 0.527367 0
0.212924 0.527367 0
0.361517 0.527367 0
0.527367 0.527367 0
0.692515 0.527367 0
0.838666 0.527367 0
0.943893 0.527367 0
1 0.527367 0
0 0.692515 0
0.101335 0.692515 0
0.212924 0.692515 0
0.361517 0.692515 0
0.527367 0.692515 0
0.692515 0.692515 0
0.838666 0.692515 0
0.943893 0.692515 0
1 0.692515 0
0 0.838666 0
0.101335 0.838666 0
0.212924 0.838666 0
0.361517 0.838666 0
0.527367 0.838666 0
0.692515 0.838666 0
0.838666 0.838666 0
0.943893 0.838666 0
1 0.838666 0
0 0.943893 0
0.101335 0.943893 0
0.212924 0.943893 0
0.361517 0.943893 0
0.527367 0.943893 0
0.692515 0.943893 0
0.838666 0.943893 0
0.943893 0.943893 0
1 0.943893 0
0 1 0
0.101335 1 0
0.212924 1 0
0.361517 1 0
0.527367 1 0
0.692515 1 0
0.838666 1 0
0.943893 1 0
1 1 0
0 0 0.101335
0.101335 0 0.101335
0.212924 0 0.101335
0.361517 0 0.101335
0.527367 0 0.101335
0.692515 0 0.101335
0.838666 0 0.101335
0.943893 0 0.101335
1 0 0.101335
0 0.101335 0.101335
0.101335 0.101335 0.101335
0.212924 0.101335 0.101335
0.361517 0.101335 0.101335
0.527367 0.101335 0.101335
0.692515 0.101335 0.101335
0.838666 0.101335 0.101335
0.943893 0.101335 0.101335
1 0.101335 0.101335
0 0.212924 0.101335
0.101335 0.212924 0.101335
0.212924 0.212924 0.101335
0.361517 0.212924 0.101335
0.527367 0.212924 0.101335
0.692515 0.212924 0.101335
0.838666 0.212924 0.101335
0.943893 0.212924 0.101335
1 0.212924 0.101335
0 0.361517 0.101335
0.101335 0.361517 0.101335
0.212924 0.361517 0.101335
0.361517 0.361517 0.101335
0.527367 0.361517 0.101335
0.692515 0.361517 0.101335
0.838666 0.361517 0.101335
0.943893 0.361517 0.101335
1 0.361517 0.101335
0 0.527367 0.101335
0.101335 0.527367 0.101335
0.212924 0.527367 0.101335
0.361517 0.527367 0.101335
0.527367 0.527367 0.101335
0.692515 0.527367 0.101335
0.838666 0.527367 0.101335
0.943893 0.527367 0.101335
1 0.527367 0.101335
0 0.692515 0.101335
0.101335 0.692515 0.101335
0.212924 0.692515 0.101335
0.361517 0.692515 0.101335
0.527367 0.692515 0.101335
0.692515 0.692515 0.101335
0.838666 0.692515 0.101335
0.943893 0.692515 0.101335
1 0.692515 0.101335
0 0.838666 0.101335
0.101335 0.838666 0.101335
0.212924 0.838666 0.101335
0.361517 0.838666 0.101335
0.527367 0.838666 0.101335
0.692515 0.838666 0.101335
0.838666 0.838666 0.101335
0.943893 0.838666 0.101335
1 0.838666 0.101335
0 0.943893 0.101335
0.101335 0.943893 0.101335
0.212924 0.943893 0.101335
0.361517 0.943893 0.101335
0.527367 0.943893 0.101335
0.692515 0.943893 0.101335
0.838666 0.943893 0.101335
0.943893 0.943893 0.101335
1 0.943893 0.101335
0 1 0.101335
0.101335 1 0.101335
0.212924 1 0.101335
0.361517 1 0.101335
0.527367 1 0.101335
0.692515 1 0.101335
0.838666 1 0.101335
0.943893 1 0.101335
1 1 0.101335
0 0 0.212924
0.101335 0 0.212924
0.212924 0 0.212924
0.361517 0 0.212924
0.527367 0 0.212924
0.692515 0 0.212924
0.838666 0 0.212924
0.943893 0 0.212924
1 0 0.212924
0 0.101335 0.212924
0.101335 0.101335 0.212924
0.212924 0.101335 0.212924
0.361517 0.101335 0.212924
0.527367 0.101335 0.212924
0.692515 0.101335 0.212924
0.838666 0.101335 0.212924
0.943893 0.101335 0.212924
1 0.101335 0.212924
0 0.212924 0.212924
0.101335 0.212924 0.212924
0.212924 0.212924 0.212924
0.361517 0.212924 0.212924
0.527367 0.212924 0.212924
0.692515 0.212924 0.212924
0.838666 0.212924 0.212924
0.943893 0.212924 0.212924
1 0.212924 0.212924
0 0.361517 0.212924
0.101335 0.361517 0.212924
0.212924 0.361517 0.212924
0.361517 0.361517 0.212924
0.527367 0.361517 0.212924
0.692515 0.361517 0.212924
0.838666 0.361517 0.212924
0.943893 0.361517 0.212924
1 0.361517 0.212924
0 0.527367 0.212924
0.101335 0.527367 0.212924
0.212924 0.527367 0.212924
0.361517 0.527367 0.212924
0.527367 0.527367 0.212924
0.692515 0.527367 0.212924
0.838666 0.527367 0.212924
0.943893 0.527367 0.212924
1 0.527367 0.212924
0 0.692515 0.212924
0.101335 0.692515 0.212924
0.212924 0.692515 0.212924
0.361517 0.692515 0.212924
0.527367 0.692515 0.212924
0.692515 0.692515 0.212924
0.838666 0.692515 0.212924
0.943893 0.692515 0.212924
1 0.692515 0.212924
0 0.838666 0.212924
0.101335 0.838666 0.212924
0.212924 0.838666 0.212924
0.361517 0.838666 0.212924
0.527367 0.838666 0.212924
0.692515 0.838666 0.212924
0.838666 0.838666 0.212924
0.943893 0.838666 0.212924
1 0.838666 0.212924
0 0.943893 0.212924
0.101335 0.943893 0.212924
0.212924 0.943893 0.212924
0.361517 0.943893 0.212924
0.527367 0.943893 0.212924
0.692515 0.943893 0.212924
0.838666 0.943893 0.212924
0.943893 0.943893 0.212924
1 0.943893 0.212924
0 1 0.212924
0.101335 1 0.212924
0.212924 1 0.212924
0.361517 1 0.212924
0.527367 1 0.212924
0.692515 1 0.212924
0.838666 1 0.212924
0.943893 1 0.212924
1 1 0.212924
0 0 0.361517
0.101335 0 0.361517
0.212924 0 0.361517
0.361517 0 0.361517
0.527367 0 0.361517
0.692515 0 0.361517
0.838666 0 0.361517
0.943893 0 0.361517
1 0 0.361517
0 0.101335 0.361517
0.101335 0.101335 0.361517
0.212924 0.101335 0.361517
0.361517 0.101335 0.361517
0.527367 0.101335 0.361517
0.692515 0.101335 0.361517
0.838666 0.101335 0.361517
0.943893 0.101335 0.361517
1 0.101335 0.361517
0 0.212924 0.361517
0.101335 0.212924 0.361517
0.212924 0.212924 0.361517
0.361517 0.212924 0.361517
0.527367 0.212924 0.361517
0.692515 0.212924 0.361517
0.838666 0.212924 0.361517
0.943893 0.212924 0.361517
1 0.212924 0.361517
0 0.361517 0.361517
0.101335 0.361517 0.361517
0.212924 0.361517 0.361517
0.361517 0.361517 0.361517
0.527367 0.361517 0.361517
0.692515 0.361517 0.361517
0.838666 0.361517 0.361517
0.943893 0.361517 0.361517
1 0.361517 0.361517
0 0.527367 0.361517
0.101335 0.527367 0.361517
0.212924 0.527367 0.361517
0.361517 0.527367 0.361517
0.527367 0.527367 0.361517
0.692515 0.527367 0.361517
0.838666 0.527367 0.361517
0.943893 0.527367 0.361517
1 0.527367 0.361517
0 0.692515 0.361517
0.101335 0.692515 0.361517
0.212924 0.692515 0.361517
0.361517 0.692515 0.361517
0.527367 0.692515 0.361517
0.692515 0.692515 0.361517
0.838666 0.692515 0.361517
0.943893 0.692515 0.361517
1 0.692515 0.361517
0 0.838666 0.361517
0.101335 0.838666 0.361517
0.212924 0.838666 0.361517
0.361517 0.838666 0.361517
0.527367 0.838666 0.361517
0.692515 0.838666 0.361517
0.838666 0.838666 0.361517
0.943893 0.838666 0.361517
1 0.838666 0.361517
0 0.943893 0.361517
0.101335 0.943893 0.361517
0.212924 0.943893 0.361517
0.361517 0.943893 0.361517
0.527367 0.943893 0.361517
0.692515 0.943893 0.361517
0.838666 0.943893 0.361517
0.943893 0.943893 0.361517
1 0.943893 0.361517
0 1 0.361517
0.101335 1 0.361517
0.212924 1 0.361517
0.361517 1 0.361517
0.527367 1 0.361517
0.692515 1 0.361517
0.838666 1 0.361517
0.943893 1 0.361517
1 1 0.361517
0 0 0.527367
0.101335 0 0.527367
0.212924 0 0.527367
0.361517 0 0.527367
0.527367 0 0.527367
0.692515 0 0.527367
0.838666 0 0.527367
0.943893 0 0.527367
1 0 0.527367
0 0.101335 0.527367
0.101335 0.101335 0.527367
0.212924 0.101335 0.527367
0.361517 0.101335 0.527367
0.527367 0.101335 0.527367
0.692515 0.101335 0.527367
0.838666 0.101335 0.527367
0.943893 0.101335 0.527367
1 0.101335 0.527367
0 0.212924 0.527367
0.101335 0.212924 0.527367
0.212924 0.212924 0.527367
0.361517 0.212924 0.527367
0.527367 0.212924 0.527367
0.692515 0.212924 0.527367
0.838666 0.212924 0.527367
0.943893 0.212924 0.527367
1 0.212924 0.527367
0 0.361517 0.527367
0.101335 0.361517 0.527367
0.212924 0.361517 0.527367
0.361517 0.361517 0.527367
0.527367 0.361517 0.527367
0.692515 0.361517 0.527367
0.838666 0.361517 0.527367
0.943893 0.361517 0.527367
1 0.361517 0.527367
0 0.527367 0.527367
0.101335 0.527367 0.527367
0.212924 0.527367 0.527367
0.361517 0.527367 0.527367
0.527367 0.527367 0.527367
0.692515 0.527367 0.527367
0.838666 0.527367 0.527367
0.943893 0.527367 0.527367
1 0.527367 0.527367
0 0.692515 0.527367
0.101335 0.692515 0.527367
0.212924 0.692515 0.527367
0.361517 0.692515 0.527367
0.527367 0.692515 0.527367
0.692515 0.692515 0.527367
0.838666 0.692515 0.527367
0.943893 0.692515 0.527367
1 0.692515 0.527367
0 0.838666 0.527367
0.101335 0.838666 0.527367
0.212924 0.838666 0.527367
0.361517 0.838666 0.527367
0.527367 0.838666 0.527367
0.692515 0.838666 0.527367
0.838666 0.838666 0.527367
0.943893 0.838666 0.527367
1 0.838666 0.527367
0 0.943893 0.527367
0.101335 0.943893 0.527367
0.212924 0.943893 0.527367
0.361517 0.943893 0.527367
0.527367 0.943893 0.527367
0.692515 0.943893 0.527367
0.838666 0.943893 0.527367
0.943893 0.943893 0.527367
1 0.943893 0.527367
0 1 0.527367
0.101335 1 0.527367
0.212924 1 0.527367
0.361517 1 0.527367
0.527367 1 0.527367
0.692515 1 0.527367
0.838666 1 0.527367
0.943893 1 0.527367
1 1 0.527367
0 0 0.692515
0.101335 0 0.692515
0.212924 0 0.692515
0.361517 0 0.692515
0.527367 0 0.692515
0.692515 0 0.692515
0.838666 0 0.692515
0.943893 0 0.692515
1 0 0.692515
0 0.101335 0.692515
0.101335 0.101335 0.692515
0.212924 0.101335 0.692515
0.361517 0.101335 0.692515
0.527367 0.101335 0.692515
0.692515 0.101335 0.692515
0.838666 0.101335 0.692515
0.943893 0.101335 0.692515
1 0.101335 0.692515
0 0.212924 0.692515
0.101335 0.212924 0.692515
0.212924 0.212924 0.692515
0.361517 0.212924 0.692515
0.527367 0.212924 0.692515
0.692515 0.212924 0.692515
0.838666 0.212924 0.692515
0.943893 0.212924 0.692515
1 0.212924 0.692515
0 0.361517 0.692515
0.101335 0.361517 0.692515
0.212924 0.361517 0.692515
0.361517 0.361517 0.692515
0.527367 0.361517 0.692515
0.692515 0.361517 0.692515
0.838666 0.361517 0.692515
0.943893 0.361517 0.692515
1 0.361517 0.692515
0 0.527367 0.692515
0.101335 0.527367 0.692515
0.212924 0.527367 0.692515
0.361517 0.527367 0.692515
0.527367 0.527367 0.692515
0.692515 0.527367 0.692515
0.838666 0.527367 0.692515
0.943893 0.527367 0.692515
1 0.527367 0.692515
0 0.692515 0.692515
0.101335 0.692515 0.692515
0.212924 0.692515 0.692515
0.361517 0.692515 0.692515
0.527367 0.692515 0.692515
0.692515 0.692515 0.692515
0.838666 0.692515 0.692515
0.943893 0.692515 0.692515
1 0.692515 0.692515
0 0.838666 0.692515
0.101335 0.838666 0.692515
0.212924 0.838666 0.692515
0.361517 0.838666 0.692515
0.527367 0.838666 0.692515
0.692515 0.838666 0.692515
0.838666 0.838666 0.692515
0.943893 0.838666 0.692515
1 0.838666 0.692515
0 0.943893 0.692515
0.101335 0.943893 0.692515
0.212924 0.943893 0.692515
0.361517 0.943893 0.692515
0.527367 0.943893 0.692515
0.692515 0.943893 0.692515
0.838666 0.943893 0.692515
0.943893 0.943893 0.692515
1 0.943893 0.692515
0 1 0.692515
0.101335 1 0.692515
0.212924 1 0.692515
0.361517 1 0.692515
0.527367 1 0.692515
0.692515 1 0.692515
0.838666 1 0.692515
0.943893 1 0.692515
1 1 0.692515
0 0 0.838666
0.101335 0 0.838666
0.212924 0 0.838666
0.361517 0 0.838666
0.527367 0 0.838666
0.692515 0 0.838666
0.838666 0 0.838666
0.943893 0 0.838666
1 0 0.838666
0 0.101335 0.838666
0.101335 0.101335 0.838666
0.212924 0.101335 0.838666
0.361517 0.101335 0.838666
0.527367 0.101335 0.838666
0.692515 0.101335 0.838666
0.838666 0.101335 0.838666
0.943893 0.101335 0.838666
1 0.101335 0.838666
0 0.212924 0.838666
0.101335 0.212924 0.838666
0.212924 0.212924 0.838666
0.361517 0.212924 0.838666
0.527367 0.212924 0.838666
0.692515 0.212924 0.838666
0.838666 0.212924 0.838666
0.943893 0.212924 0.838666
1 0.212924 0.838666
0 0.361517 0.838666
0.101335 0.361517 0.838666
0.212924 0.361517 0.838666
0.361517 0.361517 0.838666
0.527367 0.361517 0.838666
0.692515 0.361517 0.838666
0.838666 0.361517 0.838666
0.943893 0.361517 0.838666
1 0.361517 0.838666
0 0.527367 0.838666
0.101335 0.527367 0.838666
0.212924 0.527367 0.838666
0.361517 0.527367 0.838666
0.527367 0.527367 0.838666
0.692515 0.527367 0.838666
0.838666 0.527367 0.838666
0.943893 0.527367 0.838666
1 0.527367 0.838666
0 0.692515 0.838666
0.101335 0.692515 0.838666
0.212924 0.692515 0.838666
0.361517 0.692515 0.838666
0.527367 0.692515 0.838666
0.692515 0.692515 0.838666
0.838666 0.692515 0.838666
0.943893 0.692515 0.838666
1 0.692515 0.838666
0 0.838666 0.838666
0.101335 0.838666 0.838666
0.212924 0.838666 0.838666
0.361517 0.838666 0.838666
0.527367 0.838666 0.838666
0.692515 0.838666 0.838666
0.838666 0.838666 0.838666
0.943893 0.838666 0.838666
1 0.838666 0.838666
0 0.943893 0.838666
0.101335 0.943893 0.838666
0.212924 0.943893 0.838666
0.361517 0.943893 0.838666
0.527367 0.943893 0.838666
0.692515 0.943893 0.838666
0.838666 0.943893 0.838666
0.943893 0.943893 0.838666
1 0.943893 0.838666
0 1 0.838666
0.101335 1 0.838666
0.212924 1 0.838666
0.361517 1 0.838666
0.527367 1 0.838666
0.692515 1 0.838666
0.838666 1 0.838666
0.943893 1 0.838666
1 1 0.838666
0 0 0.943893
0.101335 0 0.943893
0.212924 0 0.943893
0.361517 0 0.943893
0.527367 0 0.943893
0.692515 0 0.943893
0.838666 0 0.943893
0.943893 0 0.943893
1 0 0.943893
0 0.101335 0.943893
0.101335 0.101335 0.943893
0.212924 0.101335 0.943893
0.361517 0.101335 0.943893
0.527367 0.101335 0.943893
0.692515 0.101335 0.943893
0.838666 0.101335 0.943893
0.943893 0.101335 0.943893
1 0.101335 0.943893
0 0.212924 0.943893
0.101335 0.212924 0.943893
0.212924 0.212924 0.943893
0.361517 0.212924 0.943893
0.527367 0.212924 0.943893
0.692515 0.212924 0.943893
0.838666 0.212924 0.943893
0.943893 0.212924 0.943893
1 0.212924 0.943893
0 0.361517 0.943893
0.101335 0.361517 0.943893
0.212924 0.361517 0.943893
0.361517 0.361517 0.943893
0.527367 0.361517 0.943893
0.692515 0.361517 0.943893
0.838666 0.361517 0.943893
0.943893 0.361517 0.943893
1 0.361517 0.943893
0 0.527367 0.943893
0.101335 0.527367 0.943893
0.212924 0.527367 0.943893
0.361517 0.527367 0.943893
0.527367 0.527367 0.943893
0.692515 0.527367 0.943893
0.838666 0.527367 0.943893
0.943893 0.527367 0.943893
1 0.527367 0.943893
0 0.692515 0.943893
0.101335 0.692515 0.943893
0.212924 0.692515 0.943893
0.361517 0.692515 0.943893
0.527367 0.692515 0.943893
0.692515 0.692515 0.943893
0.838666 0.692515 0.943893
0.943893 0.692515 0.943893
1 0.692515 0.943893
0 0.838666 0.943893
0.101335 0.838666 0.943893
0.212924 0.838666 0.943893
0.361517 0.838666 0.943893
0.527367 0.838666 0.943893
0.692515 0.838666 0.943893
0.838666 0.838666 0.943893
0.943893 0.838666 0.943893
1 0.838666 0.943893
0 0.943893 0.943893
0.101335 0.943893 0.943893
0.212924 0.943893 0.943893
0.361517 0.943893 0.943893
0.527367 0.943893 0.943893
0.692515 0.943893 0.943893
0.838666 0.943893 0.943893
0.943893 0.943893 0.943893
1 0.943893 0.943893
0 1 0.943893
0.101335 1 0.943893
0.212924 1 0.943893
0.361517 1 0.943893
0.527367 1 0.943893
0.692515 1 0.943893
0.838666 1 0.943893
0.943893 1 0.943893
1 1 0.943893
0 0 1
0.101335 0 1
0.212924 0 1
0.361517 0 1
0.527367 0 1
0.692515 0 1
0.838666 0 1
0.943893 0 1
1 0 1
0 0.101335 1
0.101335 0.101335 1
0.212924 0.101335 1
0.361517 0.101335 1
0.527367 0.101335 1
0.692515 0.101335 1
0.838666 0.101335 1
0.943893 0.101335 1
1 0.101335 1
0 0.212924 1
0.101335 0.212924 1
0.212924 0.212924 1
0.361517 0.212924 1
0.527367 0.212924 1
0.692515 0.212924 1
0.838666 0.212924 1
0.943893 0.212924 1
1 0.212924 1
0 0.361517 1
0.101335 0.361517 1
0.212924 0.361517 1
0.361517 0.361517 1
0.527367 0.361517 1
0.692515 0.361517 1
0.838666 0.361517 1
0.943893 0.361517 1
1 0.361517 1
0 0.527367 1
0.101335 0.527367 1
0.212924 0.527367 1
0.361517 0.527367 1
0.527367 0.527367 1
0.692515 0.527367 1
0.838666 0.527367 1
0.943893 0.527367 1
1 0.527367 1
0 0.692515 1
0.101335 0.692515 1
0.212924 0.692515 1
0.361517 0.692515 1
0.527367 0.692515 1
0.692515 0.692515 1
0.838666 0.692515 1
0.943893 0.692515 1
1 0.692515 1
0 0.838666 1
0.101335 0.838666 1
0.212924 0.838666 1
0.361517 0.838666 1
0.527367 0.838666 1
0.692515 0.838666 1
0.838666 0.838666 1
0.943893 0.838666 1
1 0.838666 1
0 0.943893 1
0.101335 0.943893 1
0.212924 0.943893 1
0.361517 0.943893 1
0.527367 0.943893 1
0.692515 0.943893 1
0.838666 0.943893 1
0.943893 0.943893 1
1 0.943893 1
0 1 1
0.101335 1 1
0.212924 1 1
0.361517 1 1
0.527367 1 1
0.692515 1 1
0.838666 1 1
0.943893 1 1
1 1 1
