resources/LogC3_Blackmagic Design Pocket 6K Film Gen4.cube
TITLE "Generated by Resolve"
LUT_3D_SIZE 33
0 0 0
0.018555 0 0
0.0462043 0 0
0.0738842 0 0
0.101335 0 0
0.126223 0 0
0.152117 0 0
0.181094 0 0
0.212924 0 0
0.247257 0 0
0.283726 0 0
0.321935 0 0
0.361517 0 0
0.402152 0 0
0.443519 0 0
0.485328 0 0
0.527367 0 0
0.569345 0 0
0.611048 0 0
0.652201 0 0
0.692515 0 0
0.73167 0 0
0.769345 0 0
0.805127 0 0
0.838666 0 0
0.869566 0 0
0.897536 0 0
0.922347 0 0
0.943893 0 0
0.962219 0 0
0.977478 0 0
0.98996 0 0
1 0 0
0 0.018555 0
0.018555 0.018555 0
0.0462043 0.018555 0
0.0738842 0.018555 0
0.101335 0.018555 0
0.126223 0.018555 0
0.152117 0.018555 0
0.181094 0.018555 0
0.212924 0.018555 0
0.247257 0.018555 0
0.283726 0.018555 0
0.321935 0.018555 0
0.361517 0.018555 0
0.402152 0.018555 0
0.443519 0.018555 0
0.485328 0.018555 0
0.527367 0.018555 0
0.569345 0.018555 0
0.611048 0.018555 0
0.652201 0.018555 0
0.692515 0.018555 0
0.73167 0.018555 0
0.769345 0.018555 0
0.805127 0.018555 0
0.838666 0.018555 0
0.869566 0.018555 0
0.897536 0.018555 0
0.922347 0.018555 0
0.943893 0.018555 0
0.962219 0.018555 0
0.977478 0.018555 0
0.98996 0.018555 0
1 0.018555 0
0 0.0462043 0
0.018555 0.0462043 0
0.0462043 0.0462043 0
0.0738842 0.0462043 0
0.101335 0.0462043 0
0.126223 0.0462043 0
0.152117 0.0462043 0
0.181094 0.0462043 0
0.212924 0.0462043 0
0.247257 0.0462043 0
0.283726 0.0462043 0
0.321935 0.0462043 0
0.361517 0.0462043 0
0.402152 0.0462043 0
0.443519 0.0462043 0
0.485328 0.0462043 0
0.527367 0.0462043 0
0.569345 0.0462043 0
0.611048 0.0462043 0
0.652201 0.0462043 0
0.692515 0.0462043 0
0.73167 0.0462043 0
0.769345 0.0462043 0
0.805127 0.0462043 0
0.838666 0.0462043 0
0.869566 0.0462043 0
0.897536 0.0462043 0
0.922347 0.0462043 0
0.943893 0.0462043 0
0.962219 0.0462043 0
0.977478 0.0462043 0
0.98996 0.0462043 0
1 0.0462043 0
0 0.0738842 0
0.018555 0.0738842 0
0.0462043 0.0738842 0
0.0738842 0.0738842 0
0.101335 0.0738842 0
0.126223 0.0738842 0
0.152117 0.0738842 0
0.181094 0.0738842 0
0.212924 0.0738842 0
0.247257 0.0738842 0
0.283726 0.0738842 0
0.321935 0.0738842 0
0.361517 0.0738842 0
0.402152 0.0738842 0
0.443519 0.0738842 0
0.485328 0.0738842 0
0.527367 0.0738842 0
0.569345 0.0738842 0
0.611048 0.0738842 0
0.652201 0.0738842 0
0.692515 0.0738842 0
0.73167 0.0738842 0
0.769345 0.0738842 0
0.805127 0.0738842 0
0.838666 0.0738842 0
0.869566 0.0738842 0
0.897536 0.0738842 0
0.922347 0.0738842 0
0.943893 0.0738842 0
0.962219 0.0738842 0
0.977478 0.0738842 0
0.98996 0.0738842 0
1 0.0738842 0
0 0.101335 0
0.018555 0.101335 0
0.0462043 0.101335 0
0.0738842 0.101335 0
0.101335 0.101335 0
0.126223 0.101335 0
0.152117 0.101335 0
0.181094 0.101335 0
0.212924 0.101335 0
0.247257 0.101335 0
0.283726 0.101335 0
0.321935 0.101335 0
0.361517 0.101335 0
0.402152 0.101335 0
0.443519 0.101335 0
0.485328 0.101335 0
0.527367 0.101335 0
0.569345 0.101335 0
0.611048 0.101335 0
0.652201 0.101335 0
0.692515 0.101335 0
0.73167 0.101335 0
0.769345 0.101335 0
0.805127 0.101335 0
0.838666 0.101335 0
0.869566 0.101335 0
0.897536 0.101335 0
0.922347 0.101335 0
0.943893 0.101335 0
0.962219 0.101335 0
0.977478 0.101335 0
0.98996 0.101335 0
1 0.101335 0
0 0.126223 0
0.018555 0.126223 0
0.0462043 0.126223 0
0.0738842 0.126223 0
0.101335 0.126223 0
0.126223 0.126223 0
0.152117 0.126223 0
0.181094 0.126223 0
0.212924 0.126223 0
0.247257 0.126223 0
0.283726 0.126223 0
0.321935 0.126223 0
0.361517 0.126223 0
0.402152 0.126223 0
0.443519 0.126223 0
0.485328 0.126223 0
0.527367 0.126223 0
0.569345 0.126223 0
0.611048 0.126223 0
0.652201 0.126223 0
0.692515 0.126223 0
0.73167 0.126223 0
0.769345 0.126223 0
0.805127 0.126223 0
0.838666 0.126223 0
0.869566 0.126223 0
0.897536 0.126223 0
0.922347 0.126223 0
0.943893 0.126223 0
0.962219 0.126223 0
0.977478 0.126223 0
0.98996 0.126223 0
1 0.126223 0
0 0.152117 0
0.018555 0.152117 0
0.0462043 0.152117 0
0.0738842 0.152117 0
0.101335 0.152117 0
0.126223 0.152117 0
0.152117 0.152117 0
0.181094 0.152117 0
0.212924 0.152117 0
0.247257 0.152117 0
0.283726 0.152117 0
0.321935 0.152117 0
0.361517 0.152117 0
0.402152 0.152117 0
0.443519 0.152117 0
0.485328 0.152117 0
0.527367 0.152117 0
0.569345 0.152117 0
0.611048 0.152117 0
0.652201 0.152117 0
0.692515 0.152117 0
0.73167 0.152117 0
0.769345 0.152117 0
0.805127 0.152117 0
0.838666 0.152117 0
0.869566 0.152117 0
0.897536 0.152117 0
0.922347 0.152117 0
0.943893 0.152117 0
0.962219 0.152117 0
0.977478 0.152117 0
0.98996 0.152117 0
1 0.152117 0
0 0.181094 0
0.018555 0.181094 0
0.0462043 0.181094 0
0.0738842 0.181094 0
0.101335 0.181094 0
0.126223 0.181094 0
0.152117 0.181094 0
0.181094 0.181094 0
0.212924 0.181094 0
0.247257 0.181094 0
0.283726 0.181094 0
0.321935 0.181094 0
0.361517 0.181094 0
0.402152 0.181094 0
0.443519 0.181094 0
0.485328 0.181094 0
0.527367 0.181094 0
0.569345 0.181094 0
0.611048 0.181094 0
0.652201 0.181094 0
0.692515 0.181094 0
0.73167 0.181094 0
0.769345 0.181094 0
0.805127 0.181094 0
0.838666 0.181094 0
0.869566 0.181094 0
0.897536 0.181094 0
0.922347 0.181094 0
0.943893 0.181094 0
0.962219 0.181094 0
0.977478 0.181094 0
0.98996 0.181094 0
1 0.181094 0
0 0.212924 0
0.018555 0.212924 0
0.0462043 0.212924 0
0.0738842 0.212924 0
0.101335 0.212924 0
0.126223 0.212924 0
0.152117 0.212924 0
0.181094 0.212924 0
0.212924 0.212924 0
0.247257 0.212924 0
0.283726 0.212924 0
0.321935 0.212924 0
0.361517 0.212924 0
0.402152 0.212924 0
0.443519 0.212924 0
0.485328 0.212924 0
0.527367 0.212924 0
0.569345 0.212924 0
0.611048 0.212924 0
0.652201 0.212924 0
0.692515 0.212924 0
0.73167 0.212924 0
0.769345 0.212924 0
0.805127 0.212924 0
0.838666 0.212924 0
0.869566 0.212924 0
0.897536 0.212924 0
0.922347 0.212924 0
0.943893 0.212924 0
0.962219 0.212924 0
0.977478 0.212924 0
0.98996 0.212924 0
1 0.212924 0
0 0.247257 0
0.018555 0.247257 0
0.0462043 0.247257 0
0.0738842 0.247257 0
0.101335 0.247257 0
0.126223 0.247257 0
0.152117 0.247257 0
0.181094 0.247257 0
0.212924 0.247257 0
0.247257 0.247257 0
0.283726 0.247257 0
0.321935 0.247257 0
0.361517 0.247257 0
0.402152 0.247257 0
0.443519 0.247257 0
0.485328 0.247257 0
0.527367 0.247257 0
0.569345 0.247257 0
0.611048 0.247257 0
0.652201 0.247257 0
0.692515 0.247257 0
0.73167 0.247257 0
0.769345 0.247257 0
0.805127 0.247257 0
0.838666 0.247257 0
0.869566 0.247257 0
0.897536 0.247257 0
0.922347 0.247257 0
0.943893 0.247257 0
0.962219 0.247257 0
0.977478 0.247257 0
0.98996 0.247257 0
1 0.247257 0
0 0.283726 0
0.018555 0.283726 0
0.0462043 0.283726 0
0.0738842 0.283726 0
0.101335 0.283726 0
0.126223 0.283726 0
0.152117 0.283726 0
0.181094 0.283726 0
0.212924 0.283726 0
0.247257 0.283726 0
0.283726 0.283726 0
0.321935 0.283726 0
0.361517 0.283726 0
0.402152 0.283726 0
0.443519 0.283726 0
0.485328 0.283726 0
0.527367 0.283726 0
0.569345 0.283726 0
0.611048 0.283726 0
0.652201 0.283726 0
0.692515 0.283726 0
0.73167 0.283726 0
0.769345 0.283726 0
0.805127 0.283726 0
0.838666 0.283726 0
0.869566 0.283726 0
0.897536 0.283726 0
0.922347 0.283726 0
0.943893 0.283726 0
0.962219 0.283726 0
0.977478 0.283726 0
0.98996 0.283726 0
1 0.283726 0
0 0.321935 0
0.018555 0.321935 0
0.0462043 0.321935 0
0.0738842 0.321935 0
0.101335 0.321935 0
0.126223 0.321935 0
0.152117 0.321935 0
0.181094 0.321935 0
0.212924 0.321935 0
0.247257 0.321935 0
0.283726 0.321935 0
0.321935 0.321935 0
0.361517 0.321935 0
0.402152 0.321935 0
0.443519 0.321935 0
0.485328 0.321935 0
0.527367 0.321935 0
0.569345 0.321935 0
0.611048 0.321935 0
0.652201 0.321935 0
0.692515 0.321935 0
0.73167 0.321935 0
0.769345 0.321935 0
0.805127 0.321935 0
0.838666 0.321935 0
0.869566 0.321935 0
0.897536 0.321935 0
0.922347 0.321935 0
0.943893 0.321935 0
0.962219 0.321935 0
0.977478 0.321935 0
0.98996 0.321935 0
1 0.321935 0
0 0.361517 0
0.018555 0.361517 0
0.0462043 0.361517 0
0.0738842 0.361517 0
0.101335 0.361517 0
0.126223 0.361517 0
0.152117 0.361517 0
0.181094 0.361517 0
0.212924 0.361517 0
0.247257 0.361517 0
0.283726 0.361517 0
0.321935 0.361517 0
0.361517 0.361517 0
0.402152 0.361517 0
0.443519 0.361517 0
0.485328 0.361517 0
0.527367 0.361517 0
0.569345 0.361517 0
0.611048 0.361517 0
0.652201 0.361517 0
0.692515 0.361517 0
0.73167 0.361517 0
0.769345 0.361517 0
0.805127 0.361517 0
0.838666 0.361517 0
0.869566 0.361517 0
0.897536 0.361517 0
0.922347 0.361517 0
0.943893 0.361517 0
0.962219 0.361517 0
0.977478 0.361517 0
0.98996 0.361517 0
1 0.361517 0
0 0.402152 0
0.018555 0.402152 0
0.0462043 0.402152 0
0.0738842 0.402152 0
0.101335 0.402152 0
0.126223 0.402152 0
0.152117 0.402152 0
0.181094 0.402152 0
0.212924 0.402152 0
0.247257 0.402152 0
0.283726 0.402152 0
0.321935 0.402152 0
0.361517 0.402152 0
0.402152 0.402152 0
0.443519 0.402152 0
0.485328 0.402152 0
0.527367 0.402152 0
0.569345 0.402152 0
0.611048 0.402152 0
0.652201 0.402152 0
0.692515 0.402152 0
0.73167 0.402152 0
0.769345 0.402152 0
0.805127 0.402152 0
0.838666 0.402152 0
0.869566 0.402152 0
0.897536 0.402152 0
0.922347 0.402152 0
0.943893 0.402152 0
0.962219 0.402152 0
0.977478 0.402152 0
0.98996 0.402152 0
1 0.402152 0
0 0.443519 0
0.018555 0.443519 0
0.0462043 0.443519 0
0.0738842 0.443519 0
0.101335 0.443519 0
0.126223 0.443519 0
0.152117 0.443519 0
0.181094 0.443519 0
0.212924 0.443519 0
0.247257 0.443519 0
0.283726 0.443519 0
0.321935 0.443519 0
0.361517 0.443519 0
0.402152 0.443519 0
0.443519 0.443519 0
0.485328 0.443519 0
0.527367 0.443519 0
0.569345 0.443519 0
0.611048 0.443519 0
0.652201 0.443519 0
0.692515 0.443519 0
0.73167 0.443519 0
0.769345 0.443519 0
0.805127 0.443519 0
0.838666 0.443519 0
0.869566 0.443519 0
0.897536 0.443519 0
0.922347 0.443519 0
0.943893 0.443519 0
0.962219 0.443519 0
0.977478 0.443519 0
0.98996 0.443519 0
1 0.443519 0
0 0.485328 0
0.018555 0.485328 0
0.0462043 0.485328 0
0.0738842 0.485328 0
0.101335 0.485328 0
0.126223 0.485328 0
0.152117 0.485328 0
0.181094 0.485328 0
0.212924 0.485328 0
0.247257 0.485328 0
0.283726 0.485328 0
0.321935 0.485328 0
0.361517 0.485328 0
0.402152 0.485328 0
0.443519 0.485328 0
0.485328 0.485328 0
0.527367 0.485328 0
0.569345 0.485328 0
0.611048 0.485328 0
0.652201 0.485328 0
0.692515 0.485328 0
0.73167 0.485328 0
0.769345 0.485328 0
0.805127 0.485328 0
0.838666 0.485328 0
0.869566 0.485328 0
0.897536 0.485328 0
0.922347 0.485328 0
0.943893 0.485328 0
0.962219 0.485328 0
0.977478 0.485328 0
0.98996 0.485328 0
1 0.485328 0
0 0.527367 0
0.018555 0.527367 0
0.0462043 0.527367 0
0.0738842 0.527367 0
0.101335 0.527367 0
0.126223 0.527367 0
0.152117 0.527367 0
0.181094 0.527367 0
0.212924 0.527367 0
0.247257 0.527367 0
0.283726 0.527367 0
0.321935 0.527367 0
0.361517 0.527367 0
0.402152 0.527367 0
0.443519 0.527367 0
0.485328 0.527367 0
0.527367 0.527367 0
0.569345 0.527367 0
0.611048 0.527367 0
0.652201 0.527367 0
0.692515 0.527367 0
0.73167 0.527367 0
0.769345 0.527367 0
0.805127 0.527367 0
0.838666 0.527367 0
0.869566 0.527367 0
0.897536 0.527367 0
0.922347 0.527367 0
0.943893 0.527367 0
0.962219 0.527367 0
0.977478 0.527367 0
0.98996 0.527367 0
1 0.527367 0
0 0.569345 0
0.018555 0.569345 0
0.0462043 0.569345 0
0.0738842 0.569345 0
0.101335 0.569345 0
0.126223 0.569345 0
0.152117 0.569345 0
0.181094 0.569345 0
0.212924 0.569345 0
0.247257 0.569345 0
0.283726 0.569345 0
0.321935 0.569345 0
0.361517 0.569345 0
0.402152 0.569345 0
0.443519 0.569345 0
0.485328 0.569345 0
0.527367 0.569345 0
0.569345 0.569345 0
0.611048 0.569345 0
0.652201 0.569345 0
0.692515 0.569345 0
0.73167 0.569345 0
0.769345 0.569345 0
0.805127 0.569345 0
0.838666 0.569345 0
0.869566 0.569345 0
0.897536 0.569345 0
0.922347 0.569345 0
0.943893 0.569345 0
0.962219 0.569345 0
0.977478 0.569345 0
0.98996 0.569345 0
1 0.569345 0
0 0.611048 0
0.018555 0.611048 0
0.0462043 0.611048 0
0.0738842 0.611048 0
0.101335 0.611048 0
0.126223 0.611048 0
0.152117 0.611048 0
0.181094 0.611048 0
0.212924 0.611048 0
0.247257 0.611048 0
0.283726 0.611048 0
0.321935 0.611048 0
0.361517 0.611048 0
0.402152 0.611048 0
0.443519 0.611048 0
0.485328 0.611048 0
0.527367 0.611048 0
0.569345 0.611048 0
0.611048 0.611048 0
0.652201 0.611048 0
0.692515 0.611048 0
0.73167 0.611048 0
0.769345 0.611048 0
0.805127 0.611048 0
0.838666 0.611048 0
0.869566 0.611048 0
0.897536 0.611048 0
0.922347 0.611048 0
0.943893 0.611048 0
0.962219 0.611048 0
0.977478 0.611048 0
0.98996 0.611048 0
1 0.611048 0
0 0.652201 0
0.018555 0.652201 0
0.0462043 0.652201 0
0.0738842 0.652201 0
0.101335 0.652201 0
0.126223 0.652201 0
0.152117 0.652201 0
0.181094 0.652201 0
0.212924 0.652201 0
0.247257 0.652201 0
0.283726 0.652201 0
0.321935 0.652201 0
0.361517 0.652201 0
0.402152 0.652201 0
0.443519 0.652201 0
0.485328 0.652201 0
0.527367 0.652201 0
0.569345 0.652201 0
0.611048 0.652201 0
0.652201 0.652201 0
0.692515 0.652201 0
0.73167 0.652201 0
0.769345 0.652201 0
0.805127 0.652201 0
0.838666 0.652201 0
0.869566 0.652201 0
0.897536 0.652201 0
0.922347 0.652201 0
0.943893 0.652201 0
0.962219 0.652201 0
0.977478 0.652201 0
0.98996 0.652201 0
1 0.652201 0
0 0.692515 0
0.018555 0.692515 0
0.0462043 0.692515 0
0.0738842 0.692515 0
0.101335 0.692515 0
0.126223 0.692515 0
0.152117 0.692515 0
0.181094 0.692515 0
0.212924 0.692515 0
0.247257 0.692515 0
0.283726 0.692515 0
0.321935 0.692515 0
0.361517 0.692515 0
0.402152 0.692515 0
0.443519 0.692515 0
0.485328 0.692515 0
0.527367 0.692515 0
0.569345 0.692515 0
0.611048 0.692515 0
0.652201 0.692515 0
0.692515 0.692515 0
0.73167 0.692515 0
0.769345 0.692515 0
0.805127 0.692515 0
0.838666 0.692515 0
0.869566 0.692515 0
0.897536 0.692515 0
0.922347 0.692515 0
0.943893 0.692515 0
0.962219 0.692515 0
0.977478 0.692515 0
0.98996 0.692515 0
1 0.692515 0
0 0.73167 0
0.018555 0.73167 0
0.0462043 0.73167 0
0.0738842 0.73167 0
0.101335 0.73167 0
0.126223 0.73167 0
0.152117 0.73167 0
0.181094 0.73167 0
0.212924 0.73167 0
0.247257 0.73167 0
0.283726 0.73167 0
0.321935 0.73167 0
0.361517 0.73167 0
0.402152 0.73167 0
0.443519 0.73167 0
0.485328 0.73167 0
0.527367 0.73167 0
0.569345 0.73167 0
0.611048 0.73167 0
0.652201 0.73167 0
0.692515 0.73167 0
0.73167 0.73167 0
0.769345 0.73167 0
0.805127 0.73167 0
0.838666 0.73167 0
0.869566 0.73167 0
0.897536 0.73167 0
0.922347 0.73167 0
0.943893 0.73167 0
0.962219 0.73167 0
0.977478 0.73167 0
0.98996 0.73167 0
1 0.73167 0
0 0.769345 0
0.018555 0.769345 0
0.0462043 0.769345 0
0.0738842 0.769345 0
0.101335 0.769345 0
0.126223 0.769345 0
0.152117 0.769345 0
0.181094 0.769345 0
0.212924 0.769345 0
0.247257 0.769345 0
0.283726 0.769345 0
0.321935 0.769345 0
0.361517 0.769345 0
0.402152 0.769345 0
0.443519 0.769345 0
0.485328 0.769345 0
0.527367 0.769345 0
0.569345 0.769345 0
0.611048 0.769345 0
0.652201 0.769345 0
0.692515 0.769345 0
0.73167 0.769345 0
0.769345 0.769345 0
0.805127 0.769345 0
0.838666 0.769345 0
0.869566 0.769345 0
0.897536 0.769345 0
0.922347 0.769345 0
0.943893 0.769345 0
0.962219 0.769345 0
0.977478 0.769345 0
0.98996 0.769345 0
1 0.769345 0
0 0.805127 0
0.018555 0.805127 0
0.0462043 0.805127 0
0.0738842 0.805127 0
0.101335 0.805127 0
0.126223 0.805127 0
0.152117 0.805127 0
0.181094 0.805127 0
0.212924 0.805127 0
0.247257 0.805127 0
0.283726 0.805127 0
0.321935 0.805127 0
0.361517 0.805127 0
0.402152 0.805127 0
0.443519 0.805127 0
0.485328 0.805127 0
0.527367 0.805127 0
0.569345 0.805127 0
0.611048 0.805127 0
0.652201 0.805127 0
0.692515 0.805127 0
0.73167 0.805127 0
0.769345 0.805127 0
0.805127 0.805127 0
0.838666 0.805127 0
0.869566 0.805127 0
0.897536 0.805127 0
0.922347 0.805127 0
0.943893 0.805127 0
0.962219 0.805127 0
0.977478 0.805127 0
0.98996 0.805127 0
1 0.805127 0
0 0.838666 0
0.018555 0.838666 0
0.0462043 0.838666 0
0.0738842 0.838666 0
0.101335 0.838666 0
0.126223 0.838666 0
0.152117 0.838666 0
0.181094 0.838666 0
0.212924 0.838666 0
0.247257 0.838666 0
0.283726 0.838666 0
0.321935 0.838666 0
0.361517 0.838666 0
0.402152 0.838666 0
0.443519 0.838666 0
0.485328 0.838666 0
0.527367 0.838666 0
0.569345 0.838666 0
0.611048 0.838666 0
0.652201 0.838666 0
0.692515 0.838666 0
0.73167 0.838666 0
0.769345 0.838666 0
0.805127 0.838666 0
0.838666 0.838666 0
0.869566 0.838666 0
0.897536 0.838666 0
0.922347 0.838666 0
0.943893 0.838666 0
0.962219 0.838666 0
0.977478 0.838666 0
0.98996 0.838666 0
1 0.838666 0
0 0.869566 0
0.018555 0.869566 0
0.0462043 0.869566 0
0.0738842 0.869566 0
0.101335 0.869566 0
0.126223 0.869566 0
0.152117 0.869566 0
0.181094 0.869566 0
0.212924 0.869566 0
0.247257 0.869566 0
0.283726 0.869566 0
0.321935 0.869566 0
0.361517 0.869566 0
0.402152 0.869566 0
0.443519 0.869566 0
0.485328 0.869566 0
0.527367 0.869566 0
0.569345 0.869566 0
0.611048 0.869566 0
0.652201 0.869566 0
0.692515 0.869566 0
0.73167 0.869566 0
0.769345 0.869566 0
0.805127 0.869566 0
0.838666 0.869566 0
0.869566 0.869566 0
0.897536 0.869566 0
0.922347 0.869566 0
0.943893 0.869566 0
0.962219 0.869566 0
0.977478 0.869566 0
0.98996 0.869566 0
1 0.869566 0
0 0.897536 0
0.018555 0.897536 0
0.0462043 0.897536 0
0.0738842 0.897536 0
0.101335 0.897536 0
0.126223 0.897536 0
0.152117 0.897536 0
0.181094 0.897536 0
0.212924 0.897536 0
0.247257 0.897536 0
0.283726 0.897536 0
0.321935 0.897536 0
0.361517 0.897536 0
0.402152 0.897536 0
0.443519 0.897536 0
0.485328 0.897536 0
0.527367 0.897536 0
0.569345 0.897536 0
0.611048 0.897536 0
0.652201 0.897536 0
0.692515 0.897536 0
0.73167 0.897536 0
0.769345 0.897536 0
0.805127 0.897536 0
0.838666 0.897536 0
0.869566 0.897536 0
0.897536 0.897536 0
0.922347 0.897536 0
0.943893 0.897536 0
0.962219 0.897536 0
0.977478 0.897536 0
0.98996 0.897536 0
1 0.897536 0
0 0.922347 0
0.018555 0.922347 0
0.0462043 0.922347 0
0.0738842 0.922347 0
0.101335 0.922347 0
0.126223 0.922347 0
0.152117 0.922347 0
0.181094 0.922347 0
0.212924 0.922347 0
