resources/LogC3_Blackmagic Design Film Gen 5.cube
TITLE "Generated by Resolve"
LUT_3D_SIZE 9
0 0 0
0.141711 0 0
0.264179 0 0
0.370367 0 0
0.473472 0 0
0.576532 0 0
0.682506 0 0
0.800443 0 0
1 0 0
0 0.141711 0
0.141711 0.141711 0
0.264179 0.141711 0
0.370367 0.141711 0
0.473472 0.141711 0
0.576532 0.141711 0
0.682506 0.141711 0
0.800443 0.141711 0
1 0.141711 0
0 0.264179 0
0.141711 0.264179 0
0.264179 0.264179 0
0.370367 0.264179 0
0.473472 0.264179 0
0.576532 0.264179 0
0.682506 0.264179 0
0.800443 0.264179 0
1 0.264179 0
0 0.370367 0
0.141711 0.370367 0
0.264179 0.370367 0
0.370367 0.370367 0
0.473472 0.370367 0
0.576532 0.370367 0
0.682506 0.370367 0
0.800443 0.370367 0
1 0.370367 0
0 0.473472 0
0.141711 0.473472 0
0.264179 0.473472 0
0.370367 0.473472 0
0.473472 0.473472 0
0.576532 0.473472 0
0.682506 0.473472 0
0.800443 0.473472 0
1 0.473472 0
0 0.576532 0
0.141711 0.576532 0
0.264179 0.576532 0
0.370367 0.576532 0
0.473472 0.576532 0
0.576532 0.576532 0
0.682506 0.576532 0
0.800443 0.576532 0
1 0.576532 0
0 0.682506 0
0.141711 0.682506 0
0.264179 0.682506 0
0.370367 0.682506 0
0.473472 0.682506 0
0.576532 0.682506 0
0.682506 0.682506 0
0.800443 0.682506 0
1 0.682506 0
0 0.800443 0
0.141711 0.800443 0
0.264179 0.800443 0
0.370367 0.800443 0
0.473472 0.800443 0
0.576532 0.800443 0
0.682506 0.800443 0
0.800443 0.800443 0
1 0.800443 0
0 1 0
0.141711 1 0
0.264179 1 0
0.370367 1 0
0.473472 1 0
0.576532 1 0
0.682506 1 0
0.800443 1 0
1 1 0
0 0 0.141711
0.141711 0 0.141711
0.264179 0 0.141711
0.370367 0 0.141711
0.473472 0 0.141711
0.576532 0 0.141711
0.682506 0 0.141711
0.800443 0 0.141711
1 0 0.141711
0 0.141711 0.141711
0.141711 0.141711 0.141711
0.264179 0.141711 0.141711
0.370367 0.141711 0.141711
0.473472 0.141711 0.141711
0.576532 0.141711 0.141711
0.682506 0.141711 0.141711
0.800443 0.141711 0.141711
1 0.141711 0.141711
0 0.264179 0.141711
0.141711 0.264179 0.141711
0.264179 0.264179 0.141711
0.370367 0.264179 0.141711
0.473472 0.264179 0.141711
0.576532 0.264179 0.141711
0.682506 0.264179 0.141711
0.800443 0.264179 0.141711
1 0.264179 0.141711
0 0.370367 0.141711
0.141711 0.370367 0.141711
0.264179 0.370367 0.141711
0.370367 0.370367 0.141711
0.473472 0.370367 0.141711
0.576532 0.370367 0.141711
0.682506 0.370367 0.141711
0.800443 0.370367 0.141711
1 0.370367 0.141711
0 0.473472 0.141711
0.141711 0.473472 0.141711
0.264179 0.473472 0.141711
0.370367 0.473472 0.141711
0.473472 0.473472 0.141711
0.576532 0.473472 0.141711
0.682506 0.473472 0.141711
0.800443 0.473472 0.141711
1 0.473472 0.141711
0 0.576532 0.141711
0.141711 0.576532 0.141711
0.264179 0.576532 0.141711
0.370367 0.576532 0.141711
0.473472 0.576532 0.141711
0.576532 0.576532 0.141711
0.682506 0.576532 0.141711
0.800443 0.576532 0.141711
1 0.576532 0.141711
0 0.682506 0.141711
0.141711 0.682506 0.141711
0.264179 0.682506 0.141711
0.370367 0.682506 0.141711
0.473472 0.682506 0.141711
0.576532 0.682506 0.141711
0.682506 0.682506 0.141711
0.800443 0.682506 0.141711
1 0.682506 0.141711
0 0.800443 0.141711
0.141711 0.800443 0.141711
0.264179 0.800443 0.141711
0.370367 0.800443 0.141711
0.473472 0.800443 0.141711
0.576532 0.800443 0.141711
0.682506 0.800443 0.141711
0.800443 0.800443 0.141711
1 0.800443 0.141711
0 1 0.141711
0.141711 1 0.141711
0.264179 1 0.141711
0.370367 1 0.141711
0.473472 1 0.141711
0.576532 1 0.141711
0.682506 1 0.141711
0.800443 1 0.141711
1 1 0.141711
0 0 0.264179
0.141711 0 0.264179
0.264179 0 0.264179
0.370367 0 0.264179
0.473472 0 0.264179
0.576532 0 0.264179
0.682506 0 0.264179
0.800443 0 0.264179
1 0 0.264179
0 0.141711 0.264179
0.141711 0.141711 0.264179
0.264179 0.141711 0.264179
0.370367 0.141711 0.264179
0.473472 0.141711 0.264179
0.576532 0.141711 0.264179
0.682506 0.141711 0.264179
0.800443 0.141711 0.264179
1 0.141711 0.264179
0 0.264179 0.264179
0.141711 0.264179 0.264179
0.264179 0.264179 0.264179
0.370367 0.264179 0.264179
0.473472 0.264179 0.264179
0.576532 0.264179 0.264179
0.682506 0.264179 0.264179
0.800443 0.264179 0.264179
1 0.264179 0.264179
0 0.370367 0.264179
0.141711 0.370367 0.264179
0.264179 0.370367 0.264179
0.370367 0.370367 0.264179
0.473472 0.370367 0.264179
0.576532 0.370367 0.264179
0.682506 0.370367 0.264179
0.800443 0.370367 0.264179
1 0.370367 0.264179
0 0.473472 0.264179
0.141711 0.473472 0.264179
0.264179 0.473472 0.264179
0.370367 0.473472 0.264179
0.473472 0.473472 0.264179
0.576532 0.473472 0.264179
0.682506 0.473472 0.264179
0.800443 0.473472 0.264179
1 0.473472 0.264179
0 0.576532 0.264179
0.141711 0.576532 0.264179
0.264179 0.576532 0.264179
0.370367 0.576532 0.264179
0.473472 0.576532 0.264179
0.576532 0.576532 0.264179
0.682506 0.576532 0.264179
0.800443 0.576532 0.264179
1 0.576532 0.264179
0 0.682506 0.264179
0.141711 0.682506 0.264179
0.264179 0.682506 0.264179
0.370367 0.682506 0.264179
0.473472 0.682506 0.264179
0.576532 0.682506 0.264179
0.682506 0.682506 0.264179
0.800443 0.682506 0.264179
1 0.682506 0.264179
0 0.800443 0.264179
0.141711 0.800443 0.264179
0.264179 0.800443 0.264179
0.370367 0.800443 0.264179
0.473472 0.800443 0.264179
0.576532 0.800443 0.264179
0.682506 0.800443 0.264179
0.800443 0.800443 0.264179
1 0.800443 0.264179
0 1 0.264179
0.141711 1 0.264179
0.264179 1 0.264179
0.370367 1 0.264179
0.473472 1 0.264179
0.576532 1 0.264179
0.682506 1 0.264179
0.800443 1 0.264179
1 1 0.264179
0 0 0.370367
0.141711 0 0.370367
0.264179 0 0.370367
0.370367 0 0.370367
0.473472 0 0.370367
0.576532 0 0.370367
0.682506 0 0.370367
0.800443 0 0.370367
1 0 0.370367
0 0.141711 0.370367
0.141711 0.141711 0.370367
0.264179 0.141711 0.370367
0.370367 0.141711 0.370367
0.473472 0.141711 0.370367
0.576532 0.141711 0.370367
0.682506 0.141711 0.370367
0.800443 0.141711 0.370367
1 0.141711 0.370367
0 0.264179 0.370367
0.141711 0.264179 0.370367
0.264179 0.264179 0.370367
0.370367 0.264179 0.370367
0.473472 0.264179 0.370367
0.576532 0.264179 0.370367
0.682506 0.264179 0.370367
0.800443 0.264179 0.370367
1 0.264179 0.370367
0 0.370367 0.370367
0.141711 0.370367 0.370367
0.264179 0.370367 0.370367
0.370367 0.370367 0.370367
0.473472 0.370367 0.370367
0.576532 0.370367 0.370367
0.682506 0.370367 0.370367
0.800443 0.370367 0.370367
1 0.370367 0.370367
0 0.473472 0.370367
0.141711 0.473472 0.370367
0.264179 0.473472 0.370367
0.370367 0.473472 0.370367
0.473472 0.473472 0.370367
0.576532 0.473472 0.370367
0.682506 0.473472 0.370367
0.800443 0.473472 0.370367
1 0.473472 0.370367
0 0.576532 0.370367
0.141711 0.576532 0.370367
0.264179 0.576532 0.370367
0.370367 0.576532 0.370367
0.473472 0.576532 0.370367
0.576532 0.576532 0.370367
0.682506 0.576532 0.370367
0.800443 0.576532 0.370367
1 0.576532 0.370367
0 0.682506 0.370367
0.141711 0.682506 0.370367
0.264179 0.682506 0.370367
0.370367 0.682506 0.370367
0.473472 0.682506 0.370367
0.576532 0.682506 0.370367
0.682506 0.682506 0.370367
0.800443 0.682506 0.370367
1 0.682506 0.370367
0 0.800443 0.370367
0.141711 0.800443 0.370367
0.264179 0.800443 0.370367
0.370367 0.800443 0.370367
0.473472 0.800443 0.370367
0.576532 0.800443 0.370367
0.682506 0.800443 0.370367
0.800443 0.800443 0.370367
1 0.800443 0.370367
0 1 0.370367
0.141711 1 0.370367
0.264179 1 0.370367
0.370367 1 0.370367
0.473472 1 0.370367
0.576532 1 0.370367
0.682506 1 0.370367
0.800443 1 0.370367
1 1 0.370367
0 0 0.473472
0.141711 0 0.473472
0.264179 0 0.473472
0.370367 0 0.473472
0.473472 0 0.473472
0.576532 0 0.473472
0.682506 0 0.473472
0.800443 0 0.473472
1 0 0.473472
0 0.141711 0.473472
0.141711 0.141711 0.473472
0.264179 0.141711 0.473472
0.370367 0.141711 0.473472
0.473472 0.141711 0.473472
0.576532 0.141711 0.473472
0.682506 0.141711 0.473472
0.800443 0.141711 0.473472
1 0.141711 0.473472
0 0.264179 0.473472
0.141711 0.264179 0.473472
0.264179 0.264179 0.473472
0.370367 0.264179 0.473472
0.473472 0.264179 0.473472
0.576532 0.264179 0.473472
0.682506 0.264179 0.473472
0.800443 0.264179 0.473472
1 0.264179 0.473472
0 0.370367 0.473472
0.141711 0.370367 0.473472
0.264179 0.370367 0.473472
0.370367 0.370367 0.473472
0.473472 0.370367 0.473472
0.576532 0.370367 0.473472
0.682506 0.370367 0.473472
0.800443 0.370367 0.473472
1 0.370367 0.473472
0 0.473472 0.473472
0.141711 0.473472 0.473472
0.264179 0.473472 0.473472
0.370367 0.473472 0.473472
0.473472 0.473472 0.473472
0.576532 0.473472 0.473472
0.682506 0.473472 0.473472
0.800443 0.473472 0.473472
1 0.473472 0.473472
0 0.576532 0.473472
0.141711 0.576532 0.473472
0.264179 0.576532 0.473472
0.370367 0.576532 0.473472
0.473472 0.576532 0.473472
0.576532 0.576532 0.473472
0.682506 0.576532 0.473472
0.800443 0.576532 0.473472
1 0.576532 0.473472
0 0.682506 0.473472
0.141711 0.682506 0.473472
0.264179 0.682506 0.473472
0.370367 0.682506 0.473472
0.473472 0.682506 0.473472
0.576532 0.682506 0.473472
0.682506 0.682506 0.473472
0.800443 0.682506 0.473472
1 0.682506 0.473472
0 0.800443 0.473472
0.141711 0.800443 0.473472
0.264179 0.800443 0.473472
0.370367 0.800443 0.473472
0.473472 0.800443 0.473472
0.576532 0.800443 0.473472
0.682506 0.800443 0.473472
0.800443 0.800443 0.473472
1 0.800443 0.473472
0 1 0.473472
0.141711 1 0.473472
0.264179 1 0.473472
0.370367 1 0.473472
0.473472 1 0.473472
0.576532 1 0.473472
0.682506 1 0.473472
0.800443 1 0.473472
1 1 0.473472
0 0 0.576532
0.141711 0 0.576532
0.264179 0 0.576532
0.370367 0 0.576532
0.473472 0 0.576532
0.576532 0 0.576532
0.682506 0 0.576532
0.800443 0 0.576532
1 0 0.576532
0 0.141711 0.576532
0.141711 0.141711 0.576532
0.264179 0.141711 0.576532
0.370367 0.141711 0.576532
0.473472 0.141711 0.576532
0.576532 0.141711 0.576532
0.682506 0.141711 0.576532
0.800443 0.141711 0.576532
1 0.141711 0.576532
0 0.264179 0.576532
0.141711 0.264179 0.576532
0.264179 0.264179 0.576532
0.370367 0.264179 0.576532
0.473472 0.264179 0.576532
0.576532 0.264179 0.576532
0.682506 0.264179 0.576532
0.800443 0.264179 0.576532
1 0.264179 0.576532
0 0.370367 0.576532
0.141711 0.370367 0.576532
0.264179 0.370367 0.576532
0.370367 0.370367 0.576532
0.473472 0.370367 0.576532
0.576532 0.370367 0.576532
0.682506 0.370367 0.576532
0.800443 0.370367 0.576532
1 0.370367 0.576532
0 0.473472 0.576532
0.141711 0.473472 0.576532
0.264179 0.473472 0.576532
0.370367 0.473472 0.576532
0.473472 0.473472 0.576532
0.576532 0.473472 0.576532
0.682506 0.473472 0.576532
0.800443 0.473472 0.576532
1 0.473472 0.576532
0 0.576532 0.576532
0.141711 0.576532 0.576532
0.264179 0.576532 0.576532
0.370367 0.576532 0.576532
0.473472 0.576532 0.576532
0.576532 0.576532 0.576532
0.682506 0.576532 0.576532
0.800443 0.576532 0.576532
1 0.576532 0.576532
0 0.682506 0.576532
0.141711 0.682506 0.576532
0.264179 0.682506 0.576532
0.370367 0.682506 0.576532
0.473472 0.682506 0.576532
0.576532 0.682506 0.576532
0.682506 0.682506 0.576532
0.800443 0.682506 0.576532
1 0.682506 0.576532
0 0.800443 0.576532
0.141711 0.800443 0.576532
0.264179 0.800443 0.576532
0.370367 0.800443 0.576532
0.473472 0.800443 0.576532
0.576532 0.800443 0.576532
0.682506 0.800443 0.576532
0.800443 0.800443 0.576532
1 0.800443 0.576532
0 1 0.576532
0.141711 1 0.576532
0.264179 1 0.576532
0.370367 1 0.576532
0.473472 1 0.576532
0.576532 1 0.576532
0.682506 1 0.576532
0.800443 1 0.576532
1 1 0.576532
0 0 0.682506
0.141711 0 0.682506
0.264179 0 0.682506
0.370367 0 0.682506
0.473472 0 0.682506
0.576532 0 0.682506
0.682506 0 0.682506
0.800443 0 0.682506
1 0 0.682506
0 0.141711 0.682506
0.141711 0.141711 0.682506
0.264179 0.141711 0.682506
0.370367 0.141711 0.682506
0.473472 0.141711 0.682506
0.576532 0.141711 0.682506
0.682506 0.141711 0.682506
0.800443 0.141711 0.682506
1 0.141711 0.682506
0 0.264179 0.682506
0.141711 0.264179 0.682506
0.264179 0.264179 0.682506
0.370367 0.264179 0.682506
0.473472 0.264179 0.682506
0.576532 0.264179 0.682506
0.682506 0.264179 0.682506
0.800443 0.264179 0.682506
1 0.264179 0.682506
0 0.370367 0.682506
0.141711 0.370367 0.682506
0.264179 0.370367 0.682506
0.370367 0.370367 0.682506
0.473472 0.370367 0.682506
0.576532 0.370367 0.682506
0.682506 0.370367 0.682506
0.800443 0.370367 0.682506
1 0.370367 0.682506
0 0.473472 0.682506
0.141711 0.473472 0.682506
0.264179 0.473472 0.682506
0.370367 0.473472 0.682506
0.473472 0.473472 0.682506
0.576532 0.473472 0.682506
0.682506 0.473472 0.682506
0.800443 0.473472 0.682506
1 0.473472 0.682506
0 0.576532 0.682506
0.141711 0.576532 0.682506
0.264179 0.576532 0.682506
0.370367 0.576532 0.682506
0.473472 0.576532 0.682506
0.576532 0.576532 0.682506
0.682506 0.576532 0.682506
0.800443 0.576532 0.682506
1 0.576532 0.682506
0 0.682506 0.682506
0.141711 0.682506 0.682506
0.264179 0.682506 0.682506
0.370367 0.682506 0.682506
0.473472 0.682506 0.682506
0.576532 0.682506 0.682506
0.682506 0.682506 0.682506
0.800443 0.682506 0.682506
1 0.682506 0.682506
0 0.800443 0.682506
0.141711 0.800443 0.682506
0.264179 0.800443 0.682506
0.370367 0.800443 0.682506
0.473472 0.800443 0.682506
0.576532 0.800443 0.682506
0.682506 0.800443 0.682506
0.800443 0.800443 0.682506
1 0.800443 0.682506
0 1 0.682506
0.141711 1 0.682506
0.264179 1 0.682506
0.370367 1 0.682506
0.473472 1 0.682506
0.576532 1 0.682506
0.682506 1 0.682506
0.800443 1 0.682506
1 1 0.682506
0 0 0.800443
0.141711 0 0.800443
0.264179 0 0.800443
0.370367 0 0.800443
0.473472 0 0.800443
0.576532 0 0.800443
0.682506 0 0.800443
0.800443 0 0.800443
1 0 0.800443
0 0.141711 0.800443
0.141711 0.141711 0.800443
0.264179 0.141711 0.800443
0.370367 0.141711 0.800443
0.473472 0.141711 0.800443
0.576532 0.141711 0.800443
0.682506 0.141711 0.800443
0.800443 0.141711 0.800443
1 0.141711 0.800443
0 0.264179 0.800443
0.141711 0.264179 0.800443
0.264179 0.264179 0.800443
0.370367 0.264179 0.800443
0.473472 0.264179 0.800443
0.576532 0.264179 0.800443
0.682506 0.264179 0.800443
0.800443 0.264179 0.800443
1 0.264179 0.800443
0 0.370367 0.800443
0.141711 0.370367 0.800443
0.264179 0.370367 0.800443
0.370367 0.370367 0.800443
0.473472 0.370367 0.800443
0.576532 0.370367 0.800443
0.682506 0.370367 0.800443
0.800443 0.370367 0.800443
1 0.370367 0.800443
0 0.473472 0.800443
0.141711 0.473472 0.800443
0.264179 0.473472 0.800443
0.370367 0.473472 0.800443
0.473472 0.473472 0.800443
0.576532 0.473472 0.800443
0.682506 0.473472 0.800443
0.800443 0.473472 0.800443
1 0.473472 0.800443
0 0.576532 0.800443
0.141711 0.576532 0.800443
0.264179 0.576532 0.800443
0.370367 0.576532 0.800443
0.473472 0.576532 0.800443
0.576532 0.576532 0.800443
0.682506 0.576532 0.800443
0.800443 0.576532 0.800443
1 0.576532 0.800443
0 0.682506 0.800443
0.141711 0.682506 0.800443
0.264179 0.682506 0.800443
0.370367 0.682506 0.800443
0.473472 0.682506 0.800443
0.576532 0.682506 0.800443
0.682506 0.682506 0.800443
0.800443 0.682506 0.800443
1 0.682506 0.800443
0 0.800443 0.800443
0.141711 0.800443 0.800443
0.264179 0.800443 0.800443
0.370367 0.800443 0.800443
0.473472 0.800443 0.800443
0.576532 0.800443 0.800443
0.682506 0.800443 0.800443
0.800443 0.800443 0.800443
1 0.800443 0.800443
0 1 0.800443
0.141711 1 0.800443
0.264179 1 0.800443
0.370367 1 0.800443
0.473472 1 0.800443
0.576532 1 0.800443
0.682506 1 0.800443
0.800443 1 0.800443
1 1 0.800443
0 0 1
0.141711 0 1
0.264179 0 1
0.370367 0 1
0.473472 0 1
0.576532 0 1
0.682506 0 1
0.800443 0 1
1 0 1
0 0.141711 1
0.141711 0.141711 1
0.264179 0.141711 1
0.370367 0.141711 1
0.473472 0.141711 1
0.576532 0.141711 1
0.682506 0.141711 1
0.800443 0.141711 1
1 0.141711 1
0 0.264179 1
0.141711 0.264179 1
0.264179 0.264179 1
0.370367 0.264179 1
0.473472 0.264179 1
0.576532 0.264179 1
0.682506 0.264179 1
0.800443 0.264179 1
1 0.264179 1
0 0.370367 1
0.141711 0.370367 1
0.264179 0.370367 1
0.370367 0.370367 1
0.473472 0.370367 1
0.576532 0.370367 1
0.682506 0.370367 1
0.800443 0.370367 1
1 0.370367 1
0 0.473472 1
0.141711 0.473472 1
0.264179 0.473472 1
0.370367 0.473472 1
0.473472 0.473472 1
0.576532 0.473472 1
0.682506 0.473472 1
0.800443 0.473472 1
1 0.473472 1
0 0.576532 1
0.141711 0.576532 1
0.264179 0.576532 1
0.370367 0.576532 1
0.473472 0.576532 1
0.576532 0.576532 1
0.682506 0.576532 1
0.800443 0.576532 1
1 0.576532 1
0 0.682506 1
0.141711 0.682506 1
0.264179 0.682506 1
0.370367 0.682506 1
0.473472 0.682506 1
0.576532 0.682506 1
0.682506 0.682506 1
0.800443 0.682506 1
1 0.682506 1
0 0.800443 1
0.141711 0.800443 1
0.264179 0.800443 1
0.370367 0.800443 1
0.473472 0.800443 1
0.576532 0.800443 1
0.682506 0.800443 1
0.800443 0.800443 1
1 0.800443 1
0 1 1
0.141711 1 1
0.264179 1 1
0.370367 1 1
0.473472 1 1
0.576532 1 1
0.682506 1 1
0.800443 1 1
1 1 1
