resources/LogC3_sRGB.cube
TITLE "Generated by Resolve"
LUT_3D_SIZE 33
0 0 0
0 0 0
0 0 0
0 0 0
0.00273136 0 0
0.0137942 0 0
0.0420386 0 0
0.0816205 0 0
0.12369 0 0
0.168887 0 0
0.217639 0 0
0.270146 0 0
0.326329 0 0
0.385809 0 0
0.447852 0 0
0.51136 0 0
0.574914 0 0
0.636881 0 0
0.695613 0 0
0.74963 0 0
0.797848 0 0
0.839689 0 0
0.875029 0 0
0.904204 0 0
0.927794 0 0
0.946548 0 0
0.961257 0 0
0.972671 0 0
0.981445 0 0
0.988144 0 0
0.99324 0 0
0.997101 0 0
1 0 0
0 0 0
0 0 0
0 0 0
0 0 0
0.00273136 0 0
0.0137942 0 0
0.0420386 0 0
0.0816205 0 0
0.12369 0 0
0.168887 0 0
0.217639 0 0
0.270146 0 0
0.326329 0 0
0.385809 0 0
0.447852 0 0
0.51136 0 0
0.574914 0 0
0.636881 0 0
0.695613 0 0
0.74963 0 0
0.797848 0 0
0.839689 0 0
0.875029 0 0
0.904204 0 0
0.927794 0 0
0.946548 0 0
0.961257 0 0
0.972671 0 0
0.981445 0 0
0.988144 0 0
0.99324 0 0
0.997101 0 0
1 0 0
0 0 0
0 0 0
0 0 0
0 0 0
0.00273136 0 0
0.0137942 0 0
0.0420386 0 0
0.0816205 0 0
0.12369 0 0
0.168887 0 0
0.217639 0 0
0.270146 0 0
0.326329 0 0
0.385809 0 0
0.447852 0 0
0.51136 0 0
0.574914 0 0
0.636881 0 0
0.695613 0 0
0.74963 0 0
0.797848 0 0
0.839689 0 0
0.875029 0 0
0.904204 0 0
0.927794 0 0
0.946548 0 0
0.961257 0 0
0.972671 0 0
0.981445 0 0
0.988144 0 0
0.99324 0 0
0.997101 0 0
1 0 0
0 0 0
0 0 0
0 0 0
0 0 0
0.00273136 0 0
0.0137942 0 0
0.0420386 0 0
0.0816205 0 0
0.12369 0 0
0.168887 0 0
0.217639 0 0
0.270146 0 0
0.326329 0 0
0.385809 0 0
0.447852 0 0
0.51136 0 0
0.574914 0 0
0.636881 0 0
0.695613 0 0
0.74963 0 0
0.797848 0 0
0.839689 0 0
0.875029 0 0
0.904204 0 0
0.927794 0 0
0.946548 0 0
0.961257 0 0
0.972671 0 0
0.981445 0 0
0.988144 0 0
0.99324 0 0
0.997101 0 0
1 0 0
0 0.00273136 0
0 0.00273136 0
0 0.00273136 0
0 0.00273136 0
0.00273136 0.00273136 0
0.0137942 0.00273136 0
0.0420386 0.00273136 0
0.0816205 0.00273136 0
0.12369 0.00273136 0
0.168887 0.00273136 0
0.217639 0.00273136 0
0.270146 0.00273136 0
0.326329 0.00273136 0
0.385809 0.00273136 0
0.447852 0.00273136 0
0.51136 0.00273136 0
0.574914 0.00273136 0
0.636881 0.00273136 0
0.695613 0.00273136 0
0.74963 0.00273136 0
0.797848 0.00273136 0
0.839689 0.00273136 0
0.875029 0.00273136 0
0.904204 0.00273136 0
0.927794 0.00273136 0
0.946548 0.00273136 0
0.961257 0.00273136 0
0.972671 0.00273136 0
0.981445 0.00273136 0
0.988144 0.00273136 0
0.99324 0.00273136 0
0.997101 0.00273136 0
1 0.00273136 0
0 0.0137942 0
0 0.0137942 0
0 0.0137942 0
0 0.0137942 0
0.00273136 0.0137942 0
0.0137942 0.0137942 0
0.0420386 0.0137942 0
0.0816205 0.0137942 0
0.12369 0.0137942 0
0.168887 0.0137942 0
0.217639 0.0137942 0
0.270146 0.0137942 0
0.326329 0.0137942 0
0.385809 0.0137942 0
0.447852 0.0137942 0
0.51136 0.0137942 0
0.574914 0.0137942 0
0.636881 0.0137942 0
0.695613 0.0137942 0
0.74963 0.0137942 0
0.797848 0.0137942 0
0.839689 0.0137942 0
0.875029 0.0137942 0
0.904204 0.0137942 0
0.927794 0.0137942 0
0.946548 0.0137942 0
0.961257 0.0137942 0
0.972671 0.0137942 0
0.981445 0.0137942 0
0.988144 0.0137942 0
0.99324 0.0137942 0
0.997101 0.0137942 0
1 0.0137942 0
0 0.0420386 0
0 0.0420386 0
0 0.0420386 0
0 0.0420386 0
0.00273136 0.0420386 0
0.0137942 0.0420386 0
0.0420386 0.0420386 0
0.0816205 0.0420386 0
0.12369 0.0420386 0
0.168887 0.0420386 0
0.217639 0.0420386 0
0.270146 0.0420386 0
0.326329 0.0420386 0
0.385809 0.0420386 0
0.447852 0.0420386 0
0.51136 0.0420386 0
0.574914 0.0420386 0
0.636881 0.0420386 0
0.695613 0.0420386 0
0.74963 0.0420386 0
0.797848 0.0420386 0
0.839689 0.0420386 0
0.875029 0.0420386 0
0.904204 0.0420386 0
0.927794 0.0420386 0
0.946548 0.0420386 0
0.961257 0.0420386 0
0.972671 0.0420386 0
0.981445 0.0420386 0
0.988144 0.0420386 0
0.99324 0.0420386 0
0.997101 0.0420386 0
1 0.0420386 0
0 0.0816205 0
0 0.0816205 0
0 0.0816205 0
0 0.0816205 0
0.00273136 0.0816205 0
0.0137942 0.0816205 0
0.0420386 0.0816205 0
0.0816205 0.0816205 0
0.12369 0.0816205 0
0.168887 0.0816205 0
0.217639 0.0816205 0
0.270146 0.0816205 0
0.326329 0.0816205 0
0.385809 0.0816205 0
0.447852 0.0816205 0
0.51136 0.0816205 0
0.574914 0.0816205 0
0.636881 0.0816205 0
0.695613 0.0816205 0
0.74963 0.0816205 0
0.797848 0.0816205 0
0.839689 0.0816205 0
0.875029 0.0816205 0
0.904204 0.0816205 0
0.927794 0.0816205 0
0.946548 0.0816205 0
0.961257 0.0816205 0
0.972671 0.0816205 0
0.981445 0.0816205 0
0.988144 0.0816205 0
0.99324 0.0816205 0
0.997101 0.0816205 0
1 0.0816205 0
0 0.12369 0
0 0.12369 0
0 0.12369 0
0 0.12369 0
0.00273136 0.12369 0
0.0137942 0.12369 0
0.0420386 0.12369 0
0.0816205 0.12369 0
0.12369 0.12369 0
0.168887 0.12369 0
0.217639 0.12369 0
0.270146 0.12369 0
0.326329 0.12369 0
0.385809 0.12369 0
0.447852 0.12369 0
0.51136 0.12369 0
0.574914 0.12369 0
0.636881 0.12369 0
0.695613 0.12369 0
0.74963 0.12369 0
0.797848 0.12369 0
0.839689 0.12369 0
0.875029 0.12369 0
0.904204 0.12369 0
0.927794 0.12369 0
0.946548 0.12369 0
0.961257 0.12369 0
0.972671 0.12369 0
0.981445 0.12369 0
0.988144 0.12369 0
0.99324 0.12369 0
0.997101 0.12369 0
1 0.12369 0
0 0.168887 0
0 0.168887 0
0 0.168887 0
0 0.168887 0
0.00273136 0.168887 0
0.0137942 0.168887 0
0.0420386 0.168887 0
0.0816205 0.168887 0
0.12369 0.168887 0
0.168887 0.168887 0
0.217639 0.168887 0
0.270146 0.168887 0
0.326329 0.168887 0
0.385809 0.168887 0
0.447852 0.168887 0
0.51136 0.168887 0
0.574914 0.168887 0
0.636881 0.168887 0
0.695613 0.168887 0
0.74963 0.168887 0
0.797848 0.168887 0
0.839689 0.168887 0
0.875029 0.168887 0
0.904204 0.168887 0
0.927794 0.168887 0
0.946548 0.168887 0
0.961257 0.168887 0
0.972671 0.168887 0
0.981445 0.168887 0
0.988144 0.168887 0
0.99324 0.168887 0
0.997101 0.168887 0
1 0.168887 0
0 0.217639 0
0 0.217639 0
0 0.217639 0
0 0.217639 0
0.00273136 0.217639 0
0.0137942 0.217639 0
0.0420386 0.217639 0
0.0816205 0.217639 0
0.12369 0.217639 0
0.168887 0.217639 0
0.217639 0.217639 0
0.270146 0.217639 0
0.326329 0.217639 0
0.385809 0.217639 0
0.447852 0.217639 0
0.51136 0.217639 0
0.574914 0.217639 0
0.636881 0.217639 0
0.695613 0.217639 0
0.74963 0.217639 0
0.797848 0.217639 0
0.839689 0.217639 0
0.875029 0.217639 0
0.904204 0.217639 0
0.927794 0.217639 0
0.946548 0.217639 0
0.961257 0.217639 0
0.972671 0.217639 0
0.981445 0.217639 0
0.988144 0.217639 0
0.99324 0.217639 0
0.997101 0.217639 0
1 0.217639 0
0 0.270146 0
0 0.270146 0
0 0.270146 0
0 0.270146 0
0.00273136 0.270146 0
0.0137942 0.270146 0
0.0420386 0.270146 0
0.0816205 0.270146 0
0.12369 0.270146 0
0.168887 0.270146 0
0.217639 0.270146 0
0.270146 0.270146 0
0.326329 0.270146 0
0.385809 0.270146 0
0.447852 0.270146 0
0.51136 0.270146 0
0.574914 0.270146 0
0.636881 0.270146 0
0.695613 0.270146 0
0.74963 0.270146 0
0.797848 0.270146 0
0.839689 0.270146 0
0.875029 0.270146 0
0.904204 0.270146 0
0.927794 0.270146 0
0.946548 0.270146 0
0.961257 0.270146 0
0.972671 0.270146 0
0.981445 0.270146 0
0.988144 0.270146 0
0.99324 0.270146 0
0.997101 0.270146 0
1 0.270146 0
0 0.326329 0
0 0.326329 0
0 0.326329 0
0 0.326329 0
0.00273136 0.326329 0
0.0137942 0.326329 0
0.0420386 0.326329 0
0.0816205 0.326329 0
0.12369 0.326329 0
0.168887 0.326329 0
0.217639 0.326329 0
0.270146 0.326329 0
0.326329 0.326329 0
0.385809 0.326329 0
0.447852 0.326329 0
0.51136 0.326329 0
0.574914 0.326329 0
0.636881 0.326329 0
0.695613 0.326329 0
0.74963 0.326329 0
0.797848 0.326329 0
0.839689 0.326329 0
0.875029 0.326329 0
0.904204 0.326329 0
0.927794 0.326329 0
0.946548 0.326329 0
0.961257 0.326329 0
0.972671 0.326329 0
0.981445 0.326329 0
0.988144 0.326329 0
0.99324 0.326329 0
0.997101 0.326329 0
1 0.326329 0
0 0.385809 0
0 0.385809 0
0 0.385809 0
0 0.385809 0
0.00273136 0.385809 0
0.0137942 0.385809 0
0.0420386 0.385809 0
0.0816205 0.385809 0
0.12369 0.385809 0
0.168887 0.385809 0
0.217639 0.385809 0
0.270146 0.385809 0
0.326329 0.385809 0
0.385809 0.385809 0
0.447852 0.385809 0
0.51136 0.385809 0
0.574914 0.385809 0
0.636881 0.385809 0
0.695613 0.385809 0
0.74963 0.385809 0
0.797848 0.385809 0
0.839689 0.385809 0
0.875029 0.385809 0
0.904204 0.385809 0
0.927794 0.385809 0
0.946548 0.385809 0
0.961257 0.385809 0
0.972671 0.385809 0
0.981445 0.385809 0
0.988144 0.385809 0
0.99324 0.385809 0
0.997101 0.385809 0
1 0.385809 0
0 0.447852 0
0 0.447852 0
0 0.447852 0
0 0.447852 0
0.00273136 0.447852 0
0.0137942 0.447852 0
0.0420386 0.447852 0
0.0816205 0.447852 0
0.12369 0.447852 0
0.168887 0.447852 0
0.217639 0.447852 0
0.270146 0.447852 0
0.326329 0.447852 0
0.385809 0.447852 0
0.447852 0.447852 0
0.51136 0.447852 0
0.574914 0.447852 0
0.636881 0.447852 0
0.695613 0.447852 0
0.74963 0.447852 0
0.797848 0.447852 0
0.839689 0.447852 0
0.875029 0.447852 0
0.904204 0.447852 0
0.927794 0.447852 0
0.946548 0.447852 0
0.961257 0.447852 0
0.972671 0.447852 0
0.981445 0.447852 0
0.988144 0.447852 0
0.99324 0.447852 0
0.997101 0.447852 0
1 0.447852 0
0 0.51136 0
0 0.51136 0
0 0.51136 0
0 0.51136 0
0.00273136 0.51136 0
0.0137942 0.51136 0
0.0420386 0.51136 0
0.0816205 0.51136 0
0.12369 0.51136 0
0.168887 0.51136 0
0.217639 0.51136 0
0.270146 0.51136 0
0.326329 0.51136 0
0.385809 0.51136 0
0.447852 0.51136 0
0.51136 0.51136 0
0.574914 0.51136 0
0.636881 0.51136 0
0.695613 0.51136 0
0.74963 0.51136 0
0.797848 0.51136 0
0.839689 0.51136 0
0.875029 0.51136 0
0.904204 0.51136 0
0.927794 0.51136 0
0.946548 0.51136 0
0.961257 0.51136 0
0.972671 0.51136 0
0.981445 0.51136 0
0.988144 0.51136 0
0.99324 0.51136 0
0.997101 0.51136 0
1 0.51136 0
0 0.574914 0
0 0.574914 0
0 0.574914 0
0 0.574914 0
0.00273136 0.574914 0
0.0137942 0.574914 0
0.0420386 0.574914 0
0.0816205 0.574914 0
0.12369 0.574914 0
0.168887 0.574914 0
0.217639 0.574914 0
0.270146 0.574914 0
0.326329 0.574914 0
0.385809 0.574914 0
0.447852 0.574914 0
0.51136 0.574914 0
0.574914 0.574914 0
0.636881 0.574914 0
0.695613 0.574914 0
0.74963 0.574914 0
0.797848 0.574914 0
0.839689 0.574914 0
0.875029 0.574914 0
0.904204 0.574914 0
0.927794 0.574914 0
0.946548 0.574914 0
0.961257 0.574914 0
0.972671 0.574914 0
0.981445 0.574914 0
0.988144 0.574914 0
0.99324 0.574914 0
0.997101 0.574914 0
1 0.574914 0
0 0.636881 0
0 0.636881 0
0 0.636881 0
0 0.636881 0
0.00273136 0.636881 0
0.0137942 0.636881 0
0.0420386 0.636881 0
0.0816205 0.636881 0
0.12369 0.636881 0
0.168887 0.636881 0
0.217639 0.636881 0
0.270146 0.636881 0
0.326329 0.636881 0
0.385809 0.636881 0
0.447852 0.636881 0
0.51136 0.636881 0
0.574914 0.636881 0
0.636881 0.636881 0
0.695613 0.636881 0
0.74963 0.636881 0
0.797848 0.636881 0
0.839689 0.636881 0
0.875029 0.636881 0
0.904204 0.636881 0
0.927794 0.636881 0
0.946548 0.636881 0
0.961257 0.636881 0
0.972671 0.636881 0
0.981445 0.636881 0
0.988144 0.636881 0
0.99324 0.636881 0
0.997101 0.636881 0
1 0.636881 0
0 0.695613 0
0 0.695613 0
0 0.695613 0
0 0.695613 0
0.00273136 0.695613 0
0.0137942 0.695613 0
0.0420386 0.695613 0
0.0816205 0.695613 0
0.12369 0.695613 0
0.168887 0.695613 0
0.217639 0.695613 0
0.270146 0.695613 0
0.326329 0.695613 0
0.385809 0.695613 0
0.447852 0.695613 0
0.51136 0.695613 0
0.574914 0.695613 0
0.636881 0.695613 0
0.695613 0.695613 0
0.74963 0.695613 0
0.797848 0.695613 0
0.839689 0.695613 0
0.875029 0.695613 0
0.904204 0.695613 0
0.927794 0.695613 0
0.946548 0.695613 0
0.961257 0.695613 0
0.972671 0.695613 0
0.981445 0.695613 0
0.988144 0.695613 0
0.99324 0.695613 0
0.997101 0.695613 0
1 0.695613 0
0 0.74963 0
0 0.74963 0
0 0.74963 0
0 0.74963 0
0.00273136 0.74963 0
0.0137942 0.74963 0
0.0420386 0.74963 0
0.0816205 0.74963 0
0.12369 0.74963 0
0.168887 0.74963 0
0.217639 0.74963 0
0.270146 0.74963 0
0.326329 0.74963 0
0.385809 0.74963 0
0.447852 0.74963 0
0.51136 0.74963 0
0.574914 0.74963 0
0.636881 0.74963 0
0.695613 0.74963 0
0.74963 0.74963 0
0.797848 0.74963 0
0.839689 0.74963 0
0.875029 0.74963 0
0.904204 0.74963 0
0.927794 0.74963 0
0.946548 0.74963 0
0.961257 0.74963 0
0.972671 0.74963 0
0.981445 0.74963 0
0.988144 0.74963 0
0.99324 0.74963 0
0.997101 0.74963 0
1 0.74963 0
0 0.797848 0
0 0.797848 0
0 0.797848 0
0 0.797848 0
0.00273136 0.797848 0
0.0137942 0.797848 0
0.0420386 0.797848 0
0.0816205 0.797848 0
0.12369 0.797848 0
0.168887 0.797848 0
0.217639 0.797848 0
0.270146 0.797848 0
0.326329 0.797848 0
0.385809 0.797848 0
0.447852 0.797848 0
0.51136 0.797848 0
0.574914 0.797848 0
0.636881 0.797848 0
0.695613 0.797848 0
0.74963 0.797848 0
0.797848 0.797848 0
0.839689 0.797848 0
0.875029 0.797848 0
0.904204 0.797848 0
0.927794 0.797848 0
0.946548 0.797848 0
0.961257 0.797848 0
0.972671 0.797848 0
0.981445 0.797848 0
0.988144 0.797848 0
0.99324 0.797848 0
0.997101 0.797848 0
1 0.797848 0
0 0.839689 0
0 0.839689 0
0 0.839689 0
0 0.839689 0
0.00273136 0.839689 0
0.0137942 0.839689 0
0.0420386 0.839689 0
0.0816205 0.839689 0
0.12369 0.839689 0
0.168887 0.839689 0
0.217639 0.839689 0
0.270146 0.839689 0
0.326329 0.839689 0
0.385809 0.839689 0
0.447852 0.839689 0
0.51136 0.839689 0
0.574914 0.839689 0
0.636881 0.839689 0
0.695613 0.839689 0
0.74963 0.839689 0
0.797848 0.839689 0
0.839689 0.839689 0
0.875029 0.839689 0
0.904204 0.839689 0
0.927794 0.839689 0
0.946548 0.839689 0
0.961257 0.839689 0
0.972671 0.839689 0
0.981445 0.839689 0
0.988144 0.839689 0
0.99324 0.839689 0
0.997101 0.839689 0
1 0.839689 0
0 0.875029 0
0 0.875029 0
0 0.875029 0
0 0.875029 0
0.00273136 0.875029 0
0.0137942 0.875029 0
0.0420386 0.875029 0
0.0816205 0.875029 0
0.12369 0.875029 0
0.168887 0.875029 0
0.217639 0.875029 0
0.270146 0.875029 0
0.326329 0.875029 0
0.385809 0.875029 0
0.447852 0.875029 0
0.51136 0.875029 0
0.574914 0.875029 0
0.636881 0.875029 0
0.695613 0.875029 0
0.74963 0.875029 0
0.797848 0.875029 0
0.839689 0.875029 0
0.875029 0.875029 0
0.904204 0.875029 0
0.927794 0.875029 0
0.946548 0.875029 0
0.961257 0.875029 0
0.972671 0.875029 0
0.981445 0.875029 0
0.988144 0.875029 0
0.99324 0.875029 0
0.997101 0.875029 0
1 0.875029 0
0 0.904204 0
0 0.904204 0
0 0.904204 0
0 0.904204 0
0.00273136 0.904204 0
0.0137942 0.904204 0
0.0420386 0.904204 0
0.0816205 0.904204 0
0.12369 0.904204 0
0.168887 0.904204 0
0.217639 0.904204 0
0.270146 0.904204 0
0.326329 0.904204 0
0.385809 0.904204 0
0.447852 0.904204 0
0.51136 0.904204 0
0.574914 0.904204 0
0.636881 0.904204 0
0.695613 0.904204 0
0.74963 0.904204 0
0.797848 0.904204 0
0.839689 0.904204 0
0.875029 0.904204 0
0.904204 0.904204 0
0.927794 0.904204 0
0.946548 0.904204 0
0.961257 0.904204 0
0.972671 0.904204 0
0.981445 0.904204 0
0.988144 0.904204 0
0.99324 0.904204 0
0.997101 0.904204 0
1 0.904204 0
0 0.927794 0
0 0.927794 0
0 0.927794 0
0 0.927794 0
0.00273136 0.927794 0
0.0137942 0.927794 0
0.0420386 0.927794 0
0.0816205 0.927794 0
0.12369 0.927794 0
0.168887 0.927794 0
0.217639 0.927794 0
0.270146 0.927794 0
0.326329 0.927794 0
0.385809 0.927794 0
0.447852 0.927794 0
0.51136 0.927794 0
0.574914 0.927794 0
0.636881 0.927794 0
0.695613 0.927794 0
0.74963 0.927794 0
0.797848 0.927794 0
0.839689 0.927794 0
0.875029 0.927794 0
0.904204 0.927794 0
0.927794 0.927794 0
0.946548 0.927794 0
0.961257 0.927794 0
0.972671 0.927794 0
0.981445 0.927794 0
0.988144 0.927794 0
0.99324 0.927794 0
0.997101 0.927794 0
1 0.927794 0
0 0.946548 0
0 0.946548 0
0 0.946548 0
0 0.946548 0
0.00273136 0.946548 0
0.0137942 0.946548 0
0.0420386 0.946548 0
0.0816205 0.946548 0
0.12369 0.946548 0
0.168887 0.946548 0
0.217639 0.946548 0
0.270146 0.946548 0
0.326329 0.946548 0
0.385809 0.946548 0
0.447852 0.946548 0
0.51136 0.946548 0
0.574914 0.946548 0
0.636881 0.946548 0
0.695613 0.946548 0
0.74963 0.946548 0
0.797848 0.946548 0
0.839689 0.946548 0
0.875029 0.946548 0
0.904204 0.946548 0
0.927794 0.946548 0
0.946548 0.946548 0
0.961257 0.946548 0
0.972671 0.946548 0
0.981445 0.946548 0
0.988144 0.946548 0
0.99324 0.946548 0
0.997101 0.946548 0
1 0.946548 0
0 0.961257 0
0 0.961257 0
0 0.961257 0
0 0.961257 0
0.00273136 0.961257 0
0.0137942 0.961257 0
0.0420386 0.961257 0
0.0816205 0.961257 0
0.12369 0.961257 0
0.168887 0.961257 0
0.217639 0.961257 0
0.270146 0.961257 0
0.326329 0.961257 0
0.385809 0.961257 0
0.447852 0.961257 0
0.51136 0.961257 0
0.574914 0.961257 0
0.636881 0.961257 0
0.695613 0.961257 0
0.74963 0.961257 0
0.797848 0.961257 0
0.839689 0.961257 0
0.875029 0.961257 0
0.904204 0.961257 0
0.927794 0.961257 0
0.946548 0.961257 0
0.961257 0.961257 0
0.972671 0.961257 0
0.981445 0.961257 0
0.988144 0.961257 0
0.99324 0.961257 0
0.997101 0.961257 0
1 0.961257 0
0 0.972671 0
0 0.972671 0
0 0.972671 0
0 0.972671 0
0.00273136 0.972671 0
0.0137942 0.972671 0
0.0420386 0.972671 0
0.0816205 0.972671 0
0.12369 0.972671 0
