resources/LogC3_Blackmagic Design Film.cube
TITLE "Generated by Resolve"
LUT_3D_SIZE 33
0 0 0
0 0 0
0.00694286 0 0
0.0362554 0 0
0.0654917 0 0
0.092134 0 0
0.120272 0 0
0.152209 0 0
0.187747 0 0
0.226505 0 0
0.26804 0 0
0.311864 0 0
0.357458 0 0
0.404364 0 0
0.452094 0 0
0.500221 0 0
0.548287 0 0
0.595865 0 0
0.642496 0 0
0.687709 0 0
0.731029 0 0
0.771954 0 0
0.809964 0 0
0.844663 0 0
0.875715 0 0
0.902922 0 0
0.926253 0 0
0.945861 0 0
0.962005 0 0
0.975067 0 0
0.985473 0 0
0.993637 0 0
1 0 0
0 0 0
0 0 0
0.00694286 0 0
0.0362554 0 0
0.0654917 0 0
0.092134 0 0
0.120272 0 0
0.152209 0 0
0.187747 0 0
0.226505 0 0
0.26804 0 0
0.311864 0 0
0.357458 0 0
0.404364 0 0
0.452094 0 0
0.500221 0 0
0.548287 0 0
0.595865 0 0
0.642496 0 0
0.687709 0 0
0.731029 0 0
0.771954 0 0
0.809964 0 0
0.844663 0 0
0.875715 0 0
0.902922 0 0
0.926253 0 0
0.945861 0 0
0.962005 0 0
0.975067 0 0
0.985473 0 0
0.993637 0 0
1 0 0
0 0.00694286 0
0 0.00694286 0
0.00694286 0.00694286 0
0.0362554 0.00694286 0
0.0654917 0.00694286 0
0.092134 0.00694286 0
0.120272 0.00694286 0
0.152209 0.00694286 0
0.187747 0.00694286 0
0.226505 0.00694286 0
0.26804 0.00694286 0
0.311864 0.00694286 0
0.357458 0.00694286 0
0.404364 0.00694286 0
0.452094 0.00694286 0
0.500221 0.00694286 0
0.548287 0.00694286 0
0.595865 0.00694286 0
0.642496 0.00694286 0
0.687709 0.00694286 0
0.731029 0.00694286 0
0.771954 0.00694286 0
0.809964 0.00694286 0
0.844663 0.00694286 0
0.875715 0.00694286 0
0.902922 0.00694286 0
0.926253 0.00694286 0
0.945861 0.00694286 0
0.962005 0.00694286 0
0.975067 0.00694286 0
0.985473 0.00694286 0
0.993637 0.00694286 0
1 0.00694286 0
0 0.0362554 0
0 0.0362554 0
0.00694286 0.0362554 0
0.0362554 0.0362554 0
0.0654917 0.0362554 0
0.092134 0.0362554 0
0.120272 0.0362554 0
0.152209 0.0362554 0
0.187747 0.0362554 0
0.226505 0.0362554 0
0.26804 0.0362554 0
0.311864 0.0362554 0
0.357458 0.0362554 0
0.404364 0.0362554 0
0.452094 0.0362554 0
0.500221 0.0362554 0
0.548287 0.0362554 0
0.595865 0.0362554 0
0.642496 0.0362554 0
0.687709 0.0362554 0
0.731029 0.0362554 0
0.771954 0.0362554 0
0.809964 0.0362554 0
0.844663 0.0362554 0
0.875715 0.0362554 0
0.902922 0.0362554 0
0.926253 0.0362554 0
0.945861 0.0362554 0
0.962005 0.0362554 0
0.975067 0.0362554 0
0.985473 0.0362554 0
0.993637 0.0362554 0
1 0.0362554 0
0 0.0654917 0
0 0.0654917 0
0.00694286 0.0654917 0
0.0362554 0.0654917 0
0.0654917 0.0654917 0
0.092134 0.0654917 0
0.120272 0.0654917 0
0.152209 0.0654917 0
0.187747 0.0654917 0
0.226505 0.0654917 0
0.26804 0.0654917 0
0.311864 0.0654917 0
0.357458 0.0654917 0
0.404364 0.0654917 0
0.452094 0.0654917 0
0.500221 0.0654917 0
0.548287 0.0654917 0
0.595865 0.0654917 0
0.642496 0.0654917 0
0.687709 0.0654917 0
0.731029 0.0654917 0
0.771954 0.0654917 0
0.809964 0.0654917 0
0.844663 0.0654917 0
0.875715 0.0654917 0
0.902922 0.0654917 0
0.926253 0.0654917 0
0.945861 0.0654917 0
0.962005 0.0654917 0
0.975067 0.0654917 0
0.985473 0.0654917 0
0.993637 0.0654917 0
1 0.0654917 0
0 0.092134 0
0 0.092134 0
0.00694286 0.092134 0
0.0362554 0.092134 0
0.0654917 0.092134 0
0.092134 0.092134 0
0.120272 0.092134 0
0.152209 0.092134 0
0.187747 0.092134 0
0.226505 0.092134 0
0.26804 0.092134 0
0.311864 0.092134 0
0.357458 0.092134 0
0.404364 0.092134 0
0.452094 0.092134 0
0.500221 0.092134 0
0.548287 0.092134 0
0.595865 0.092134 0
0.642496 0.092134 0
0.687709 0.092134 0
0.731029 0.092134 0
0.771954 0.092134 0
0.809964 0.092134 0
0.844663 0.092134 0
0.875715 0.092134 0
0.902922 0.092134 0
0.926253 0.092134 0
0.945861 0.092134 0
0.962005 0.092134 0
0.975067 0.092134 0
0.985473 0.092134 0
0.993637 0.092134 0
1 0.092134 0
0 0.120272 0
0 0.120272 0
0.00694286 0.120272 0
0.0362554 0.120272 0
0.0654917 0.120272 0
0.092134 0.120272 0
0.120272 0.120272 0
0.152209 0.120272 0
0.187747 0.120272 0
0.226505 0.120272 0
0.26804 0.120272 0
0.311864 0.120272 0
0.357458 0.120272 0
0.404364 0.120272 0
0.452094 0.120272 0
0.500221 0.120272 0
0.548287 0.120272 0
0.595865 0.120272 0
0.642496 0.120272 0
0.687709 0.120272 0
0.731029 0.120272 0
0.771954 0.120272 0
0.809964 0.120272 0
0.844663 0.120272 0
0.875715 0.120272 0
0.902922 0.120272 0
0.926253 0.120272 0
0.945861 0.120272 0
0.962005 0.120272 0
0.975067 0.120272 0
0.985473 0.120272 0
0.993637 0.120272 0
1 0.120272 0
0 0.152209 0
0 0.152209 0
0.00694286 0.152209 0
0.0362554 0.152209 0
0.0654917 0.152209 0
0.092134 0.152209 0
0.120272 0.152209 0
0.152209 0.152209 0
0.187747 0.152209 0
0.226505 0.152209 0
0.26804 0.152209 0
0.311864 0.152209 0
0.357458 0.152209 0
0.404364 0.152209 0
0.452094 0.152209 0
0.500221 0.152209 0
0.548287 0.152209 0
0.595865 0.152209 0
0.642496 0.152209 0
0.687709 0.152209 0
0.731029 0.152209 0
0.771954 0.152209 0
0.809964 0.152209 0
0.844663 0.152209 0
0.875715 0.152209 0
0.902922 0.152209 0
0.926253 0.152209 0
0.945861 0.152209 0
0.962005 0.152209 0
0.975067 0.152209 0
0.985473 0.152209 0
0.993637 0.152209 0
1 0.152209 0
0 0.187747 0
0 0.187747 0
0.00694286 0.187747 0
0.0362554 0.187747 0
0.0654917 0.187747 0
0.092134 0.187747 0
0.120272 0.187747 0
0.152209 0.187747 0
0.187747 0.187747 0
0.226505 0.187747 0
0.26804 0.187747 0
0.311864 0.187747 0
0.357458 0.187747 0
0.404364 0.187747 0
0.452094 0.187747 0
0.500221 0.187747 0
0.548287 0.187747 0
0.595865 0.187747 0
0.642496 0.187747 0
0.687709 0.187747 0
0.731029 0.187747 0
0.771954 0.187747 0
0.809964 0.187747 0
0.844663 0.187747 0
0.875715 0.187747 0
0.902922 0.187747 0
0.926253 0.187747 0
0.945861 0.187747 0
0.962005 0.187747 0
0.975067 0.187747 0
0.985473 0.187747 0
0.993637 0.187747 0
1 0.187747 0
0 0.226505 0
0 0.226505 0
0.00694286 0.226505 0
0.0362554 0.226505 0
0.0654917 0.226505 0
0.092134 0.226505 0
0.120272 0.226505 0
0.152209 0.226505 0
0.187747 0.226505 0
0.226505 0.226505 0
0.26804 0.226505 0
0.311864 0.226505 0
0.357458 0.226505 0
0.404364 0.226505 0
0.452094 0.226505 0
0.500221 0.226505 0
0.548287 0.226505 0
0.595865 0.226505 0
0.642496 0.226505 0
0.687709 0.226505 0
0.731029 0.226505 0
0.771954 0.226505 0
0.809964 0.226505 0
0.844663 0.226505 0
0.875715 0.226505 0
0.902922 0.226505 0
0.926253 0.226505 0
0.945861 0.226505 0
0.962005 0.226505 0
0.975067 0.226505 0
0.985473 0.226505 0
0.993637 0.226505 0
1 0.226505 0
0 0.26804 0
0 0.26804 0
0.00694286 0.26804 0
0.0362554 0.26804 0
0.0654917 0.26804 0
0.092134 0.26804 0
0.120272 0.26804 0
0.152209 0.26804 0
0.187747 0.26804 0
0.226505 0.26804 0
0.26804 0.26804 0
0.311864 0.26804 0
0.357458 0.26804 0
0.404364 0.26804 0
0.452094 0.26804 0
0.500221 0.26804 0
0.548287 0.26804 0
0.595865 0.26804 0
0.642496 0.26804 0
0.687709 0.26804 0
0.731029 0.26804 0
0.771954 0.26804 0
0.809964 0.26804 0
0.844663 0.26804 0
0.875715 0.26804 0
0.902922 0.26804 0
0.926253 0.26804 0
0.945861 0.26804 0
0.962005 0.26804 0
0.975067 0.26804 0
0.985473 0.26804 0
0.993637 0.26804 0
1 0.26804 0
0 0.311864 0
0 0.311864 0
0.00694286 0.311864 0
0.0362554 0.311864 0
0.0654917 0.311864 0
0.092134 0.311864 0
0.120272 0.311864 0
0.152209 0.311864 0
0.187747 0.311864 0
0.226505 0.311864 0
0.26804 0.311864 0
0.311864 0.311864 0
0.357458 0.311864 0
0.404364 0.311864 0
0.452094 0.311864 0
0.500221 0.311864 0
0.548287 0.311864 0
0.595865 0.311864 0
0.642496 0.311864 0
0.687709 0.311864 0
0.731029 0.311864 0
0.771954 0.311864 0
0.809964 0.311864 0
0.844663 0.311864 0
0.875715 0.311864 0
0.902922 0.311864 0
0.926253 0.311864 0
0.945861 0.311864 0
0.962005 0.311864 0
0.975067 0.311864 0
0.985473 0.311864 0
0.993637 0.311864 0
1 0.311864 0
0 0.357458 0
0 0.357458 0
0.00694286 0.357458 0
0.0362554 0.357458 0
0.0654917 0.357458 0
0.092134 0.357458 0
0.120272 0.357458 0
0.152209 0.357458 0
0.187747 0.357458 0
0.226505 0.357458 0
0.26804 0.357458 0
0.311864 0.357458 0
0.357458 0.357458 0
0.404364 0.357458 0
0.452094 0.357458 0
0.500221 0.357458 0
0.548287 0.357458 0
0.595865 0.357458 0
0.642496 0.357458 0
0.687709 0.357458 0
0.731029 0.357458 0
0.771954 0.357458 0
0.809964 0.357458 0
0.844663 0.357458 0
0.875715 0.357458 0
0.902922 0.357458 0
0.926253 0.357458 0
0.945861 0.357458 0
0.962005 0.357458 0
0.975067 0.357458 0
0.985473 0.357458 0
0.993637 0.357458 0
1 0.357458 0
0 0.404364 0
0 0.404364 0
0.00694286 0.404364 0
0.0362554 0.404364 0
0.0654917 0.404364 0
0.092134 0.404364 0
0.120272 0.404364 0
0.152209 0.404364 0
0.187747 0.404364 0
0.226505 0.404364 0
0.26804 0.404364 0
0.311864 0.404364 0
0.357458 0.404364 0
0.404364 0.404364 0
0.452094 0.404364 0
0.500221 0.404364 0
0.548287 0.404364 0
0.595865 0.404364 0
0.642496 0.404364 0
0.687709 0.404364 0
0.731029 0.404364 0
0.771954 0.404364 0
0.809964 0.404364 0
0.844663 0.404364 0
0.875715 0.404364 0
0.902922 0.404364 0
0.926253 0.404364 0
0.945861 0.404364 0
0.962005 0.404364 0
0.975067 0.404364 0
0.985473 0.404364 0
0.993637 0.404364 0
1 0.404364 0
0 0.452094 0
0 0.452094 0
0.00694286 0.452094 0
0.0362554 0.452094 0
0.0654917 0.452094 0
0.092134 0.452094 0
0.120272 0.452094 0
0.152209 0.452094 0
0.187747 0.452094 0
0.226505 0.452094 0
0.26804 0.452094 0
0.311864 0.452094 0
0.357458 0.452094 0
0.404364 0.452094 0
0.452094 0.452094 0
0.500221 0.452094 0
0.548287 0.452094 0
0.595865 0.452094 0
0.642496 0.452094 0
0.687709 0.452094 0
0.731029 0.452094 0
0.771954 0.452094 0
0.809964 0.452094 0
0.844663 0.452094 0
0.875715 0.452094 0
0.902922 0.452094 0
0.926253 0.452094 0
0.945861 0.452094 0
0.962005 0.452094 0
0.975067 0.452094 0
0.985473 0.452094 0
0.993637 0.452094 0
1 0.452094 0
0 0.500221 0
0 0.500221 0
0.00694286 0.500221 0
0.0362554 0.500221 0
0.0654917 0.500221 0
0.092134 0.500221 0
0.120272 0.500221 0
0.152209 0.500221 0
0.187747 0.500221 0
0.226505 0.500221 0
0.26804 0.500221 0
0.311864 0.500221 0
0.357458 0.500221 0
0.404364 0.500221 0
0.452094 0.500221 0
0.500221 0.500221 0
0.548287 0.500221 0
0.595865 0.500221 0
0.642496 0.500221 0
0.687709 0.500221 0
0.731029 0.500221 0
0.771954 0.500221 0
0.809964 0.500221 0
0.844663 0.500221 0
0.875715 0.500221 0
0.902922 0.500221 0
0.926253 0.500221 0
0.945861 0.500221 0
0.962005 0.500221 0
0.975067 0.500221 0
0.985473 0.500221 0
0.993637 0.500221 0
1 0.500221 0
0 0.548287 0
0 0.548287 0
0.00694286 0.548287 0
0.0362554 0.548287 0
0.0654917 0.548287 0
0.092134 0.548287 0
0.120272 0.548287 0
0.152209 0.548287 0
0.187747 0.548287 0
0.226505 0.548287 0
0.26804 0.548287 0
0.311864 0.548287 0
0.357458 0.548287 0
0.404364 0.548287 0
0.452094 0.548287 0
0.500221 0.548287 0
0.548287 0.548287 0
0.595865 0.548287 0
0.642496 0.548287 0
0.687709 0.548287 0
0.731029 0.548287 0
0.771954 0.548287 0
0.809964 0.548287 0
0.844663 0.548287 0
0.875715 0.548287 0
0.902922 0.548287 0
0.926253 0.548287 0
0.945861 0.548287 0
0.962005 0.548287 0
0.975067 0.548287 0
0.985473 0.548287 0
0.993637 0.548287 0
1 0.548287 0
0 0.595865 0
0 0.595865 0
0.00694286 0.595865 0
0.0362554 0.595865 0
0.0654917 0.595865 0
0.092134 0.595865 0
0.120272 0.595865 0
0.152209 0.595865 0
0.187747 0.595865 0
0.226505 0.595865 0
0.26804 0.595865 0
0.311864 0.595865 0
0.357458 0.595865 0
0.404364 0.595865 0
0.452094 0.595865 0
0.500221 0.595865 0
0.548287 0.595865 0
0.595865 0.595865 0
0.642496 0.595865 0
0.687709 0.595865 0
0.731029 0.595865 0
0.771954 0.595865 0
0.809964 0.595865 0
0.844663 0.595865 0
0.875715 0.595865 0
0.902922 0.595865 0
0.926253 0.595865 0
0.945861 0.595865 0
0.962005 0.595865 0
0.975067 0.595865 0
0.985473 0.595865 0
0.993637 0.595865 0
1 0.595865 0
0 0.642496 0
0 0.642496 0
0.00694286 0.642496 0
0.0362554 0.642496 0
0.0654917 0.642496 0
0.092134 0.642496 0
0.120272 0.642496 0
0.152209 0.642496 0
0.187747 0.642496 0
0.226505 0.642496 0
0.26804 0.642496 0
0.311864 0.642496 0
0.357458 0.642496 0
0.404364 0.642496 0
0.452094 0.642496 0
0.500221 0.642496 0
0.548287 0.642496 0
0.595865 0.642496 0
0.642496 0.642496 0
0.687709 0.642496 0
0.731029 0.642496 0
0.771954 0.642496 0
0.809964 0.642496 0
0.844663 0.642496 0
0.875715 0.642496 0
0.902922 0.642496 0
0.926253 0.642496 0
0.945861 0.642496 0
0.962005 0.642496 0
0.975067 0.642496 0
0.985473 0.642496 0
0.993637 0.642496 0
1 0.642496 0
0 0.687709 0
0 0.687709 0
0.00694286 0.687709 0
0.0362554 0.687709 0
0.0654917 0.687709 0
0.092134 0.687709 0
0.120272 0.687709 0
0.152209 0.687709 0
0.187747 0.687709 0
0.226505 0.687709 0
0.26804 0.687709 0
0.311864 0.687709 0
0.357458 0.687709 0
0.404364 0.687709 0
0.452094 0.687709 0
0.500221 0.687709 0
0.548287 0.687709 0
0.595865 0.687709 0
0.642496 0.687709 0
0.687709 0.687709 0
0.731029 0.687709 0
0.771954 0.687709 0
0.809964 0.687709 0
0.844663 0.687709 0
0.875715 0.687709 0
0.902922 0.687709 0
0.926253 0.687709 0
0.945861 0.687709 0
0.962005 0.687709 0
0.975067 0.687709 0
0.985473 0.687709 0
0.993637 0.687709 0
1 0.687709 0
0 0.731029 0
0 0.731029 0
0.00694286 0.731029 0
0.0362554 0.731029 0
0.0654917 0.731029 0
0.092134 0.731029 0
0.120272 0.731029 0
0.152209 0.731029 0
0.187747 0.731029 0
0.226505 0.731029 0
0.26804 0.731029 0
0.311864 0.731029 0
0.357458 0.731029 0
0.404364 0.731029 0
0.452094 0.731029 0
0.500221 0.731029 0
0.548287 0.731029 0
0.595865 0.731029 0
0.642496 0.731029 0
0.687709 0.731029 0
0.731029 0.731029 0
0.771954 0.731029 0
0.809964 0.731029 0
0.844663 0.731029 0
0.875715 0.731029 0
0.902922 0.731029 0
0.926253 0.731029 0
0.945861 0.731029 0
0.962005 0.731029 0
0.975067 0.731029 0
0.985473 0.731029 0
0.993637 0.731029 0
1 0.731029 0
0 0.771954 0
0 0.771954 0
0.00694286 0.771954 0
0.0362554 0.771954 0
0.0654917 0.771954 0
0.092134 0.771954 0
0.120272 0.771954 0
0.152209 0.771954 0
0.187747 0.771954 0
0.226505 0.771954 0
0.26804 0.771954 0
0.311864 0.771954 0
0.357458 0.771954 0
0.404364 0.771954 0
0.452094 0.771954 0
0.500221 0.771954 0
0.548287 0.771954 0
0.595865 0.771954 0
0.642496 0.771954 0
0.687709 0.771954 0
0.731029 0.771954 0
0.771954 0.771954 0
0.809964 0.771954 0
0.844663 0.771954 0
0.875715 0.771954 0
0.902922 0.771954 0
0.926253 0.771954 0
0.945861 0.771954 0
0.962005 0.771954 0
0.975067 0.771954 0
0.985473 0.771954 0
0.993637 0.771954 0
1 0.771954 0
0 0.809964 0
0 0.809964 0
0.00694286 0.809964 0
0.0362554 0.809964 0
0.0654917 0.809964 0
0.092134 0.809964 0
0.120272 0.809964 0
0.152209 0.809964 0
0.187747 0.809964 0
0.226505 0.809964 0
0.26804 0.809964 0
0.311864 0.809964 0
0.357458 0.809964 0
0.404364 0.809964 0
0.452094 0.809964 0
0.500221 0.809964 0
0.548287 0.809964 0
0.595865 0.809964 0
0.642496 0.809964 0
0.687709 0.809964 0
0.731029 0.809964 0
0.771954 0.809964 0
0.809964 0.809964 0
0.844663 0.809964 0
0.875715 0.809964 0
0.902922 0.809964 0
0.926253 0.809964 0
0.945861 0.809964 0
0.962005 0.809964 0
0.975067 0.809964 0
0.985473 0.809964 0
0.993637 0.809964 0
1 0.809964 0
0 0.844663 0
0 0.844663 0
0.00694286 0.844663 0
0.0362554 0.844663 0
0.0654917 0.844663 0
0.092134 0.844663 0
0.120272 0.844663 0
0.152209 0.844663 0
0.187747 0.844663 0
0.226505 0.844663 0
0.26804 0.844663 0
0.311864 0.844663 0
0.357458 0.844663 0
0.404364 0.844663 0
0.452094 0.844663 0
0.500221 0.844663 0
0.548287 0.844663 0
0.595865 0.844663 0
0.642496 0.844663 0
0.687709 0.844663 0
0.731029 0.844663 0
0.771954 0.844663 0
0.809964 0.844663 0
0.844663 0.844663 0
0.875715 0.844663 0
0.902922 0.844663 0
0.926253 0.844663 0
0.945861 0.844663 0
0.962005 0.844663 0
0.975067 0.844663 0
0.985473 0.844663 0
0.993637 0.844663 0
1 0.844663 0
0 0.875715 0
0 0.875715 0
0.00694286 0.875715 0
0.0362554 0.875715 0
0.0654917 0.875715 0
0.092134 0.875715 0
0.120272 0.875715 0
0.152209 0.875715 0
0.187747 0.875715 0
0.226505 0.875715 0
0.26804 0.875715 0
0.311864 0.875715 0
0.357458 0.875715 0
0.404364 0.875715 0
0.452094 0.875715 0
0.500221 0.875715 0
0.548287 0.875715 0
0.595865 0.875715 0
0.642496 0.875715 0
0.687709 0.875715 0
0.731029 0.875715 0
0.771954 0.875715 0
0.809964 0.875715 0
0.844663 0.875715 0
0.875715 0.875715 0
0.902922 0.875715 0
0.926253 0.875715 0
0.945861 0.875715 0
0.962005 0.875715 0
0.975067 0.875715 0
0.985473 0.875715 0
0.993637 0.875715 0
1 0.875715 0
0 0.902922 0
0 0.902922 0
0.00694286 0.902922 0
0.0362554 0.902922 0
0.0654917 0.902922 0
0.092134 0.902922 0
0.120272 0.902922 0
0.152209 0.902922 0
0.187747 0.902922 0
0.226505 0.902922 0
0.26804 0.902922 0
0.311864 0.902922 0
0.357458 0.902922 0
0.404364 0.902922 0
0.452094 0.902922 0
0.500221 0.902922 0
0.548287 0.902922 0
0.595865 0.902922 0
0.642496 0.902922 0
0.687709 0.902922 0
0.731029 0.902922 0
0.771954 0.902922 0
0.809964 0.902922 0
0.844663 0.902922 0
0.875715 0.902922 0
0.902922 0.902922 0
0.926253 0.902922 0
0.945861 0.902922 0
0.962005 0.902922 0
0.975067 0.902922 0
0.985473 0.902922 0
0.993637 0.902922 0
1 0.902922 0
0 0.926253 0
0 0.926253 0
0.00694286 0.926253 0
0.0362554 0.926253 0
0.0654917 0.926253 0
0.092134 0.926253 0
0.120272 0.926253 0
0.152209 0.926253 0
0.187747 0.926253 0
0.226505 0.926253 0
0.26804 0.926253 0
0.311864 0.926253 0
0.357458 0.926253 0
0.404364 0.926253 0
0.452094 0.926253 0
0.500221 0.926253 0
0.548287 0.926253 0
0.595865 0.926253 0
0.642496 0.926253 0
0.687709 0.926253 0
0.731029 0.926253 0
0.771954 0.926253 0
0.809964 0.926253 0
0.844663 0.926253 0
0.875715 0.926253 0
0.902922 0.926253 0
0.926253 0.926253 0
0.945861 0.926253 0
0.962005 0.926253 0
0.975067 0.926253 0
0.985473 0.926253 0
0.993637 0.926253 0
1 0.926253 0
0 0.945861 0
0 0.945861 0
0.00694286 0.945861 0
0.0362554 0.945861 0
0.0654917 0.945861 0
0.092134 0.945861 0
0.120272 0.945861 0
0.152209 0.945861 0
0.187747 0.945861 0
