resources/LogC3_Blackmagic Design Film.cube
TITLE "Generated by Resolve"
LUT_3D_SIZE 9
0 0 0
0.0654917 0 0
0.187747 0 0
0.357458 0 0
0.548287 0 0
0.731029 0 0
0.875715 0 0
0.962005 0 0
1 0 0
0 0.0654917 0
0.0654917 0.0654917 0
0.187747 0.0654917 0
0.357458 0.0654917 0
0.548287 0.0654917 0
0.731029 0.0654917 0
0.875715 0.0654917 0
0.962005 0.0654917 0
1 0.0654917 0
0 0.187747 0
0.0654917 0.187747 0
0.187747 0.187747 0
0.357458 0.187747 0
0.548287 0.187747 0
0.731029 0.187747 0
0.875715 0.187747 0
0.962005 0.187747 0
1 0.187747 0
0 0.357458 0
0.0654917 0.357458 0
0.187747 0.357458 0
0.357458 0.357458 0
0.548287 0.357458 0
0.731029 0.357458 0
0.875715 0.357458 0
0.962005 0.357458 0
1 0.357458 0
0 0.548287 0
0.0654917 0.548287 0
0.187747 0.548287 0
0.357458 0.548287 0
0.548287 0.548287 0
0.731029 0.548287 0
0.875715 0.548287 0
0.962005 0.548287 0
1 0.548287 0
0 0.731029 0
0.0654917 0.731029 0
0.187747 0.731029 0
0.357458 0.731029 0
0.548287 0.731029 0
0.731029 0.731029 0
0.875715 0.731029 0
0.962005 0.731029 0
1 0.731029 0
0 0.875715 0
0.0654917 0.875715 0
0.187747 0.875715 0
0.357458 0.875715 0
0.548287 0.875715 0
0.731029 0.875715 0
0.875715 0.875715 0
0.962005 0.875715 0
1 0.875715 0
0 0.962005 0
0.0654917 0.962005 0
0.187747 0.962005 0
0.357458 0.962005 0
0.548287 0.962005 0
0.731029 0.962005 0
0.875715 0.962005 0
0.962005 0.962005 0
1 0.962005 0
0 1 0
0.0654917 1 0
0.187747 1 0
0.357458 1 0
0.548287 1 0
0.731029 1 0
0.875715 1 0
0.962005 1 0
1 1 0
0 0 0.0654917
0.0654917 0 0.0654917
0.187747 0 0.0654917
0.357458 0 0.0654917
0.548287 0 0.0654917
0.731029 0 0.0654917
0.875715 0 0.0654917
0.962005 0 0.0654917
1 0 0.0654917
0 0.0654917 0.0654917
0.0654917 0.0654917 0.0654917
0.187747 0.0654917 0.0654917
0.357458 0.0654917 0.0654917
0.548287 0.0654917 0.0654917
0.731029 0.0654917 0.0654917
0.875715 0.0654917 0.0654917
0.962005 0.0654917 0.0654917
1 0.0654917 0.0654917
0 0.187747 0.0654917
0.0654917 0.187747 0.0654917
0.187747 0.187747 0.0654917
0.357458 0.187747 0.0654917
0.548287 0.187747 0.0654917
0.731029 0.187747 0.0654917
0.875715 0.187747 0.0654917
0.962005 0.187747 0.0654917
1 0.187747 0.0654917
0 0.357458 0.0654917
0.0654917 0.357458 0.0654917
0.187747 0.357458 0.0654917
0.357458 0.357458 0.0654917
0.548287 0.357458 0.0654917
0.731029 0.357458 0.0654917
0.875715 0.357458 0.0654917
0.962005 0.357458 0.0654917
1 0.357458 0.0654917
0 0.548287 0.0654917
0.0654917 0.548287 0.0654917
0.187747 0.548287 0.0654917
0.357458 0.548287 0.0654917
0.548287 0.548287 0.0654917
0.731029 0.548287 0.0654917
0.875715 0.548287 0.0654917
0.962005 0.548287 0.0654917
1 0.548287 0.0654917
0 0.731029 0.0654917
0.0654917 0.731029 0.0654917
0.187747 0.731029 0.0654917
0.357458 0.731029 0.0654917
0.548287 0.731029 0.0654917
0.731029 0.731029 0.0654917
0.875715 0.731029 0.0654917
0.962005 0.731029 0.0654917
1 0.731029 0.0654917
0 0.875715 0.0654917
0.0654917 0.875715 0.0654917
0.187747 0.875715 0.0654917
0.357458 0.875715 0.0654917
0.548287 0.875715 0.0654917
0.731029 0.875715 0.0654917
0.875715 0.875715 0.0654917
0.962005 0.875715 0.0654917
1 0.875715 0.0654917
0 0.962005 0.0654917
0.0654917 0.962005 0.0654917
0.187747 0.962005 0.0654917
0.357458 0.962005 0.0654917
0.548287 0.962005 0.0654917
0.731029 0.962005 0.0654917
0.875715 0.962005 0.0654917
0.962005 0.962005 0.0654917
1 0.962005 0.0654917
0 1 0.0654917
0.0654917 1 0.0654917
0.187747 1 0.0654917
0.357458 1 0.0654917
0.548287 1 0.0654917
0.731029 1 0.0654917
0.875715 1 0.0654917
0.962005 1 0.0654917
1 1 0.0654917
0 0 0.187747
0.0654917 0 0.187747
0.187747 0 0.187747
0.357458 0 0.187747
0.548287 0 0.187747
0.731029 0 0.187747
0.875715 0 0.187747
0.962005 0 0.187747
1 0 0.187747
0 0.0654917 0.187747
0.0654917 0.0654917 0.187747
0.187747 0.0654917 0.187747
0.357458 0.0654917 0.187747
0.548287 0.0654917 0.187747
0.731029 0.0654917 0.187747
0.875715 0.0654917 0.187747
0.962005 0.0654917 0.187747
1 0.0654917 0.187747
0 0.187747 0.187747
0.0654917 0.187747 0.187747
0.187747 0.187747 0.187747
0.357458 0.187747 0.187747
0.548287 0.187747 0.187747
0.731029 0.187747 0.187747
0.875715 0.187747 0.187747
0.962005 0.187747 0.187747
1 0.187747 0.187747
0 0.357458 0.187747
0.0654917 0.357458 0.187747
0.187747 0.357458 0.187747
0.357458 0.357458 0.187747
0.548287 0.357458 0.187747
0.731029 0.357458 0.187747
0.875715 0.357458 0.187747
0.962005 0.357458 0.187747
1 0.357458 0.187747
0 0.548287 0.187747
0.0654917 0.548287 0.187747
0.187747 0.548287 0.187747
0.357458 0.548287 0.187747
0.548287 0.548287 0.187747
0.731029 0.548287 0.187747
0.875715 0.548287 0.187747
0.962005 0.548287 0.187747
1 0.548287 0.187747
0 0.731029 0.187747
0.0654917 0.731029 0.187747
0.187747 0.731029 0.187747
0.357458 0.731029 0.187747
0.548287 0.731029 0.187747
0.731029 0.731029 0.187747
0.875715 0.731029 0.187747
0.962005 0.731029 0.187747
1 0.731029 0.187747
0 0.875715 0.187747
0.0654917 0.875715 0.187747
0.187747 0.875715 0.187747
0.357458 0.875715 0.187747
0.548287 0.875715 0.187747
0.731029 0.875715 0.187747
0.875715 0.875715 0.187747
0.962005 0.875715 0.187747
1 0.875715 0.187747
0 0.962005 0.187747
0.0654917 0.962005 0.187747
0.187747 0.962005 0.187747
0.357458 0.962005 0.187747
0.548287 0.962005 0.187747
0.731029 0.962005 0.187747
0.875715 0.962005 0.187747
0.962005 0.962005 0.187747
1 0.962005 0.187747
0 1 0.187747
0.0654917 1 0.187747
0.187747 1 0.187747
0.357458 1 0.187747
0.548287 1 0.187747
0.731029 1 0.187747
0.875715 1 0.187747
0.962005 1 0.187747
1 1 0.187747
0 0 0.357458
0.0654917 0 0.357458
0.187747 0 0.357458
0.357458 0 0.357458
0.548287 0 0.357458
0.731029 0 0.357458
0.875715 0 0.357458
0.962005 0 0.357458
1 0 0.357458
0 0.0654917 0.357458
0.0654917 0.0654917 0.357458
0.187747 0.0654917 0.357458
0.357458 0.0654917 0.357458
0.548287 0.0654917 0.357458
0.731029 0.0654917 0.357458
0.875715 0.0654917 0.357458
0.962005 0.0654917 0.357458
1 0.0654917 0.357458
0 0.187747 0.357458
0.0654917 0.187747 0.357458
0.187747 0.187747 0.357458
0.357458 0.187747 0.357458
0.548287 0.187747 0.357458
0.731029 0.187747 0.357458
0.875715 0.187747 0.357458
0.962005 0.187747 0.357458
1 0.187747 0.357458
0 0.357458 0.357458
0.0654917 0.357458 0.357458
0.187747 0.357458 0.357458
0.357458 0.357458 0.357458
0.548287 0.357458 0.357458
0.731029 0.357458 0.357458
0.875715 0.357458 0.357458
0.962005 0.357458 0.357458
1 0.357458 0.357458
0 0.548287 0.357458
0.0654917 0.548287 0.357458
0.187747 0.548287 0.357458
0.357458 0.548287 0.357458
0.548287 0.548287 0.357458
0.731029 0.548287 0.357458
0.875715 0.548287 0.357458
0.962005 0.548287 0.357458
1 0.548287 0.357458
0 0.731029 0.357458
0.0654917 0.731029 0.357458
0.187747 0.731029 0.357458
0.357458 0.731029 0.357458
0.548287 0.731029 0.357458
0.731029 0.731029 0.357458
0.875715 0.731029 0.357458
0.962005 0.731029 0.357458
1 0.731029 0.357458
0 0.875715 0.357458
0.0654917 0.875715 0.357458
0.187747 0.875715 0.357458
0.357458 0.875715 0.357458
0.548287 0.875715 0.357458
0.731029 0.875715 0.357458
0.875715 0.875715 0.357458
0.962005 0.875715 0.357458
1 0.875715 0.357458
0 0.962005 0.357458
0.0654917 0.962005 0.357458
0.187747 0.962005 0.357458
0.357458 0.962005 0.357458
0.548287 0.962005 0.357458
0.731029 0.962005 0.357458
0.875715 0.962005 0.357458
0.962005 0.962005 0.357458
1 0.962005 0.357458
0 1 0.357458
0.0654917 1 0.357458
0.187747 1 0.357458
0.357458 1 0.357458
0.548287 1 0.357458
0.731029 1 0.357458
0.875715 1 0.357458
0.962005 1 0.357458
1 1 0.357458
0 0 0.548287
0.0654917 0 0.548287
0.187747 0 0.548287
0.357458 0 0.548287
0.548287 0 0.548287
0.731029 0 0.548287
0.875715 0 0.548287
0.962005 0 0.548287
1 0 0.548287
0 0.0654917 0.548287
0.0654917 0.0654917 0.548287
0.187747 0.0654917 0.548287
0.357458 0.0654917 0.548287
0.548287 0.0654917 0.548287
0.731029 0.0654917 0.548287
0.875715 0.0654917 0.548287
0.962005 0.0654917 0.548287
1 0.0654917 0.548287
0 0.187747 0.548287
0.0654917 0.187747 0.548287
0.187747 0.187747 0.548287
0.357458 0.187747 0.548287
0.548287 0.187747 0.548287
0.731029 0.187747 0.548287
0.875715 0.187747 0.548287
0.962005 0.187747 0.548287
1 0.187747 0.548287
0 0.357458 0.548287
0.0654917 0.357458 0.548287
0.187747 0.357458 0.548287
0.357458 0.357458 0.548287
0.548287 0.357458 0.548287
0.731029 0.357458 0.548287
0.875715 0.357458 0.548287
0.962005 0.357458 0.548287
1 0.357458 0.548287
0 0.548287 0.548287
0.0654917 0.548287 0.548287
0.187747 0.548287 0.548287
0.357458 0.548287 0.548287
0.548287 0.548287 0.548287
0.731029 0.548287 0.548287
0.875715 0.548287 0.548287
0.962005 0.548287 0.548287
1 0.548287 0.548287
0 0.731029 0.548287
0.0654917 0.731029 0.548287
0.187747 0.731029 0.548287
0.357458 0.731029 0.548287
0.548287 0.731029 0.548287
0.731029 0.731029 0.548287
0.875715 0.731029 0.548287
0.962005 0.731029 0.548287
1 0.731029 0.548287
0 0.875715 0.548287
0.0654917 0.875715 0.548287
0.187747 0.875715 0.548287
0.357458 0.875715 0.548287
0.548287 0.875715 0.548287
0.731029 0.875715 0.548287
0.875715 0.875715 0.548287
0.962005 0.875715 0.548287
1 0.875715 0.548287
0 0.962005 0.548287
0.0654917 0.962005 0.548287
0.187747 0.962005 0.548287
0.357458 0.962005 0.548287
0.548287 0.962005 0.548287
0.731029 0.962005 0.548287
0.875715 0.962005 0.548287
0.962005 0.962005 0.548287
1 0.962005 0.548287
0 1 0.548287
0.0654917 1 0.548287
0.187747 1 0.548287
0.357458 1 0.548287
0.548287 1 0.548287
0.731029 1 0.548287
0.875715 1 0.548287
0.962005 1 0.548287
1 1 0.548287
0 0 0.731029
0.0654917 0 0.731029
0.187747 0 0.731029
0.357458 0 0.731029
0.548287 0 0.731029
0.731029 0 0.731029
0.875715 0 0.731029
0.962005 0 0.731029
1 0 0.731029
0 0.0654917 0.731029
0.0654917 0.0654917 0.731029
0.187747 0.0654917 0.731029
0.357458 0.0654917 0.731029
0.548287 0.0654917 0.731029
0.731029 0.0654917 0.731029
0.875715 0.0654917 0.731029
0.962005 0.0654917 0.731029
1 0.0654917 0.731029
0 0.187747 0.731029
0.0654917 0.187747 0.731029
0.187747 0.187747 0.731029
0.357458 0.187747 0.731029
0.548287 0.187747 0.731029
0.731029 0.187747 0.731029
0.875715 0.187747 0.731029
0.962005 0.187747 0.731029
1 0.187747 0.731029
0 0.357458 0.731029
0.0654917 0.357458 0.731029
0.187747 0.357458 0.731029
0.357458 0.357458 0.731029
0.548287 0.357458 0.731029
0.731029 0.357458 0.731029
0.875715 0.357458 0.731029
0.962005 0.357458 0.731029
1 0.357458 0.731029
0 0.548287 0.731029
0.0654917 0.548287 0.731029
0.187747 0.548287 0.731029
0.357458 0.548287 0.731029
0.548287 0.548287 0.731029
0.731029 0.548287 0.731029
0.875715 0.548287 0.731029
0.962005 0.548287 0.731029
1 0.548287 0.731029
0 0.731029 0.731029
0.0654917 0.731029 0.731029
0.187747 0.731029 0.731029
0.357458 0.731029 0.731029
0.548287 0.731029 0.731029
0.731029 0.731029 0.731029
0.875715 0.731029 0.731029
0.962005 0.731029 0.731029
1 0.731029 0.731029
0 0.875715 0.731029
0.0654917 0.875715 0.731029
0.187747 0.875715 0.731029
0.357458 0.875715 0.731029
0.548287 0.875715 0.731029
0.731029 0.875715 0.731029
0.875715 0.875715 0.731029
0.962005 0.875715 0.731029
1 0.875715 0.731029
0 0.962005 0.731029
0.0654917 0.962005 0.731029
0.187747 0.962005 0.731029
0.357458 0.962005 0.731029
0.548287 0.962005 0.731029
0.731029 0.962005 0.731029
0.875715 0.962005 0.731029
0.962005 0.962005 0.731029
1 0.962005 0.731029
0 1 0.731029
0.0654917 1 0.731029
0.187747 1 0.731029
0.357458 1 0.731029
0.548287 1 0.731029
0.731029 1 0.731029
0.875715 1 0.731029
0.962005 1 0.731029
1 1 0.731029
0 0 0.875715
0.0654917 0 0.875715
0.187747 0 0.875715
0.357458 0 0.875715
0.548287 0 0.875715
0.731029 0 0.875715
0.875715 0 0.875715
0.962005 0 0.875715
1 0 0.875715
0 0.0654917 0.875715
0.0654917 0.0654917 0.875715
0.187747 0.0654917 0.875715
0.357458 0.0654917 0.875715
0.548287 0.0654917 0.875715
0.731029 0.0654917 0.875715
0.875715 0.0654917 0.875715
0.962005 0.0654917 0.875715
1 0.0654917 0.875715
0 0.187747 0.875715
0.0654917 0.187747 0.875715
0.187747 0.187747 0.875715
0.357458 0.187747 0.875715
0.548287 0.187747 0.875715
0.731029 0.187747 0.875715
0.875715 0.187747 0.875715
0.962005 0.187747 0.875715
1 0.187747 0.875715
0 0.357458 0.875715
0.0654917 0.357458 0.875715
0.187747 0.357458 0.875715
0.357458 0.357458 0.875715
0.548287 0.357458 0.875715
0.731029 0.357458 0.875715
0.875715 0.357458 0.875715
0.962005 0.357458 0.875715
1 0.357458 0.875715
0 0.548287 0.875715
0.0654917 0.548287 0.875715
0.187747 0.548287 0.875715
0.357458 0.548287 0.875715
0.548287 0.548287 0.875715
0.731029 0.548287 0.875715
0.875715 0.548287 0.875715
0.962005 0.548287 0.875715
1 0.548287 0.875715
0 0.731029 0.875715
0.0654917 0.731029 0.875715
0.187747 0.731029 0.875715
0.357458 0.731029 0.875715
0.548287 0.731029 0.875715
0.731029 0.731029 0.875715
0.875715 0.731029 0.875715
0.962005 0.731029 0.875715
1 0.731029 0.875715
0 0.875715 0.875715
0.0654917 0.875715 0.875715
0.187747 0.875715 0.875715
0.357458 0.875715 0.875715
0.548287 0.875715 0.875715
0.731029 0.875715 0.875715
0.875715 0.875715 0.875715
0.962005 0.875715 0.875715
1 0.875715 0.875715
0 0.962005 0.875715
0.0654917 0.962005 0.875715
0.187747 0.962005 0.875715
0.357458 0.962005 0.875715
0.548287 0.962005 0.875715
0.731029 0.962005 0.875715
0.875715 0.962005 0.875715
0.962005 0.962005 0.875715
1 0.962005 0.875715
0 1 0.875715
0.0654917 1 0.875715
0.187747 1 0.875715
0.357458 1 0.875715
0.548287 1 0.875715
0.731029 1 0.875715
0.875715 1 0.875715
0.962005 1 0.875715
1 1 0.875715
0 0 0.962005
0.0654917 0 0.962005
0.187747 0 0.962005
0.357458 0 0.962005
0.548287 0 0.962005
0.731029 0 0.962005
0.875715 0 0.962005
0.962005 0 0.962005
1 0 0.962005
0 0.0654917 0.962005
0.0654917 0.0654917 0.962005
0.187747 0.0654917 0.962005
0.357458 0.0654917 0.962005
0.548287 0.0654917 0.962005
0.731029 0.0654917 0.962005
0.875715 0.0654917 0.962005
0.962005 0.0654917 0.962005
1 0.0654917 0.962005
0 0.187747 0.962005
0.0654917 0.187747 0.962005
0.187747 0.187747 0.962005
0.357458 0.187747 0.962005
0.548287 0.187747 0.962005
0.731029 0.187747 0.962005
0.875715 0.187747 0.962005
0.962005 0.187747 0.962005
1 0.187747 0.962005
0 0.357458 0.962005
0.0654917 0.357458 0.962005
0.187747 0.357458 0.962005
0.357458 0.357458 0.962005
0.548287 0.357458 0.962005
0.731029 0.357458 0.962005
0.875715 0.357458 0.962005
0.962005 0.357458 0.962005
1 0.357458 0.962005
0 0.548287 0.962005
0.0654917 0.548287 0.962005
0.187747 0.548287 0.962005
0.357458 0.548287 0.962005
0.548287 0.548287 0.962005
0.731029 0.548287 0.962005
0.875715 0.548287 0.962005
0.962005 0.548287 0.962005
1 0.548287 0.962005
0 0.731029 0.962005
0.0654917 0.731029 0.962005
0.187747 0.731029 0.962005
0.357458 0.731029 0.962005
0.548287 0.731029 0.962005
0.731029 0.731029 0.962005
0.875715 0.731029 0.962005
0.962005 0.731029 0.962005
1 0.731029 0.962005
0 0.875715 0.962005
0.0654917 0.875715 0.962005
0.187747 0.875715 0.962005
0.357458 0.875715 0.962005
0.548287 0.875715 0.962005
0.731029 0.875715 0.962005
0.875715 0.875715 0.962005
0.962005 0.875715 0.962005
1 0.875715 0.962005
0 0.962005 0.962005
0.0654917 0.962005 0.962005
0.187747 0.962005 0.962005
0.357458 0.962005 0.962005
0.548287 0.962005 0.962005
0.731029 0.962005 0.962005
0.875715 0.962005 0.962005
0.962005 0.962005 0.962005
1 0.962005 0.962005
0 1 0.962005
0.0654917 1 0.962005
0.187747 1 0.962005
0.357458 1 0.962005
0.548287 1 0.962005
0.731029 1 0.962005
0.875715 1 0.962005
0.962005 1 0.962005
1 1 0.962005
0 0 1
0.0654917 0 1
0.187747 0 1
0.357458 0 1
0.548287 0 1
0.731029 0 1
0.875715 0 1
0.962005 0 1
1 0 1
0 0.0654917 1
0.0654917 0.0654917 1
0.187747 0.0654917 1
0.357458 0.0654917 1
0.548287 0.0654917 1
0.731029 0.0654917 1
0.875715 0.0654917 1
0.962005 0.0654917 1
1 0.0654917 1
0 0.187747 1
0.0654917 0.187747 1
0.187747 0.187747 1
0.357458 0.187747 1
0.548287 0.187747 1
0.731029 0.187747 1
0.875715 0.187747 1
0.962005 0.187747 1
1 0.187747 1
0 0.357458 1
0.0654917 0.357458 1
0.187747 0.357458 1
0.357458 0.357458 1
0.548287 0.357458 1
0.731029 0.357458 1
0.875715 0.357458 1
0.962005 0.357458 1
1 0.357458 1
0 0.548287 1
0.0654917 0.548287 1
0.187747 0.548287 1
0.357458 0.548287 1
0.548287 0.548287 1
0.731029 0.548287 1
0.875715 0.548287 1
0.962005 0.548287 1
1 0.548287 1
0 0.731029 1
0.0654917 0.731029 1
0.187747 0.731029 1
0.357458 0.731029 1
0.548287 0.731029 1
0.731029 0.731029 1
0.875715 0.731029 1
0.962005 0.731029 1
1 0.731029 1
0 0.875715 1
0.0654917 0.875715 1
0.187747 0.875715 1
0.357458 0.875715 1
0.548287 0.875715 1
0.731029 0.875715 1
0.875715 0.875715 1
0.962005 0.875715 1
1 0.875715 1
0 0.962005 1
0.0654917 0.962005 1
0.187747 0.962005 1
0.357458 0.962005 1
0.548287 0.962005 1
0.731029 0.962005 1
0.875715 0.962005 1
0.962005 0.962005 1
1 0.962005 1
0 1 1
0.0654917 1 1
0.187747 1 1
0.357458 1 1
0.548287 1 1
0.731029 1 1
0.875715 1 1
0.962005 1 1
1 1 1
